;FLAVOR:Marlin
;TIME:1524
;Filament used: 0m, 0.684152m
;Layer height: 0.1
;MINX:68.414
;MINY:84.454
;MINZ:0.2
;MAXX:147.494
;MAXY:135.545
;MAXZ:3.5
;Generated with Cura_SteamEngine 4.4.1
T1
M140 S65
M105
M190 S65
M104 S200
M105
M109 S200
M82 ;absolute extrusion mode
G28 ;Home
G1 Z15.0 F6000 ;Move the platform down 15mm
;Prime the extruder
G92 E0
G1 F200 E3
G92 E0
G92 E0
t1
G92 E0
G1 F1500 E-1
;LAYER_COUNT:34
;LAYER:0
M106 S255
G0 F3600 X90.624 Y86.808 Z0.2
;TYPE:SKIRT
G1 F1500 E0
G1 X91.203 Y86.271 E0.02627
G1 X91.834 Y85.796 E0.05253
G1 X92.509 Y85.387 E0.07878
G1 X93.223 Y85.048 E0.10507
G1 X93.967 Y84.783 E0.13134
G1 X94.733 Y84.595 E0.15757
G1 X95.515 Y84.485 E0.18384
G1 X96.208 Y84.454 E0.20691
G1 X98.994 Y84.454 E0.29958
G1 X99.783 Y84.494 E0.32585
G1 X100.563 Y84.613 E0.35209
G1 X101.328 Y84.811 E0.37838
G1 X102.068 Y85.085 E0.40462
G1 X102.7 Y85.395 E0.42804
G1 X102.955 Y85.253 E0.43774
G1 X103.68 Y84.941 E0.46399
G1 X104.433 Y84.704 E0.49025
G1 X105.207 Y84.545 E0.51653
G1 X105.992 Y84.464 E0.54278
G1 X106.394 Y84.454 E0.55615
G1 X137.732 Y84.454 E1.59846
G1 X138.521 Y84.494 E1.62474
G1 X139.301 Y84.613 E1.65098
G1 X140.066 Y84.811 E1.67726
G1 X140.806 Y85.085 E1.70351
G1 X141.515 Y85.433 E1.72978
G1 X142.186 Y85.851 E1.75607
G1 X142.81 Y86.334 E1.78232
G1 X143.383 Y86.877 E1.80857
G1 X143.898 Y87.476 E1.83485
G1 X144.349 Y88.124 E1.8611
G1 X144.733 Y88.815 E1.8874
G1 X145.045 Y89.54 E1.91365
G1 X145.282 Y90.293 E1.9399
G1 X145.441 Y91.067 E1.96619
G1 X145.522 Y91.852 E1.99243
G1 X145.527 Y92.071 E1.99972
G1 X145.68 Y92.828 E2.02541
G1 X145.766 Y93.982 E2.0639
G1 X145.767 Y105.367 E2.44256
G1 X145.86 Y105.476 E2.44733
G1 X146.311 Y106.124 E2.47359
G1 X146.695 Y106.815 E2.49988
G1 X147.007 Y107.54 E2.52613
G1 X147.244 Y108.293 E2.55239
G1 X147.403 Y109.067 E2.57867
G1 X147.484 Y109.852 E2.60492
G1 X147.494 Y110.254 E2.61829
G1 X147.494 Y125.106 E3.11227
G1 X147.475 Y125.653 E3.13047
G1 X147.432 Y126.265 E3.15088
G1 X147.337 Y127.049 E3.17715
G1 X147.139 Y127.902 E3.20627
G1 X147.006 Y128.358 E3.22207
G1 X146.747 Y129.104 E3.24833
G1 X146.471 Y129.709 E3.27045
G1 X146.26 Y130.124 E3.28594
G1 X145.867 Y130.809 E3.3122
G1 X145.48 Y131.357 E3.33452
G1 X145.195 Y131.726 E3.35002
G1 X144.681 Y132.326 E3.3763
G1 X144.208 Y132.784 E3.3982
G1 X143.862 Y133.092 E3.41361
G1 X143.247 Y133.587 E3.43986
G1 X142.706 Y133.944 E3.46142
G1 X142.31 Y134.183 E3.47681
G1 X141.615 Y134.556 E3.50304
G1 X140.971 Y134.826 E3.52627
G1 X140.533 Y134.987 E3.54179
G1 X139.779 Y135.222 E3.56806
G1 X139.181 Y135.35 E3.5884
G1 X138.722 Y135.43 E3.60389
G1 X137.938 Y135.526 E3.63016
G1 X137.231 Y135.545 E3.65369
G1 X136.77 Y135.536 E3.66902
G1 X135.982 Y135.48 E3.6953
G1 X135.363 Y135.38 E3.71615
G1 X134.907 Y135.287 E3.73163
G1 X134.143 Y135.09 E3.75787
G1 X133.509 Y134.862 E3.78028
G1 X133.077 Y134.685 E3.79581
G1 X132.362 Y134.349 E3.82209
G1 X131.789 Y134.011 E3.84421
G1 X131.399 Y133.758 E3.85968
G1 X130.759 Y133.295 E3.88595
G1 X130.257 Y132.855 E3.90815
G1 X129.923 Y132.536 E3.92351
G1 X129.38 Y131.962 E3.94979
G1 X129.138 Y131.654 E3.96282
G1 X114.248 Y131.654 E4.45806
G1 X113.826 Y132.168 E4.48018
G1 X113.352 Y132.645 E4.50255
G1 X113.006 Y132.965 E4.51822
G1 X112.4 Y133.472 E4.5445
G1 X111.862 Y133.842 E4.56622
G1 X111.466 Y134.091 E4.58178
G1 X110.777 Y134.477 E4.60805
G1 X110.127 Y134.763 E4.63167
G1 X109.69 Y134.932 E4.64725
G1 X108.94 Y135.179 E4.67351
G1 X108.298 Y135.326 E4.69542
G1 X107.834 Y135.412 E4.71111
G1 X107.052 Y135.517 E4.73736
G1 X106.363 Y135.543 E4.76029
G1 X105.898 Y135.54 E4.77576
G1 X105.109 Y135.495 E4.80204
G1 X104.447 Y135.394 E4.82431
G1 X103.983 Y135.303 E4.84004
G1 X103.217 Y135.112 E4.8663
G1 X102.59 Y134.892 E4.8884
G1 X102.157 Y134.719 E4.90391
G1 X101.439 Y134.39 E4.93017
G1 X100.848 Y134.047 E4.9529
G1 X100.454 Y133.795 E4.96846
G1 X99.811 Y133.336 E4.99473
G1 X99.292 Y132.886 E5.01758
G1 X98.949 Y132.561 E5.0333
G1 X98.404 Y131.99 E5.05955
G1 X97.991 Y131.466 E5.08174
G1 X97.718 Y131.088 E5.09725
G1 X97.288 Y130.425 E5.12353
G1 X96.994 Y129.865 E5.14457
G1 X96.798 Y129.452 E5.15977
G1 X96.516 Y128.776 E5.18414
G1 X95.161 Y125.054 E5.31588
G1 X89.749 Y125.054 E5.49588
G1 X88.465 Y128.583 E5.62079
G1 X88.274 Y129.059 E5.63784
G1 X88.005 Y129.67 E5.66005
G1 X87.65 Y130.376 E5.68633
G1 X87.151 Y131.147 E5.71688
G1 X86.868 Y131.532 E5.73277
G1 X86.368 Y132.143 E5.75903
G1 X85.912 Y132.608 E5.78069
G1 X85.571 Y132.927 E5.79622
G1 X84.967 Y133.437 E5.82251
G1 X84.424 Y133.815 E5.84452
G1 X84.032 Y134.064 E5.85997
G1 X83.345 Y134.453 E5.88622
G1 X82.732 Y134.728 E5.90857
G1 X82.302 Y134.899 E5.92396
G1 X81.555 Y135.153 E5.9502
G1 X80.905 Y135.308 E5.97243
G1 X80.446 Y135.397 E5.98798
G1 X79.664 Y135.508 E6.01425
G1 X79.029 Y135.54 E6.0354
G1 X78.568 Y135.544 E6.05073
G1 X77.779 Y135.511 E6.077
G1 X77.083 Y135.414 E6.10037
G1 X76.623 Y135.329 E6.11593
G1 X75.854 Y135.147 E6.14221
G1 X75.253 Y134.944 E6.16331
G1 X74.819 Y134.778 E6.17876
G1 X74.097 Y134.459 E6.20502
G1 X73.524 Y134.139 E6.22685
G1 X73.13 Y133.897 E6.24223
G1 X72.479 Y133.451 E6.26847
G1 X71.963 Y133.02 E6.29083
G1 X71.619 Y132.707 E6.3063
G1 X71.062 Y132.147 E6.33257
G1 X70.648 Y131.645 E6.35421
G1 X70.368 Y131.275 E6.36965
G1 X69.924 Y130.622 E6.39591
G1 X69.595 Y130.023 E6.41864
G1 X69.388 Y129.604 E6.43418
G1 X69.074 Y128.879 E6.46046
G1 X68.868 Y128.247 E6.48257
G1 X68.744 Y127.803 E6.4979
G1 X68.571 Y127.033 E6.52415
G1 X68.477 Y126.265 E6.54989
G1 X68.434 Y125.668 E6.5698
G1 X68.414 Y125.108 E6.58843
G1 X68.414 Y112.754 E6.99933
G1 X68.454 Y111.965 E7.0256
G1 X68.573 Y111.185 E7.05185
G1 X68.771 Y110.42 E7.07813
G1 X69.045 Y109.68 E7.10438
G1 X69.393 Y108.971 E7.13064
G1 X69.811 Y108.3 E7.15694
G1 X70.294 Y107.676 E7.18318
G1 X70.63 Y107.308 E7.19976
G1 X90.624 Y86.808 E8.15219
G0 F3600 X90.91 Y87.087
G1 F1500 X91.475 Y86.565 E8.17777
G1 X92.091 Y86.105 E8.20334
G1 X92.752 Y85.711 E8.22894
G1 X93.45 Y85.387 E8.25453
G1 X94.177 Y85.138 E8.28009
G1 X94.927 Y84.966 E8.30568
G1 X95.691 Y84.872 E8.33129
G1 X96.208 Y84.854 E8.34849
G1 X98.994 Y84.854 E8.44116
G1 X99.762 Y84.894 E8.46673
G1 X100.522 Y85.013 E8.49232
G1 X101.265 Y85.211 E8.51789
G1 X101.984 Y85.485 E8.54349
G1 X102.67 Y85.832 E8.56906
G1 X102.695 Y85.848 E8.57004
G1 X103.33 Y85.518 E8.59384
G1 X104.045 Y85.237 E8.6194
G1 X104.787 Y85.031 E8.64501
G1 X105.545 Y84.903 E8.67058
G1 X106.394 Y84.854 E8.69886
G1 X137.732 Y84.854 E9.74117
G1 X138.5 Y84.894 E9.76675
G1 X139.26 Y85.013 E9.79233
G1 X140.003 Y85.211 E9.81791
G1 X140.722 Y85.485 E9.8435
G1 X141.408 Y85.832 E9.86907
G1 X142.055 Y86.248 E9.89465
G1 X142.655 Y86.729 E9.92023
G1 X143.202 Y87.27 E9.94582
G1 X143.69 Y87.865 E9.97141
G1 X144.113 Y88.507 E9.99698
G1 X144.468 Y89.19 E10.02258
G1 X144.749 Y89.905 E10.04814
G1 X144.955 Y90.647 E10.07375
G1 X145.083 Y91.405 E10.09932
G1 X145.126 Y92.149 E10.1241
G1 X145.196 Y92.405 E10.13293
G1 X145.321 Y93.164 E10.15851
G1 X145.366 Y93.982 E10.18576
G1 X145.367 Y105.517 E10.56942
G1 X145.652 Y105.865 E10.58438
G1 X146.075 Y106.507 E10.60995
G1 X146.43 Y107.19 E10.63555
G1 X146.711 Y107.905 E10.6611
G1 X146.917 Y108.647 E10.68672
G1 X147.045 Y109.405 E10.71228
G1 X147.094 Y110.254 E10.74057
G1 X147.094 Y125.106 E11.23455
G1 X147.076 Y125.625 E11.25182
G1 X147.033 Y126.237 E11.27223
G1 X146.939 Y127 E11.2978
G1 X146.755 Y127.79 E11.32477
G1 X146.622 Y128.246 E11.34057
G1 X146.369 Y128.972 E11.36614
G1 X146.114 Y129.528 E11.38649
G1 X145.903 Y129.943 E11.40197
G1 X145.52 Y130.609 E11.42753
G1 X145.164 Y131.112 E11.44802
G1 X144.879 Y131.481 E11.46353
G1 X144.377 Y132.065 E11.48914
G1 X143.942 Y132.485 E11.50926
G1 X143.596 Y132.793 E11.52466
G1 X142.996 Y133.274 E11.55024
G1 X142.5 Y133.602 E11.57002
G1 X142.104 Y133.841 E11.5854
G1 X141.425 Y134.203 E11.61099
G1 X140.833 Y134.451 E11.63234
G1 X140.395 Y134.612 E11.64786
G1 X139.66 Y134.839 E11.67345
G1 X139.113 Y134.956 E11.69205
G1 X138.654 Y135.036 E11.70755
G1 X137.89 Y135.129 E11.73315
G1 X137.239 Y135.145 E11.75481
G1 X136.778 Y135.136 E11.77014
G1 X136.01 Y135.081 E11.79575
G1 X135.443 Y134.988 E11.81486
G1 X134.987 Y134.895 E11.83034
G1 X134.243 Y134.702 E11.85591
G1 X133.66 Y134.492 E11.87652
G1 X133.228 Y134.315 E11.89204
G1 X132.533 Y133.986 E11.91762
G1 X132.007 Y133.675 E11.93794
G1 X131.617 Y133.422 E11.9534
G1 X130.994 Y132.971 E11.97899
G1 X130.533 Y132.565 E11.99942
G1 X130.199 Y132.246 E12.01478
G1 X129.671 Y131.687 E12.04035
G1 X129.332 Y131.254 E12.05864
G1 X114.054 Y131.254 E12.56679
G1 X114.005 Y131.32 E12.56953
G1 X113.516 Y131.913 E12.59509
G1 X113.08 Y132.352 E12.61567
G1 X112.734 Y132.672 E12.63134
G1 X112.143 Y133.164 E12.65692
G1 X111.649 Y133.503 E12.67685
G1 X111.253 Y133.752 E12.69241
G1 X110.582 Y134.128 E12.71799
G1 X109.983 Y134.39 E12.73973
G1 X109.546 Y134.559 E12.75532
G1 X108.815 Y134.799 E12.78091
G1 X108.226 Y134.933 E12.801
G1 X107.762 Y135.019 E12.81669
G1 X106.999 Y135.12 E12.84229
G1 X106.365 Y135.143 E12.86339
G1 X105.9 Y135.14 E12.87886
G1 X105.132 Y135.095 E12.90445
G1 X104.524 Y135.002 E12.92491
G1 X104.06 Y134.911 E12.94063
G1 X103.314 Y134.724 E12.96621
G1 X102.738 Y134.521 E12.98652
G1 X102.305 Y134.348 E13.00203
G1 X101.607 Y134.026 E13.0276
G1 X101.064 Y133.71 E13.0485
G1 X100.67 Y133.458 E13.06405
G1 X100.044 Y133.01 E13.08965
G1 X99.567 Y132.596 E13.11066
G1 X99.224 Y132.271 E13.12638
G1 X98.694 Y131.713 E13.15197
G1 X98.315 Y131.232 E13.17234
G1 X98.042 Y130.854 E13.18785
G1 X97.625 Y130.208 E13.21342
G1 X97.356 Y129.694 E13.23272
G1 X97.16 Y129.281 E13.24792
G1 X96.891 Y128.639 E13.27108
G1 X95.44 Y124.654 E13.41213
G1 X89.469 Y124.654 E13.61073
G1 X88.089 Y128.446 E13.74494
G1 X87.908 Y128.898 E13.76114
G1 X87.639 Y129.509 E13.78334
G1 X87.293 Y130.196 E13.80892
G1 X86.828 Y130.91 E13.83726
G1 X86.545 Y131.295 E13.85316
G1 X86.058 Y131.89 E13.87873
G1 X85.638 Y132.316 E13.89863
G1 X85.297 Y132.635 E13.91416
G1 X84.709 Y133.131 E13.93974
G1 X84.21 Y133.477 E13.95994
G1 X83.818 Y133.726 E13.97539
G1 X83.148 Y134.104 E14.00097
G1 X82.584 Y134.356 E14.02152
G1 X82.154 Y134.527 E14.03691
G1 X81.426 Y134.774 E14.06248
G1 X80.829 Y134.916 E14.08289
G1 X80.37 Y135.005 E14.09844
G1 X79.608 Y135.112 E14.12403
G1 X79.025 Y135.14 E14.14345
G1 X78.564 Y135.144 E14.15878
G1 X77.796 Y135.11 E14.18435
G1 X77.155 Y135.021 E14.20587
G1 X76.695 Y134.936 E14.22143
G1 X75.947 Y134.757 E14.24701
G1 X75.396 Y134.571 E14.26635
G1 X74.962 Y134.405 E14.28181
G1 X74.259 Y134.093 E14.30739
G1 X73.733 Y133.799 E14.32743
G1 X73.339 Y133.557 E14.34281
G1 X72.705 Y133.12 E14.36842
G1 X72.232 Y132.724 E14.38894
G1 X71.888 Y132.411 E14.40441
G1 X71.347 Y131.865 E14.42997
G1 X70.967 Y131.403 E14.44987
G1 X70.687 Y131.033 E14.4653
G1 X70.256 Y130.397 E14.49086
G1 X69.953 Y129.846 E14.51177
G1 X69.746 Y129.427 E14.52731
G1 X69.442 Y128.72 E14.55291
G1 X69.254 Y128.139 E14.57322
G1 X69.13 Y127.695 E14.58855
G1 X68.962 Y126.945 E14.61412
G1 X68.876 Y126.237 E14.63784
G1 X68.833 Y125.64 E14.65775
G1 X68.814 Y125.108 E14.67545
G1 X68.814 Y112.754 E15.08635
G1 X68.854 Y111.986 E15.11193
G1 X68.973 Y111.226 E15.13751
G1 X69.171 Y110.483 E15.16309
G1 X69.445 Y109.764 E15.18868
G1 X69.792 Y109.078 E15.21425
G1 X70.208 Y108.431 E15.23983
G1 X70.916 Y107.587 E15.27647
G1 X90.91 Y87.087 E16.2289
G0 F3600 X91.197 Y87.366
G1 F1500 X91.747 Y86.86 E16.25376
G1 X92.348 Y86.414 E16.27865
G1 X92.993 Y86.036 E16.30352
G1 X93.675 Y85.728 E16.32841
G1 X94.386 Y85.495 E16.35329
G1 X95.118 Y85.339 E16.37818
G1 X96.208 Y85.254 E16.41455
G1 X98.994 Y85.254 E16.50721
G1 X99.741 Y85.294 E16.53209
G1 X100.479 Y85.413 E16.55696
G1 X101.201 Y85.611 E16.58186
G1 X101.897 Y85.884 E16.60672
G1 X102.56 Y86.231 E16.63161
G1 X102.696 Y86.322 E16.63705
G1 X103.028 Y86.116 E16.65005
G1 X103.702 Y85.792 E16.67492
G1 X104.407 Y85.542 E16.6998
G1 X105.135 Y85.368 E16.7247
G1 X105.877 Y85.273 E16.74958
G1 X106.394 Y85.254 E16.76678
G1 X137.732 Y85.254 E17.80909
G1 X138.479 Y85.294 E17.83397
G1 X139.217 Y85.413 E17.85883
G1 X139.939 Y85.611 E17.88373
G1 X140.635 Y85.884 E17.9086
G1 X141.298 Y86.231 E17.93349
G1 X141.921 Y86.646 E17.95839
G1 X142.495 Y87.125 E17.98325
G1 X143.016 Y87.662 E18.00814
G1 X143.475 Y88.252 E18.033
G1 X143.87 Y88.888 E18.0579
G1 X144.194 Y89.562 E18.08277
G1 X144.444 Y90.267 E18.10765
G1 X144.618 Y90.995 E18.13255
G1 X144.713 Y91.737 E18.15743
G1 X144.73 Y92.21 E18.17317
G1 X144.857 Y92.752 E18.19169
G1 X144.949 Y93.495 E18.21659
G1 X144.966 Y93.982 E18.2328
G1 X144.967 Y105.65 E18.62087
G1 X144.978 Y105.662 E18.62142
G1 X145.437 Y106.252 E18.64628
G1 X145.832 Y106.888 E18.67118
G1 X146.156 Y107.562 E18.69605
G1 X146.406 Y108.267 E18.72093
G1 X146.58 Y108.995 E18.74583
G1 X146.675 Y109.737 E18.77071
G1 X146.694 Y110.254 E18.78791
G1 X146.694 Y125.106 E19.28189
G1 X146.677 Y125.597 E19.29823
G1 X146.634 Y126.209 E19.31864
G1 X146.542 Y126.951 E19.34351
G1 X146.371 Y127.678 E19.36835
G1 X146.238 Y128.134 E19.38415
G1 X145.99 Y128.84 E19.40903
G1 X145.758 Y129.347 E19.42758
G1 X145.547 Y129.762 E19.44306
G1 X145.173 Y130.409 E19.46792
G1 X144.847 Y130.868 E19.48665
G1 X144.562 Y131.237 E19.50215
G1 X144.074 Y131.804 E19.52703
G1 X143.676 Y132.187 E19.54541
G1 X143.33 Y132.495 E19.56081
G1 X142.746 Y132.961 E19.58566
G1 X142.293 Y133.259 E19.6037
G1 X141.897 Y133.498 E19.61908
G1 X141.237 Y133.85 E19.64396
G1 X140.695 Y134.075 E19.66348
G1 X140.257 Y134.236 E19.679
G1 X139.542 Y134.456 E19.70388
G1 X139.044 Y134.562 E19.72081
G1 X138.585 Y134.642 E19.73631
G1 X137.842 Y134.731 E19.7612
G1 X137.246 Y134.745 E19.78103
G1 X136.785 Y134.736 E19.79636
G1 X136.039 Y134.681 E19.82124
G1 X135.523 Y134.596 E19.83864
G1 X135.067 Y134.503 E19.85412
G1 X134.343 Y134.314 E19.879
G1 X133.812 Y134.121 E19.8978
G1 X133.38 Y133.944 E19.91332
G1 X132.704 Y133.624 E19.9382
G1 X132.224 Y133.34 E19.95675
G1 X131.834 Y133.087 E19.97221
G1 X131.229 Y132.646 E19.99711
G1 X130.809 Y132.276 E20.01573
G1 X130.475 Y131.957 E20.03109
G1 X129.963 Y131.412 E20.05596
G1 X129.628 Y130.984 E20.07404
G1 X129.534 Y130.854 E20.07937
G1 X113.853 Y130.854 E20.60093
G1 X113.684 Y131.082 E20.61037
G1 X113.207 Y131.659 E20.63527
G1 X112.809 Y132.058 E20.65401
G1 X112.463 Y132.378 E20.66968
G1 X111.887 Y132.856 E20.69458
G1 X111.436 Y133.165 E20.71276
G1 X111.04 Y133.414 E20.72832
G1 X110.386 Y133.778 E20.75322
G1 X109.839 Y134.017 E20.77307
G1 X109.402 Y134.186 E20.78865
G1 X108.691 Y134.418 E20.81353
G1 X108.153 Y134.54 E20.83188
G1 X107.689 Y134.626 E20.84757
G1 X106.947 Y134.723 E20.87246
G1 X106.368 Y134.743 E20.89173
G1 X105.903 Y134.74 E20.9072
G1 X105.156 Y134.695 E20.93209
G1 X104.601 Y134.609 E20.95077
G1 X104.137 Y134.518 E20.96649
G1 X103.411 Y134.335 E20.9914
G1 X102.887 Y134.149 E21.00989
G1 X102.454 Y133.976 E21.0254
G1 X101.775 Y133.662 E21.05028
G1 X101.279 Y133.373 E21.06937
G1 X100.885 Y133.121 E21.08493
G1 X100.278 Y132.685 E21.10979
G1 X99.842 Y132.305 E21.12902
G1 X99.499 Y131.98 E21.14474
G1 X98.985 Y131.437 E21.16961
G1 X98.639 Y130.997 E21.18822
G1 X98.366 Y130.619 E21.20373
G1 X97.961 Y129.99 E21.22861
G1 X97.717 Y129.522 E21.24617
G1 X97.521 Y129.109 E21.26137
G1 X97.267 Y128.502 E21.28326
G1 X95.721 Y124.254 E21.43361
G1 X89.189 Y124.254 E21.65087
G1 X87.713 Y128.31 E21.79443
G1 X87.542 Y128.737 E21.80973
G1 X87.273 Y129.348 E21.83193
G1 X86.935 Y130.015 E21.8568
G1 X86.506 Y130.673 E21.88293
G1 X86.223 Y131.058 E21.89882
G1 X85.749 Y131.636 E21.92368
G1 X85.365 Y132.024 E21.94184
G1 X85.024 Y132.343 E21.95737
G1 X84.451 Y132.824 E21.98225
G1 X83.995 Y133.14 E22.0007
G1 X83.603 Y133.389 E22.01615
G1 X82.951 Y133.756 E22.04103
G1 X82.437 Y133.985 E22.05975
G1 X82.007 Y134.156 E22.07514
G1 X81.298 Y134.394 E22.10001
G1 X80.752 Y134.523 E22.11867
G1 X80.293 Y134.612 E22.13423
G1 X79.553 Y134.715 E22.15908
G1 X79.022 Y134.74 E22.17676
G1 X78.561 Y134.744 E22.19209
G1 X77.813 Y134.71 E22.21699
G1 X77.228 Y134.627 E22.23665
G1 X76.768 Y134.542 E22.2522
G1 X76.041 Y134.367 E22.27708
G1 X75.539 Y134.197 E22.2947
G1 X75.105 Y134.031 E22.31016
G1 X74.422 Y133.727 E22.33502
G1 X73.942 Y133.458 E22.35332
G1 X73.548 Y133.216 E22.3687
