;FLAVOR:Marlin
;TIME:2346
;Filament used: 0m, 0.931831m
;Layer height: 0.1
;MINX:56.715
;MINY:84.453
;MINZ:0.2
;MAXX:163.284
;MAXY:135.541
;MAXZ:7
;Generated with Cura_SteamEngine 4.4.1
T1
M140 S65
M105
M190 S65
M104 S200
M105
M109 S200
M82 ;absolute extrusion mode
G28 ;Home
G1 Z15.0 F6000 ;Move the platform down 15mm
;Prime the extruder
G92 E0
G1 F200 E3
G92 E0
G92 E0
t1
G92 E0
G1 F1500 E-1
;LAYER_COUNT:69
;LAYER:0
M106 S255
G0 F3600 X59.737 Y86.087 Z0.2
;TYPE:SKIRT
G1 F1500 E0
G1 X60.385 Y85.636 E0.02495
G1 X61.076 Y85.252 E0.04992
G1 X61.801 Y84.94 E0.07486
G1 X62.554 Y84.703 E0.09981
G1 X63.328 Y84.544 E0.12477
G1 X64.113 Y84.463 E0.14971
G1 X64.515 Y84.453 E0.16241
G1 X108 Y84.453 E1.53642
G1 X108.789 Y84.493 E1.56138
G1 X109.569 Y84.612 E1.58631
G1 X110.334 Y84.81 E1.61128
G1 X111.074 Y85.084 E1.63621
G1 X111.783 Y85.432 E1.66117
G1 X112.454 Y85.85 E1.68615
G1 X113.078 Y86.333 E1.71108
G1 X113.584 Y86.807 E1.73299
G1 X130.976 Y104.639 E2.52004
G1 X153.501 Y99.026 E3.25353
G1 X153.532 Y99.019 E3.25453
G1 X153.63 Y98.995 E3.25772
G1 X154.405 Y98.846 E3.28266
G1 X155.192 Y98.777 E3.30762
G1 X155.981 Y98.787 E3.33255
G1 X156.766 Y98.877 E3.35752
G1 X157.537 Y99.046 E3.38246
G1 X158.288 Y99.292 E3.40743
G1 X159.009 Y99.613 E3.43237
G1 X159.695 Y100.005 E3.45733
G1 X160.337 Y100.464 E3.48227
G1 X160.93 Y100.986 E3.50723
G1 X161.467 Y101.565 E3.53218
G1 X161.942 Y102.195 E3.55711
G1 X162.351 Y102.871 E3.58208
G1 X162.69 Y103.584 E3.60702
G1 X162.956 Y104.328 E3.63199
G1 X163.144 Y105.095 E3.65694
G1 X163.254 Y105.877 E3.68189
G1 X163.284 Y106.666 E3.70684
G1 X163.235 Y107.454 E3.73179
G1 X163.106 Y108.233 E3.75674
G1 X162.899 Y108.995 E3.78169
G1 X162.616 Y109.732 E3.80663
G1 X162.259 Y110.437 E3.8316
G1 X161.834 Y111.102 E3.85654
G1 X161.58 Y111.439 E3.86987
G1 X160.997 Y112.169 E3.89939
G1 X160.843 Y112.355 E3.90702
G1 X160.393 Y112.884 E3.92897
G1 X160.255 Y113.042 E3.93559
G1 X159.533 Y113.846 E3.96974
G1 X159.352 Y114.04 E3.97812
G1 X158.751 Y114.665 E4.00552
G1 X158.627 Y114.792 E4.01113
G1 X158.157 Y115.259 E4.03206
G1 X158.025 Y115.386 E4.03785
G1 X157.197 Y116.171 E4.0739
G1 X156.939 Y116.405 E4.08491
G1 X155.814 Y117.38 E4.13195
G1 X155.513 Y117.629 E4.14429
G1 X154.285 Y118.59 E4.19356
G1 X153.929 Y118.853 E4.20754
G1 X152.602 Y119.775 E4.2586
G1 X152.217 Y120.026 E4.27312
G1 X150.691 Y120.958 E4.32962
G1 X150.258 Y121.203 E4.34534
G1 X148.812 Y121.964 E4.39697
G1 X148.432 Y122.151 E4.41035
G1 X146.961 Y122.826 E4.46149
G1 X146.608 Y122.978 E4.47364
G1 X144.965 Y123.636 E4.52956
G1 X144.649 Y123.754 E4.54022
G1 X143.846 Y124.036 E4.56711
G1 X143.665 Y124.098 E4.57315
G1 X143.066 Y124.292 E4.59305
G1 X142.925 Y124.336 E4.59772
G1 X142.179 Y124.562 E4.62235
G1 X141.972 Y124.622 E4.62916
G1 X141.43 Y124.77 E4.64691
G1 X141.283 Y124.808 E4.65171
G1 X140.609 Y124.978 E4.67367
G1 X140.408 Y125.026 E4.6802
G1 X139.864 Y125.148 E4.69781
G1 X139.592 Y125.204 E4.70659
G1 X139.095 Y125.297 E4.72257
G1 X138.668 Y125.365 E4.73623
G1 X137.847 Y125.472 E4.76239
G1 X136.915 Y125.537 E4.79191
G1 X135.773 Y125.548 E4.82799
G1 X135.718 Y126.331 E4.8528
G1 X135.623 Y127.115 E4.87775
G1 X135.449 Y127.885 E4.90269
G1 X135.331 Y128.27 E4.91542
G1 X135.16 Y128.779 E4.93238
G1 X134.871 Y129.514 E4.95734
G1 X134.472 Y130.278 E4.98457
G1 X134.2 Y130.736 E5.0014
G1 X133.763 Y131.394 E5.02636
G1 X133.187 Y132.085 E5.05478
G1 X132.818 Y132.479 E5.07184
G1 X132.25 Y133.027 E5.09678
G1 X131.579 Y133.55 E5.12366
G1 X131.142 Y133.854 E5.14048
G1 X130.472 Y134.272 E5.16543
G1 X129.627 Y134.676 E5.19503
G1 X129.128 Y134.879 E5.21205
G1 X128.383 Y135.139 E5.23698
G1 X127.542 Y135.336 E5.26427
G1 X127.014 Y135.429 E5.28121
G1 X126.23 Y135.526 E5.30617
G1 X125.356 Y135.541 E5.33379
G1 X124.819 Y135.52 E5.35078
G1 X124.033 Y135.449 E5.37571
G1 X123.143 Y135.27 E5.4044
G1 X122.629 Y135.135 E5.42119
G1 X121.876 Y134.896 E5.44615
G1 X121.087 Y134.55 E5.47337
G1 X120.605 Y134.306 E5.49044
G1 X119.92 Y133.914 E5.51538
G1 X119.181 Y133.377 E5.54424
G1 X118.769 Y133.039 E5.56108
G1 X118.184 Y132.508 E5.58605
G1 X117.624 Y131.88 E5.61263
G1 X117.289 Y131.461 E5.62958
G1 X116.828 Y130.82 E5.65453
G1 X116.373 Y130.014 E5.68378
G1 X116.137 Y129.531 E5.70076
G1 X115.816 Y128.775 E5.72671
G1 X114.461 Y125.053 E5.85187
G1 X109.047 Y125.053 E6.02294
G1 X107.685 Y128.793 E6.1487
G1 X107.347 Y129.582 E6.17582
G1 X107.11 Y130.061 E6.19271
G1 X106.724 Y130.75 E6.21766
G1 X106.17 Y131.524 E6.24774
G1 X105.817 Y131.958 E6.26541
G1 X105.288 Y132.544 E6.29036
G1 X104.597 Y133.16 E6.31961
G1 X104.166 Y133.5 E6.33695
G1 X103.522 Y133.957 E6.36191
G1 X102.676 Y134.424 E6.39244
G1 X102.174 Y134.662 E6.40999
G1 X101.445 Y134.964 E6.43493
G1 X100.556 Y135.221 E6.46417
G1 X100.013 Y135.344 E6.48176
G1 X99.235 Y135.48 E6.50671
G1 X98.29 Y135.537 E6.53663
G1 X97.74 Y135.537 E6.554
G1 X96.951 Y135.497 E6.57897
G1 X96.02 Y135.345 E6.60877
G1 X95.476 Y135.222 E6.6264
G1 X94.715 Y135.009 E6.65137
G1 X93.849 Y134.659 E6.68088
G1 X93.348 Y134.421 E6.6984
G1 X92.653 Y134.047 E6.72334
G1 X91.871 Y133.505 E6.75341
G1 X91.439 Y133.165 E6.77078
G1 X90.844 Y132.646 E6.79572
G1 X90.205 Y131.949 E6.8256
G1 X89.965 Y131.653 E6.83764
G1 X75.066 Y131.653 E7.30841
G1 X74.885 Y131.88 E7.31758
G1 X74.361 Y132.471 E7.34254
G1 X73.74 Y133.039 E7.36913
G1 X73.328 Y133.377 E7.38597
G1 X72.693 Y133.847 E7.41093
G1 X71.904 Y134.306 E7.43977
G1 X71.422 Y134.55 E7.45684
G1 X70.7 Y134.871 E7.48181
G1 X69.88 Y135.135 E7.50903
G1 X69.366 Y135.27 E7.52582
G1 X68.593 Y135.432 E7.55078
G1 X67.69 Y135.52 E7.57944
G1 X67.153 Y135.541 E7.59642
G1 X66.363 Y135.532 E7.62139
G1 X65.495 Y135.429 E7.64901
G1 X64.967 Y135.336 E7.66595
G1 X64.197 Y135.16 E7.6909
G1 X63.368 Y134.874 E7.71861
G1 X62.869 Y134.67 E7.73565
G1 X62.154 Y134.335 E7.76059
G1 X61.377 Y133.86 E7.78937
G1 X60.94 Y133.557 E7.80617
G1 X60.314 Y133.075 E7.83114
G1 X59.691 Y132.479 E7.85838
G1 X59.322 Y132.085 E7.87543
G1 X58.812 Y131.482 E7.90039
G1 X58.309 Y130.736 E7.92882
G1 X58.037 Y130.278 E7.94565
G1 X57.668 Y129.579 E7.97062
G1 X57.351 Y128.783 E7.9977
G1 X57.18 Y128.275 E8.01463
G1 X56.966 Y127.515 E8.03958
G1 X56.816 Y126.616 E8.06838
G1 X56.759 Y126.083 E8.08532
G1 X56.715 Y125.254 E8.11155
G1 X56.715 Y92.253 E9.15428
G1 X56.755 Y91.464 E9.17925
G1 X56.874 Y90.684 E9.20418
G1 X57.072 Y89.919 E9.22914
G1 X57.346 Y89.179 E9.25408
G1 X57.694 Y88.47 E9.27903
G1 X58.112 Y87.799 E9.30401
G1 X58.595 Y87.175 E9.32895
G1 X59.138 Y86.602 E9.35389
G1 X59.737 Y86.087 E9.37885
G0 F3600 X60.126 Y86.295
G1 F1500 X60.768 Y85.872 E9.40314
G1 X61.451 Y85.517 E9.42746
G1 X62.166 Y85.236 E9.45174
G1 X62.908 Y85.03 E9.47607
G1 X63.666 Y84.902 E9.50036
G1 X64.515 Y84.853 E9.52723
G1 X108 Y84.853 E10.90123
G1 X108.768 Y84.893 E10.92553
G1 X109.528 Y85.012 E10.94984
G1 X110.271 Y85.21 E10.97413
G1 X110.99 Y85.484 E10.99844
G1 X111.676 Y85.831 E11.02274
G1 X112.323 Y86.247 E11.04704
G1 X112.923 Y86.728 E11.07134
G1 X113.298 Y87.086 E11.08772
G1 X130.851 Y105.083 E11.88206
G1 X153.598 Y99.415 E12.62278
G1 X153.627 Y99.407 E12.62373
G1 X153.725 Y99.383 E12.62691
G1 X154.48 Y99.24 E12.65119
G1 X155.247 Y99.175 E12.67552
G1 X156.016 Y99.19 E12.69982
G1 X156.779 Y99.285 E12.72411
G1 X157.528 Y99.459 E12.74841
G1 X158.256 Y99.709 E12.77273
G1 X158.953 Y100.034 E12.79703
G1 X159.613 Y100.429 E12.82133
G1 X160.228 Y100.891 E12.84564
G1 X160.792 Y101.414 E12.86994
G1 X161.299 Y101.992 E12.89424
G1 X161.742 Y102.621 E12.91855
G1 X162.119 Y103.291 E12.94284
G1 X162.423 Y103.998 E12.96715
G1 X162.653 Y104.732 E12.99146
G1 X162.805 Y105.486 E13.01576
G1 X162.878 Y106.251 E13.04004
G1 X162.871 Y107.021 E13.06437
G1 X162.785 Y107.785 E13.08867
G1 X162.619 Y108.536 E13.11297
G1 X162.377 Y109.266 E13.13727
G1 X162.06 Y109.967 E13.16158
G1 X161.672 Y110.631 E13.18588
G1 X161.267 Y111.189 E13.20766
G1 X160.684 Y111.919 E13.23718
G1 X160.539 Y112.096 E13.24441
G1 X160.089 Y112.625 E13.26636
G1 X159.958 Y112.774 E13.27263
G1 X159.236 Y113.578 E13.30677
G1 X159.064 Y113.763 E13.31475
G1 X158.463 Y114.388 E13.34215
G1 X158.345 Y114.508 E13.34747
G1 X157.875 Y114.975 E13.3684
G1 X157.75 Y115.096 E13.3739
G1 X156.922 Y115.881 E13.40995
G1 X156.677 Y116.103 E13.4204
G1 X155.552 Y117.078 E13.46743
G1 X155.267 Y117.314 E13.47913
G1 X154.039 Y118.275 E13.5284
G1 X153.7 Y118.524 E13.54169
G1 X152.373 Y119.446 E13.59274
G1 X152.008 Y119.684 E13.60651
G1 X150.482 Y120.616 E13.66301
G1 X150.071 Y120.849 E13.67794
G1 X148.625 Y121.61 E13.72957
G1 X148.265 Y121.788 E13.74226
G1 X146.794 Y122.463 E13.7934
G1 X146.459 Y122.607 E13.80492
G1 X144.816 Y123.265 E13.86084
G1 X144.517 Y123.377 E13.87093
G1 X143.714 Y123.659 E13.89782
G1 X143.542 Y123.717 E13.90356
G1 X142.943 Y123.911 E13.92345
G1 X142.809 Y123.953 E13.92789
G1 X142.063 Y124.179 E13.95252
G1 X141.866 Y124.236 E13.959
G1 X141.324 Y124.384 E13.97675
G1 X141.185 Y124.42 E13.98129
G1 X140.511 Y124.59 E14.00325
G1 X140.32 Y124.636 E14.00946
G1 X139.776 Y124.758 E14.02707
G1 X139.518 Y124.811 E14.0354
G1 X139.021 Y124.904 E14.05137
G1 X138.616 Y124.968 E14.06433
G1 X137.795 Y125.075 E14.09049
G1 X136.911 Y125.137 E14.11849
G1 X135.388 Y125.152 E14.16662
G1 X135.376 Y125.489 E14.17727
G1 X135.319 Y126.303 E14.20305
G1 X135.225 Y127.066 E14.22734
G1 X134.952 Y128.143 E14.26245
G1 X134.781 Y128.652 E14.27942
G1 X134.498 Y129.367 E14.30371
G1 X134.129 Y130.074 E14.32891
G1 X133.857 Y130.532 E14.34574
G1 X133.43 Y131.172 E14.37005
G1 X132.895 Y131.811 E14.39639
G1 X132.526 Y132.205 E14.41344
G1 X131.972 Y132.739 E14.43776
G1 X131.351 Y133.222 E14.46261
G1 X130.914 Y133.526 E14.47943
G1 X130.26 Y133.932 E14.50376
G1 X129.477 Y134.306 E14.53117
G1 X128.978 Y134.509 E14.5482
G1 X128.251 Y134.761 E14.57251
G1 X127.473 Y134.942 E14.59775
G1 X126.945 Y135.035 E14.61469
G1 X126.181 Y135.129 E14.63901
G1 X125.372 Y135.141 E14.66457
G1 X124.835 Y135.12 E14.68156
G1 X124.069 Y135.05 E14.70586
G1 X123.244 Y134.883 E14.73246
G1 X122.73 Y134.748 E14.74925
G1 X121.997 Y134.514 E14.77356
G1 X121.268 Y134.193 E14.79873
G1 X120.786 Y133.949 E14.8158
G1 X120.119 Y133.567 E14.84009
G1 X119.434 Y133.068 E14.86686
G1 X119.022 Y132.73 E14.8837
G1 X118.454 Y132.212 E14.90799
G1 X117.936 Y131.63 E14.93261
G1 X117.601 Y131.211 E14.94956
G1 X117.153 Y130.586 E14.97386
G1 X116.732 Y129.839 E15.00095
G1 X116.496 Y129.356 E15.01794
G1 X116.191 Y128.638 E15.04259
G1 X114.74 Y124.653 E15.17659
G1 X108.767 Y124.653 E15.36532
G1 X107.309 Y128.656 E15.49993
G1 X106.989 Y129.405 E15.52566
G1 X106.752 Y129.884 E15.54255
G1 X106.375 Y130.554 E15.56684
G1 X105.86 Y131.271 E15.59474
G1 X105.507 Y131.705 E15.61241
G1 X104.991 Y132.276 E15.63673
G1 X104.349 Y132.846 E15.66386
G1 X103.918 Y133.186 E15.6812
G1 X103.29 Y133.63 E15.7055
G1 X102.505 Y134.063 E15.73383
G1 X102.003 Y134.301 E15.75139
G1 X101.292 Y134.594 E15.77568
G1 X100.468 Y134.831 E15.80278
G1 X99.925 Y134.954 E15.82037
G1 X99.167 Y135.085 E15.84467
G1 X98.29 Y135.137 E15.87243
G1 X97.74 Y135.137 E15.88981
G1 X96.972 Y135.097 E15.91411
G1 X96.108 Y134.955 E15.94178
G1 X95.564 Y134.832 E15.9594
G1 X94.824 Y134.623 E15.9837
G1 X94.021 Y134.298 E16.01107
G1 X93.52 Y134.06 E16.02859
G1 X92.843 Y133.694 E16.05291
G1 X92.118 Y133.191 E16.08079
G1 X91.686 Y132.851 E16.09816
G1 X91.107 Y132.345 E16.12246
G1 X90.516 Y131.697 E16.15017
G1 X90.164 Y131.263 E16.16783
G1 X90.157 Y131.253 E16.16821
G1 X74.874 Y131.253 E16.65111
G1 X74.573 Y131.63 E16.66635
G1 X74.062 Y132.205 E16.69066
G1 X73.487 Y132.73 E16.71526
G1 X73.075 Y133.068 E16.7321
G1 X72.455 Y133.524 E16.75642
G1 X71.723 Y133.949 E16.78316
G1 X71.241 Y134.193 E16.80023
G1 X70.538 Y134.504 E16.82452
G1 X69.779 Y134.748 E16.84971
G1 X69.265 Y134.883 E16.86651
G1 X68.512 Y135.04 E16.89081
G1 X67.674 Y135.12 E16.91741
G1 X67.137 Y135.141 E16.93439
G1 X66.368 Y135.131 E16.95869
G1 X65.564 Y135.035 E16.98427
G1 X65.036 Y134.942 E17.00121
G1 X64.287 Y134.769 E17.0255
G1 X63.52 Y134.504 E17.05114
G1 X63.021 Y134.3 E17.06818
G1 X62.325 Y133.972 E17.09249
G1 X61.605 Y133.531 E17.11917
G1 X61.168 Y133.228 E17.13597
G1 X60.559 Y132.758 E17.16028
G1 X59.983 Y132.205 E17.18551
G1 X59.614 Y131.811 E17.20256
G1 X59.118 Y131.223 E17.22687
G1 X58.652 Y130.532 E17.2532
G1 X58.38 Y130.074 E17.27004
G1 X58.023 Y129.393 E17.29433
G1 X57.73 Y128.656 E17.31939
G1 X57.559 Y128.148 E17.33633
G1 X57.352 Y127.407 E17.36064
G1 X57.214 Y126.574 E17.38732
G1 X57.157 Y126.041 E17.40425
G1 X57.115 Y125.254 E17.42916
G1 X57.115 Y92.253 E18.47189
G1 X57.155 Y91.485 E18.49619
G1 X57.274 Y90.725 E18.5205
G1 X57.472 Y89.982 E18.54479
G1 X57.746 Y89.263 E18.56911
G1 X58.093 Y88.577 E18.5934
G1 X58.509 Y87.93 E18.6177
G1 X58.99 Y87.33 E18.642
G1 X59.531 Y86.783 E18.66631
G1 X60.126 Y86.295 E18.69062
G0 F3600 X60.513 Y86.51
G1 F1500 X61.149 Y86.115 E18.71428
G1 X61.823 Y85.791 E18.73791
G1 X62.528 Y85.541 E18.76154
G1 X63.256 Y85.367 E18.78519
G1 X63.998 Y85.272 E18.80883
G1 X64.515 Y85.253 E18.82518
G1 X108 Y85.253 E20.19918
G1 X108.747 Y85.293 E20.22282
G1 X109.485 Y85.412 E20.24644
G1 X110.207 Y85.61 E20.27009
G1 X110.903 Y85.883 E20.29371
G1 X111.566 Y86.23 E20.31736
G1 X112.189 Y86.645 E20.34101
G1 X113.011 Y87.365 E20.37554
G1 X130.724 Y105.527 E21.17714
G1 X153.694 Y99.803 E21.92512
G1 X153.722 Y99.796 E21.92603
G1 X153.82 Y99.772 E21.92922
G1 X154.555 Y99.633 E21.95286
G1 X155.301 Y99.573 E21.97651
G1 X156.048 Y99.594 E22.00012
G1 X156.79 Y99.694 E22.02377
G1 X157.516 Y99.872 E22.04739
G1 X158.22 Y100.127 E22.07105
G1 X158.892 Y100.456 E22.09469
G1 X159.525 Y100.854 E22.11832
G1 X160.112 Y101.318 E22.14196
G1 X160.646 Y101.842 E22.1656
G1 X161.121 Y102.419 E22.18922
G1 X161.532 Y103.045 E22.21288
G1 X161.874 Y103.71 E22.23651
G1 X162.142 Y104.408 E22.26013
G1 X162.335 Y105.131 E22.28377
G1 X162.45 Y105.87 E22.30741
G1 X162.485 Y106.617 E22.33104
G1 X162.44 Y107.364 E22.35468
G1 X162.316 Y108.102 E22.37833
G1 X162.113 Y108.822 E22.40196
G1 X161.835 Y109.516 E22.42559
G1 X161.485 Y110.177 E22.44922
G1 X160.955 Y110.939 E22.47855
G1 X160.372 Y111.669 E22.50807
G1 X160.234 Y111.837 E22.51494
G1 X159.784 Y112.366 E22.53688
G1 X159.66 Y112.507 E22.54281
G1 X158.938 Y113.311 E22.57696
G1 X158.776 Y113.486 E22.58449
G1 X158.175 Y114.111 E22.61189
G1 X158.063 Y114.225 E22.61694
G1 X157.593 Y114.692 E22.63787
G1 X157.475 Y114.806 E22.64306
G1 X156.647 Y115.591 E22.67911
G1 X156.416 Y115.801 E22.68897
G1 X155.291 Y116.776 E22.73601
G1 X155.02 Y116.999 E22.7471
G1 X153.792 Y117.96 E22.79637
G1 X153.472 Y118.196 E22.80894
G1 X152.145 Y119.118 E22.85999
G1 X151.8 Y119.343 E22.87301
G1 X150.274 Y120.275 E22.92951
G1 X149.885 Y120.496 E22.94364
G1 X148.439 Y121.257 E22.99527
G1 X148.098 Y121.424 E23.00727
G1 X146.627 Y122.099 E23.05841
G1 X146.31 Y122.235 E23.06931
G1 X144.667 Y122.893 E23.12523
G1 X144.384 Y123 E23.13479
G1 X143.581 Y123.282 E23.16168
G1 X143.419 Y123.336 E23.16708
G1 X142.82 Y123.53 E23.18697
G1 X142.693 Y123.57 E23.19118
G1 X141.947 Y123.796 E23.21581
G1 X141.761 Y123.85 E23.22193
G1 X141.219 Y123.998 E23.23968
G1 X141.087 Y124.032 E23.24399
G1 X140.413 Y124.202 E23.26595
G1 X140.233 Y124.245 E23.2718
G1 X139.689 Y124.367 E23.28941
G1 X139.445 Y124.418 E23.29729
G1 X138.948 Y124.511 E23.31327
G1 X138.565 Y124.571 E23.32552
G1 X137.744 Y124.678 E23.35168
G1 X136.907 Y124.737 E23.37819
G1 X135.263 Y124.753 E23.43014
G1 X134.994 Y124.753 E23.43864
G1 X134.994 Y124.972 E23.44556
G1 X134.977 Y125.461 E23.46102
G1 X134.92 Y126.275 E23.4868
G1 X134.828 Y127.017 E23.51043
G1 X134.573 Y128.015 E23.54297
G1 X134.402 Y128.524 E23.55994
G1 X134.126 Y129.22 E23.5836
G1 X133.785 Y129.869 E23.60676
G1 X133.513 Y130.327 E23.62359
G1 X133.097 Y130.949 E23.64724
G1 X132.603 Y131.538 E23.67153
G1 X132.234 Y131.932 E23.68858
G1 X131.694 Y132.45 E23.71223
G1 X131.122 Y132.893 E23.73509
G1 X130.685 Y133.197 E23.75191
G1 X130.049 Y133.591 E23.77555
G1 X129.326 Y133.935 E23.80084
G1 X128.827 Y134.138 E23.81787
G1 X128.12 Y134.382 E23.8415
G1 X127.403 Y134.548 E23.86475
G1 X126.875 Y134.641 E23.88169
G1 X126.133 Y134.731 E23.90531
G1 X125.387 Y134.742 E23.92888
G1 X124.85 Y134.721 E23.94586
