;FLAVOR:Marlin
;TIME:1298
;Filament used: 0m, 1.58997m
;Layer height: 0.3
;MINX:107.175
;MINY:91.659
;MINZ:0.2
;MAXX:132.825
;MAXY:128.341
;MAXZ:41.6
;Generated with Cura_SteamEngine 4.4.1
T1
M140 S65
M105
M190 S65
M104 S200
M105
M109 S200
M82 ;absolute extrusion mode
G28 ;Home
G1 Z15.0 F6000 ;Move the platform down 15mm
;Prime the extruder
G92 E0
G1 F200 E3
G92 E0
G92 E0
t1
G92 E0
G1 F1500 E-6.5
;LAYER_COUNT:139
;LAYER:0
M106 S255
G0 F3600 X112.101 Y93.118 Z0.2
;TYPE:SKIRT
G1 F1500 E0
G1 X112.492 Y92.709 E0.01317
G1 X112.936 Y92.359 E0.02634
G1 X113.425 Y92.075 E0.0395
G1 X113.949 Y91.864 E0.05265
G1 X114.498 Y91.728 E0.06582
G1 X115.058 Y91.671 E0.07893
G1 X115.381 Y91.661 E0.08645
G1 X115.505 Y91.659 E0.08934
G1 X128.175 Y91.659 E0.38432
G1 X128.873 Y91.669 E0.40058
G1 X129.437 Y91.717 E0.41375
G1 X129.987 Y91.844 E0.4269
G1 X130.515 Y92.048 E0.44007
G1 X131.009 Y92.323 E0.45324
G1 X131.458 Y92.666 E0.46639
G1 X131.855 Y93.068 E0.47955
G1 X132.192 Y93.523 E0.49273
G1 X132.46 Y94.02 E0.50588
G1 X132.656 Y94.55 E0.51903
G1 X132.776 Y95.103 E0.53221
G1 X132.814 Y95.557 E0.54281
G1 X132.823 Y95.877 E0.55027
G1 X132.825 Y95.989 E0.55288
G1 X132.825 Y96.975 E0.57583
G1 X132.815 Y97.704 E0.59281
G1 X132.798 Y98.013 E0.60001
G1 X132.778 Y98.228 E0.60504
G1 X132.779 Y98.228 E0.60506
G1 X132.545 Y100.993 E0.66967
G1 X132.392 Y103.724 E0.73335
G1 X132.317 Y106.399 E0.79565
G1 X132.319 Y109.142 E0.85952
G1 X132.396 Y111.847 E0.92252
G1 X132.55 Y114.515 E0.98474
G1 X132.694 Y116.102 E1.02184
G1 X132.699 Y116.164 E1.02329
G1 X132.804 Y117.554 E1.05574
G1 X132.813 Y117.735 E1.05996
G1 X132.823 Y118.069 E1.06774
G1 X132.825 Y118.189 E1.07054
G1 X132.825 Y119.178 E1.09356
G1 X132.815 Y119.905 E1.11049
G1 X132.767 Y120.468 E1.12364
G1 X132.64 Y121.019 E1.13681
G1 X132.437 Y121.547 E1.14998
G1 X132.162 Y122.041 E1.16314
G1 X131.82 Y122.491 E1.1763
G1 X131.417 Y122.888 E1.18947
G1 X130.963 Y123.224 E1.20262
G1 X130.207 Y123.6 E1.22228
G1 X127.641 Y124.552 E1.286
G1 X125.131 Y125.562 E1.34899
G1 X122.604 Y126.664 E1.41318
G1 X119.892 Y127.942 E1.48298
G1 X119.365 Y128.147 E1.49614
G1 X118.814 Y128.275 E1.50931
G1 X118.386 Y128.319 E1.51933
G1 X118.044 Y128.336 E1.5273
G1 X117.845 Y128.341 E1.53194
G1 X111.83 Y128.341 E1.67198
G1 X111.132 Y128.332 E1.68823
G1 X110.569 Y128.284 E1.70139
G1 X110.018 Y128.158 E1.71455
G1 X109.49 Y127.956 E1.72771
G1 X108.996 Y127.681 E1.74087
G1 X108.546 Y127.339 E1.75403
G1 X108.148 Y126.937 E1.7672
G1 X107.812 Y126.483 E1.78035
G1 X107.542 Y125.986 E1.79352
G1 X107.345 Y125.456 E1.80669
G1 X107.225 Y124.904 E1.81984
G1 X107.185 Y124.44 E1.83068
G1 X107.176 Y124.107 E1.83844
G1 X107.175 Y123.999 E1.84095
G1 X107.175 Y108.441 E2.20317
G1 X107.185 Y107.744 E2.2194
G1 X107.233 Y107.18 E2.23258
G1 X107.45 Y106.369 E2.25213
G1 X108.452 Y103.756 E2.31728
G1 X109.371 Y101.148 E2.38166
G1 X110.18 Y98.628 E2.44328
G1 X110.962 Y95.934 E2.50859
G1 X111.324 Y94.612 E2.54051
G1 X111.512 Y94.079 E2.55366
G1 X111.772 Y93.577 E2.56683
G1 X112.101 Y93.118 E2.57997
G0 F3600 X112.463 Y93.31
G1 F1500 X112.844 Y92.932 E2.59247
G1 X113.276 Y92.615 E2.60495
G1 X113.751 Y92.366 E2.61743
G1 X114.258 Y92.19 E2.62993
G1 X114.785 Y92.091 E2.64241
G1 X115.071 Y92.071 E2.64909
G1 X115.394 Y92.061 E2.65661
G1 X115.505 Y92.059 E2.65919
G1 X128.17 Y92.059 E2.95406
G1 X128.868 Y92.069 E2.97031
G1 X129.402 Y92.117 E2.9828
G1 X129.923 Y92.243 E2.99528
G1 X130.42 Y92.446 E3.00778
G1 X130.881 Y92.72 E3.02026
G1 X131.296 Y93.059 E3.03274
G1 X131.656 Y93.457 E3.04523
G1 X131.953 Y93.903 E3.05771
G1 X132.181 Y94.389 E3.07021
G1 X132.333 Y94.903 E3.08269
G1 X132.415 Y95.568 E3.09829
G1 X132.424 Y95.888 E3.10574
G1 X132.425 Y95.989 E3.10809
G1 X132.425 Y96.969 E3.13091
G1 X132.415 Y97.698 E3.14788
G1 X132.4 Y97.976 E3.15436
G1 X132.378 Y98.217 E3.16
G1 X132.145 Y100.97 E3.22432
G1 X131.994 Y103.655 E3.28693
G1 X131.917 Y106.424 E3.35143
G1 X131.919 Y109.118 E3.41415
G1 X131.998 Y111.881 E3.4785
G1 X132.153 Y114.576 E3.54135
G1 X132.295 Y116.139 E3.57789
G1 X132.3 Y116.194 E3.57918
G1 X132.405 Y117.584 E3.61163
G1 X132.413 Y117.747 E3.61543
G1 X132.423 Y118.081 E3.62321
G1 X132.425 Y118.189 E3.62573
G1 X132.425 Y119.173 E3.64864
G1 X132.415 Y119.9 E3.66556
G1 X132.367 Y120.434 E3.67805
G1 X132.241 Y120.955 E3.69053
G1 X132.039 Y121.452 E3.70302
G1 X131.765 Y121.913 E3.7155
G1 X131.426 Y122.328 E3.72798
G1 X131.029 Y122.689 E3.74047
G1 X130.583 Y122.986 E3.75295
G1 X130.068 Y123.225 E3.76616
G1 X127.501 Y124.178 E3.82992
G1 X124.958 Y125.201 E3.89373
G1 X122.467 Y126.287 E3.957
G1 X119.721 Y127.581 E4.02768
G1 X119.221 Y127.772 E4.04014
G1 X118.697 Y127.888 E4.05263
G1 X118.366 Y127.92 E4.06038
G1 X118.024 Y127.937 E4.06835
G1 X117.845 Y127.941 E4.07252
G1 X111.836 Y127.941 E4.21242
G1 X111.138 Y127.932 E4.22867
G1 X110.603 Y127.885 E4.24117
G1 X110.082 Y127.759 E4.25365
G1 X109.585 Y127.557 E4.26614
G1 X109.124 Y127.284 E4.27862
G1 X108.708 Y126.945 E4.29111
G1 X108.347 Y126.549 E4.30359
G1 X108.049 Y126.103 E4.31608
G1 X107.821 Y125.617 E4.32857
G1 X107.668 Y125.103 E4.34106
G1 X107.585 Y124.429 E4.35687
G1 X107.576 Y124.096 E4.36463
G1 X107.575 Y123.999 E4.36689
G1 X107.575 Y108.446 E4.72899
G1 X107.585 Y107.749 E4.74522
G1 X107.633 Y107.215 E4.7577
G1 X107.824 Y106.512 E4.77466
G1 X108.831 Y103.887 E4.84012
G1 X109.732 Y101.33 E4.90324
G1 X110.582 Y98.682 E4.96799
G1 X111.333 Y96.093 E5.03075
G1 X111.71 Y94.718 E5.06395
G1 X111.89 Y94.213 E5.07643
G1 X112.143 Y93.74 E5.08892
G1 X112.463 Y93.31 E5.1014
G0 F3600 X112.823 Y93.507
G1 F1500 X113.193 Y93.162 E5.11318
G1 X113.612 Y92.88 E5.12494
G1 X114.071 Y92.668 E5.13671
G1 X114.558 Y92.53 E5.14849
G1 X115.083 Y92.471 E5.16079
G1 X115.406 Y92.461 E5.16832
G1 X115.505 Y92.459 E5.17062
G1 X128.164 Y92.459 E5.46535
G1 X128.862 Y92.469 E5.4816
G1 X129.365 Y92.516 E5.49336
G1 X129.855 Y92.642 E5.50514
G1 X130.319 Y92.844 E5.51693
G1 X130.745 Y93.116 E5.52869
G1 X131.123 Y93.451 E5.54045
G1 X131.443 Y93.842 E5.55222
G1 X131.698 Y94.279 E5.564
G1 X131.881 Y94.75 E5.57576
G1 X131.988 Y95.244 E5.58753
G1 X132.015 Y95.579 E5.59535
G1 X132.024 Y95.899 E5.60281
G1 X132.025 Y95.989 E5.6049
G1 X132.025 Y96.964 E5.6276
G1 X132.015 Y97.693 E5.64458
G1 X132.002 Y97.94 E5.65033
G1 X131.98 Y98.181 E5.65597
G1 X131.746 Y100.947 E5.7206
G1 X131.594 Y103.659 E5.78384
G1 X131.517 Y106.412 E5.84796
G1 X131.519 Y109.13 E5.91124
G1 X131.598 Y111.881 E5.97531
G1 X131.754 Y114.604 E6.03881
G1 X131.897 Y116.175 E6.07554
G1 X131.901 Y116.224 E6.07669
G1 X132.006 Y117.614 E6.10914
G1 X132.014 Y117.759 E6.11252
G1 X132.024 Y118.093 E6.1203
G1 X132.025 Y118.189 E6.12254
G1 X132.025 Y119.167 E6.14531
G1 X132.015 Y119.894 E6.16223
G1 X131.968 Y120.397 E6.174
G1 X131.842 Y120.887 E6.18578
G1 X131.641 Y121.351 E6.19755
G1 X131.369 Y121.777 E6.20932
G1 X131.034 Y122.156 E6.22109
G1 X130.643 Y122.476 E6.23286
G1 X130.207 Y122.731 E6.24462
G1 X129.928 Y122.85 E6.25168
G1 X127.373 Y123.798 E6.31513
G1 X124.786 Y124.84 E6.38006
G1 X122.315 Y125.917 E6.44282
G1 X119.551 Y127.219 E6.51395
G1 X119.078 Y127.397 E6.52572
G1 X118.346 Y127.52 E6.543
G1 X118.004 Y127.537 E6.55097
G1 X117.845 Y127.541 E6.55467
G1 X111.841 Y127.541 E6.69446
G1 X111.143 Y127.532 E6.71071
G1 X110.639 Y127.485 E6.7225
G1 X110.149 Y127.36 E6.73427
G1 X109.685 Y127.159 E6.74604
G1 X109.259 Y126.888 E6.7578
G1 X108.88 Y126.553 E6.76958
G1 X108.559 Y126.162 E6.78135
G1 X108.304 Y125.726 E6.79311
G1 X108.12 Y125.255 E6.80489
G1 X108.013 Y124.761 E6.81665
G1 X107.985 Y124.418 E6.82467
G1 X107.976 Y124.085 E6.83242
G1 X107.975 Y123.999 E6.83442
G1 X107.975 Y108.452 E7.19639
G1 X107.985 Y107.755 E7.21262
G1 X108.032 Y107.252 E7.22438
G1 X108.197 Y106.655 E7.2388
G1 X109.209 Y104.014 E7.30465
G1 X110.114 Y101.448 E7.368
G1 X110.961 Y98.81 E7.43251
G1 X111.731 Y96.157 E7.49682
G1 X112.096 Y94.824 E7.529
G1 X112.267 Y94.348 E7.54077
G1 X112.512 Y93.906 E7.55254
G1 X112.823 Y93.507 E7.56432
G1 F1500 E1.06432
;MESH:Body1.stl
G0 F3600 X114.51 Y96.273
G0 X115.789 Y96.273
G0 X121.055 Y96.989
G0 X121.125 Y97.059
;TYPE:WALL-INNER
G1 F1500 E7.56432
G1 X121.125 Y99.059 E7.61088
G1 X117.575 Y99.059 E7.69353
G1 X117.575 Y115.855 E8.08458
G1 X117.731 Y116.459 E8.0991
G1 X121.125 Y116.459 E8.17812
G1 X121.125 Y118.459 E8.22469
G1 X128.225 Y118.459 E8.38999
G1 X128.225 Y119.259 E8.40862
G1 X117.575 Y119.259 E8.65657
G1 X117.575 Y123.741 E8.76092
G1 X111.775 Y123.741 E8.89596
G1 X111.775 Y108.391 E9.25334
G1 X115.775 Y108.391 E9.34647
G1 X115.775 Y96.259 E9.62892
G1 X128.225 Y96.259 E9.91879
G1 X128.225 Y97.059 E9.93741
G1 X121.125 Y97.059 E10.10271
G0 F3600 X121.525 Y97.459
;TYPE:WALL-OUTER
G1 F1500 X121.525 Y99.459 E10.14928
G1 X117.975 Y99.459 E10.23193
G1 X117.975 Y115.804 E10.61248
G1 X118.041 Y116.059 E10.61861
G1 X121.525 Y116.059 E10.69972
G1 X121.525 Y118.059 E10.74629
G1 X128.625 Y118.059 E10.91159
G1 X128.625 Y119.659 E10.94884
G1 X117.975 Y119.659 E11.1968
G1 X117.975 Y124.141 E11.30115
G1 X111.375 Y124.141 E11.45481
G1 X111.375 Y107.991 E11.83081
G1 X115.375 Y107.991 E11.92394
G1 X115.375 Y95.859 E12.2064
G1 X128.625 Y95.859 E12.51489
G1 X128.625 Y97.459 E12.55214
G1 X121.525 Y97.459 E12.71744
G0 F3600 X121.525 Y97.659
G0 X121.085 Y97.659
G0 X121.025 Y97.659
G0 X120.735 Y96.669
;TYPE:SKIN
G1 F1500 X120.735 Y98.669 E12.76401
G1 X117.185 Y98.669 E12.84666
G1 X117.185 Y115.904 E13.24793
G1 X117.429 Y116.849 E13.27065
G1 X120.735 Y116.849 E13.34762
G1 X120.735 Y118.849 E13.39418
G1 X127.835 Y118.849 E13.55949
G1 X127.835 Y118.869 E13.55995
G1 X117.185 Y118.869 E13.80791
G1 X117.185 Y123.351 E13.91226
G1 X112.165 Y123.351 E14.02913
G1 X112.165 Y108.781 E14.36835
G1 X116.165 Y108.781 E14.46148
G1 X116.165 Y96.649 E14.74394
G1 X127.835 Y96.649 E15.01564
G1 X127.835 Y96.669 E15.01611
G1 X120.735 Y96.669 E15.18141
G0 F3600 X120.554 Y97.361
G1 F1500 X120.022 Y96.829 E15.19893
G0 F3600 X119.456 Y96.829
G1 F1500 X120.554 Y97.927 E15.23508
G0 F3600 X120.55 Y98.488
G1 F1500 X118.89 Y96.829 E15.28972
G0 F3600 X118.325 Y96.829
G1 F1500 X119.984 Y98.488 E15.34434
G0 F3600 X119.419 Y98.488
G1 F1500 X117.759 Y96.829 E15.39898
G0 F3600 X117.193 Y96.829
G1 F1500 X118.853 Y98.488 E15.45362
G0 F3600 X118.287 Y98.488
G1 F1500 X116.628 Y96.829 E15.50825
G0 F3600 X116.343 Y97.11
G1 F1500 X117.721 Y98.488 E15.55362
G0 F3600 X117.156 Y98.488
G1 F1500 X116.343 Y97.676 E15.58037
G0 F3600 X116.343 Y98.241
G1 F1500 X117.004 Y98.902 E15.60214
G0 F3600 X117.004 Y99.468
G1 F1500 X116.343 Y98.807 E15.6239
G0 F3600 X116.343 Y99.373
G1 F1500 X117.004 Y100.033 E15.64565
G0 F3600 X117.004 Y100.599
G1 F1500 X116.343 Y99.938 E15.66741
G0 F3600 X116.343 Y100.504
G1 F1500 X117.004 Y101.165 E15.68918
G0 F3600 X117.004 Y101.73
G1 F1500 X116.343 Y101.07 E15.71092
G0 F3600 X116.343 Y101.635
G1 F1500 X117.004 Y102.296 E15.73269
G0 F3600 X117.004 Y102.862
G1 F1500 X116.343 Y102.201 E15.75445
G0 F3600 X116.343 Y102.767
G1 F1500 X117.004 Y103.427 E15.7762
G0 F3600 X117.004 Y103.993
G1 F1500 X116.343 Y103.333 E15.79795
G0 F3600 X116.343 Y103.898
G1 F1500 X117.004 Y104.559 E15.81971
G0 F3600 X117.004 Y105.124
G1 F1500 X116.343 Y104.464 E15.84146
G0 F3600 X116.343 Y105.03
G1 F1500 X117.004 Y105.69 E15.86321
G0 F3600 X117.004 Y106.256
G1 F1500 X116.343 Y105.595 E15.88497
G0 F3600 X116.343 Y106.161
G1 F1500 X117.004 Y106.821 E15.90672
G0 F3600 X117.004 Y107.387
G1 F1500 X116.343 Y106.727 E15.92847
G0 F3600 X116.343 Y107.292
G1 F1500 X117.004 Y107.953 E15.95023
G0 F3600 X117.004 Y108.518
G1 F1500 X116.343 Y107.858 E15.97198
G0 F3600 X116.343 Y108.424
G1 F1500 X117.004 Y109.084 E15.99372
G0 F3600 X117.004 Y109.65
G1 F1500 X116.314 Y108.96 E16.01644
G0 F3600 X115.749 Y108.96
G1 F1500 X117.004 Y110.216 E16.05778
G0 F3600 X117.004 Y110.781
G1 F1500 X115.183 Y108.96 E16.11774
G0 F3600 X114.617 Y108.96
G1 F1500 X117.004 Y111.347 E16.19633
G0 F3600 X117.004 Y111.913
G1 F1500 X114.052 Y108.96 E16.29355
G0 F3600 X113.486 Y108.96
G1 F1500 X117.004 Y112.478 E16.40938
G0 F3600 X117.004 Y113.044
G1 F1500 X112.92 Y108.96 E16.54385
G0 F3600 X112.355 Y108.96
G1 F1500 X117.004 Y113.61 E16.69694
G0 F3600 X117.004 Y114.175
G1 F1500 X112.343 Y109.515 E16.85039
G0 F3600 X112.343 Y110.08
G1 F1500 X117.004 Y114.741 E17.00386
G0 F3600 X117.004 Y115.307
G1 F1500 X112.343 Y110.646 E17.15732
G0 F3600 X112.343 Y111.212
G1 F1500 X117.004 Y115.872 E17.31077
G0 F3600 X117.181 Y116.616
G1 F1500 X112.343 Y111.778 E17.47007
G0 F3600 X112.343 Y112.343
G1 F1500 X118.687 Y118.687 E17.67895
G0 F3600 X118.122 Y118.687
G1 F1500 X112.343 Y112.909 E17.86921
G0 F3600 X112.343 Y113.475
G1 F1500 X117.556 Y118.687 E18.04084
G0 F3600 X117.004 Y118.702
G1 F1500 X112.343 Y114.04 E18.19432
G0 F3600 X112.343 Y114.606
G1 F1500 X117.004 Y119.267 E18.34779
G0 F3600 X117.004 Y119.833
G1 F1500 X112.343 Y115.172 E18.50126
G0 F3600 X112.343 Y115.737
G1 F1500 X117.004 Y120.399 E18.65474
G0 F3600 X117.004 Y120.964
G1 F1500 X112.343 Y116.303 E18.80821
G0 F3600 X112.343 Y116.869
G1 F1500 X117.004 Y121.53 E18.96168
G0 F3600 X117.004 Y122.096
G1 F1500 X112.343 Y117.434 E19.11516
G0 F3600 X112.343 Y118
G1 F1500 X117.004 Y122.661 E19.26863
G0 F3600 X116.947 Y123.17
G1 F1500 X112.343 Y118.566 E19.42022
G0 F3600 X112.343 Y119.131
G1 F1500 X116.381 Y123.17 E19.55319
G0 F3600 X115.816 Y123.17
G1 F1500 X112.343 Y119.697 E19.66754
G0 F3600 X112.343 Y120.263
G1 F1500 X115.25 Y123.17 E19.76326
G0 F3600 X114.684 Y123.17
G1 F1500 X112.343 Y120.828 E19.84035
G0 F3600 X112.343 Y121.394
G1 F1500 X114.119 Y123.17 E19.89883
G0 F3600 X113.553 Y123.17
G1 F1500 X112.343 Y121.96 E19.93867
G0 F3600 X112.343 Y122.526
G1 F1500 X112.987 Y123.17 E19.95987
G0 F3600 X112.422 Y123.17
G1 F1500 X112.343 Y123.091 E19.96247
G0 F3600 X117.594 Y117.029
G1 F1500 X119.254 Y118.688 E20.01712
G0 F3600 X119.819 Y118.688
G1 F1500 X118.16 Y117.029 E20.07174
G0 F3600 X118.726 Y117.029
G1 F1500 X120.385 Y118.688 E20.12636
G0 F3600 X120.554 Y118.291
G1 F1500 X119.291 Y117.029 E20.16793
G0 F3600 X119.857 Y117.029
G1 F1500 X120.554 Y117.726 E20.19088
G0 F3600 X120.554 Y117.16
G1 F1500 X120.423 Y117.029 E20.19519
;MESH:NONMESH
G0 F600 X120.423 Y117.029 Z0.5
G0 F3600 X117.707 Y116.49
G0 X117.547 Y99.031
G0 X121.055 Y96.989
G0 X121.125 Y97.059
;TIME_ELAPSED:41.546902
;LAYER:1
M140 S65
;TYPE:WALL-INNER
;MESH:Body1.stl
G1 F2250 X121.125 Y99.059 E20.29498
G1 X117.575 Y99.059 E20.47209
G1 X117.575 Y116.459 E21.34017
G1 X121.125 Y116.459 E21.51729
G1 X121.125 Y118.459 E21.61707
G1 X128.225 Y118.459 E21.97129
G1 X128.225 Y119.259 E22.0112
G1 X117.575 Y119.259 E22.54253
G1 X117.575 Y123.741 E22.76614
G1 X111.775 Y123.741 E23.0555
G1 X111.775 Y108.391 E23.82131
G1 X115.775 Y108.391 E24.02088
G1 X115.775 Y96.259 E24.62614
G1 X128.225 Y96.259 E25.24728
G1 X128.225 Y97.059 E25.28719
G1 X121.125 Y97.059 E25.64141
G0 F5400 X121.525 Y97.459
;TYPE:WALL-OUTER
G1 F1500 X121.525 Y99.459 E25.74119
G1 X117.975 Y99.459 E25.9183
G1 X117.975 Y116.059 E26.74648
G1 X121.525 Y116.059 E26.92359
G1 X121.525 Y118.059 E27.02337
G1 X128.625 Y118.059 E27.37759
G1 X128.625 Y119.659 E27.45741
G1 X117.975 Y119.659 E27.98874
G1 X117.975 Y124.141 E28.21235
G1 X111.375 Y124.141 E28.54163
G1 X111.375 Y107.991 E29.34735
G1 X115.375 Y107.991 E29.54691
G1 X115.375 Y95.859 E30.15218
G1 X128.625 Y95.859 E30.81323
G1 X128.625 Y97.459 E30.89305
G1 X121.525 Y97.459 E31.24727
G0 F5400 X121.525 Y97.659
G0 X121.085 Y97.659
G0 X121.025 Y97.659
G0 X120.735 Y96.669
;TYPE:SKIN
G1 F1500 X120.735 Y98.669 E31.34705
G1 X117.185 Y98.669 E31.52416
G1 X117.185 Y116.849 E32.43117
G1 X120.735 Y116.849 E32.60828
G1 X120.735 Y118.849 E32.70806
G1 X127.835 Y118.849 E33.06228
G1 X127.835 Y118.869 E33.06327
G1 X117.185 Y118.869 E33.59461
G1 X117.185 Y123.351 E33.81821
G1 X112.165 Y123.351 E34.06866
G1 X112.165 Y108.781 E34.79556
G1 X116.165 Y108.781 E34.99512
G1 X116.165 Y96.649 E35.60039
G1 X127.835 Y96.649 E36.18261
G1 X127.835 Y96.669 E36.18361
G1 X120.735 Y96.669 E36.53783
G0 F5400 X116.434 Y96.829
G1 F1500 X116.344 Y96.918 E36.54414
G0 F5400 X116.344 Y97.484
G1 F1500 X117 Y96.829 E36.59039
G0 F5400 X117.565 Y96.829
G1 F1500 X116.344 Y98.05 E36.67654
G0 F5400 X116.344 Y98.615
