;FLAVOR:Marlin
;TIME:1540
;Filament used: 0m, 1.91608m
;Layer height: 0.3
;MINX:106.175
;MINY:92.159
;MINZ:0.2
;MAXX:133.825
;MAXY:127.841
;MAXZ:41.6
;Generated with Cura_SteamEngine 4.4.1
T1
M140 S65
M105
M190 S65
M104 S200
M105
M109 S200
M82 ;absolute extrusion mode
G28 ;Home
G1 Z15.0 F6000 ;Move the platform down 15mm
;Prime the extruder
G92 E0
G1 F200 E3
G92 E0
G92 E0
t1
G92 E0
G1 F1500 E-6.5
;LAYER_COUNT:139
;LAYER:0
M106 S255
G0 F3600 X111.178 Y93.528 Z0.2
;TYPE:SKIRT
G1 F1500 E0
G1 X111.58 Y93.131 E0.01315
G1 X112.034 Y92.794 E0.02632
G1 X112.532 Y92.525 E0.0395
G1 X113.062 Y92.329 E0.05265
G1 X113.614 Y92.209 E0.0658
G1 X114.058 Y92.171 E0.07618
G1 X114.381 Y92.161 E0.0837
G1 X114.505 Y92.159 E0.08659
G1 X129.175 Y92.159 E0.42814
G1 X129.872 Y92.169 E0.44437
G1 X130.436 Y92.217 E0.45755
G1 X130.987 Y92.344 E0.47071
G1 X131.514 Y92.548 E0.48387
G1 X132.008 Y92.823 E0.49703
G1 X132.457 Y93.166 E0.51019
G1 X132.854 Y93.569 E0.52336
G1 X133.191 Y94.023 E0.53652
G1 X133.459 Y94.52 E0.54967
G1 X133.655 Y95.051 E0.56285
G1 X133.775 Y95.603 E0.576
G1 X133.815 Y96.163 E0.58907
G1 X133.816 Y96.851 E0.60509
G1 X133.816 Y96.91 E0.60646
G1 X133.805 Y97.737 E0.62572
G1 X133.803 Y97.797 E0.62711
G1 X133.783 Y98.502 E0.64353
G1 X133.771 Y98.724 E0.64871
G1 X133.612 Y100.61 E0.69278
G1 X133.43 Y103.402 E0.75792
G1 X133.331 Y106.078 E0.82026
G1 X133.306 Y108.819 E0.88408
G1 X133.36 Y111.528 E0.94717
G1 X133.488 Y114.203 E1.00952
G1 X133.798 Y118.004 E1.09831
G1 X133.81 Y118.256 E1.10418
G1 X133.824 Y119.025 E1.12209
G1 X133.825 Y119.098 E1.12379
G1 X133.825 Y119.678 E1.13729
G1 X133.815 Y120.405 E1.15422
G1 X133.767 Y120.968 E1.16737
G1 X133.64 Y121.519 E1.18054
G1 X133.437 Y122.047 E1.19371
G1 X133.162 Y122.541 E1.20687
G1 X132.82 Y122.991 E1.22003
G1 X132.417 Y123.388 E1.2332
G1 X131.963 Y123.724 E1.24635
G1 X131.466 Y123.993 E1.25951
G1 X130.727 Y124.245 E1.27769
G1 X130.377 Y124.327 E1.28606
G1 X130.313 Y124.341 E1.28758
G1 X128.317 Y124.774 E1.33513
G1 X125.703 Y125.419 E1.39782
G1 X123.066 Y126.147 E1.46151
G1 X120.464 Y126.949 E1.5249
G1 X119.033 Y127.433 E1.56007
G1 X118.982 Y127.45 E1.56132
G1 X118.404 Y127.637 E1.57547
G1 X117.855 Y127.772 E1.58863
G1 X117.295 Y127.829 E1.60174
G1 X116.967 Y127.839 E1.60938
G1 X116.845 Y127.841 E1.61222
G1 X110.83 Y127.841 E1.75226
G1 X110.132 Y127.832 E1.76851
G1 X109.569 Y127.784 E1.78167
G1 X109.018 Y127.658 E1.79483
G1 X108.49 Y127.456 E1.80799
G1 X107.996 Y127.181 E1.82115
G1 X107.546 Y126.839 E1.83431
G1 X107.148 Y126.437 E1.84748
G1 X106.812 Y125.983 E1.86063
G1 X106.542 Y125.486 E1.8738
G1 X106.345 Y124.956 E1.88696
G1 X106.225 Y124.404 E1.90012
G1 X106.185 Y123.94 E1.91096
G1 X106.176 Y123.607 E1.91871
G1 X106.175 Y123.499 E1.92123
G1 X106.175 Y107.903 E2.28434
G1 X106.185 Y107.241 E2.29975
G1 X106.234 Y106.677 E2.31293
G1 X106.361 Y106.127 E2.32607
G1 X106.465 Y105.83 E2.3334
G1 X106.698 Y105.241 E2.34815
G1 X106.729 Y105.166 E2.35004
G1 X107.28 Y103.852 E2.38321
G1 X108.245 Y101.352 E2.4456
G1 X109.169 Y98.743 E2.51004
G1 X110.021 Y96.099 E2.57472
G1 X110.357 Y94.999 E2.60149
G1 X110.56 Y94.472 E2.61464
G1 X110.835 Y93.978 E2.62781
G1 X111.178 Y93.528 E2.64098
G0 F3600 X111.533 Y93.731
G1 F1500 X111.925 Y93.364 E2.65348
G1 X112.367 Y93.06 E2.66597
G1 X112.849 Y92.825 E2.67846
G1 X113.36 Y92.664 E2.69093
G1 X114.071 Y92.571 E2.70762
G1 X114.394 Y92.561 E2.71515
G1 X114.505 Y92.559 E2.71773
G1 X129.17 Y92.559 E3.05917
G1 X129.867 Y92.569 E3.07539
G1 X130.401 Y92.617 E3.08788
G1 X130.922 Y92.743 E3.10036
G1 X131.419 Y92.946 E3.11286
G1 X131.88 Y93.22 E3.12534
G1 X132.295 Y93.559 E3.13782
G1 X132.655 Y93.957 E3.15031
G1 X132.952 Y94.403 E3.16279
G1 X133.18 Y94.889 E3.17529
G1 X133.332 Y95.403 E3.18777
G1 X133.415 Y96.164 E3.20559
G1 X133.416 Y96.852 E3.22161
G1 X133.416 Y96.905 E3.22284
G1 X133.405 Y97.732 E3.2421
G1 X133.404 Y97.786 E3.24335
G1 X133.384 Y98.491 E3.25977
G1 X133.372 Y98.691 E3.26444
G1 X133.21 Y100.622 E3.30955
G1 X133.033 Y103.325 E3.37262
G1 X132.93 Y106.094 E3.43713
G1 X132.906 Y108.824 E3.5007
G1 X132.96 Y111.519 E3.56345
G1 X133.09 Y114.254 E3.6272
G1 X133.399 Y118.036 E3.71555
G1 X133.41 Y118.263 E3.72084
G1 X133.424 Y119.032 E3.73875
G1 X133.425 Y119.098 E3.74028
G1 X133.425 Y119.673 E3.75367
G1 X133.415 Y120.4 E3.7706
G1 X133.367 Y120.934 E3.78308
G1 X133.241 Y121.455 E3.79556
G1 X133.039 Y121.952 E3.80805
G1 X132.765 Y122.413 E3.82054
G1 X132.426 Y122.828 E3.83301
G1 X132.029 Y123.189 E3.84551
G1 X131.583 Y123.486 E3.85798
G1 X131.097 Y123.714 E3.87048
G1 X130.636 Y123.855 E3.8817
G1 X130.286 Y123.937 E3.89007
G1 X130.228 Y123.95 E3.89146
G1 X128.241 Y124.381 E3.93879
G1 X125.581 Y125.038 E4.00259
G1 X122.938 Y125.767 E4.06642
G1 X120.366 Y126.56 E4.12908
G1 X118.905 Y127.054 E4.16499
G1 X118.859 Y127.069 E4.16611
G1 X118.281 Y127.256 E4.18026
G1 X117.76 Y127.383 E4.19274
G1 X117.283 Y127.429 E4.2039
G1 X116.955 Y127.439 E4.21154
G1 X116.845 Y127.441 E4.2141
G1 X110.836 Y127.441 E4.354
G1 X110.138 Y127.432 E4.37026
G1 X109.603 Y127.385 E4.38276
G1 X109.082 Y127.259 E4.39524
G1 X108.585 Y127.057 E4.40773
G1 X108.124 Y126.784 E4.4202
G1 X107.708 Y126.445 E4.4327
G1 X107.347 Y126.049 E4.44517
G1 X107.049 Y125.603 E4.45766
G1 X106.821 Y125.117 E4.47016
G1 X106.668 Y124.603 E4.48265
G1 X106.585 Y123.929 E4.49846
G1 X106.576 Y123.596 E4.50621
G1 X106.575 Y123.499 E4.50847
G1 X106.575 Y107.909 E4.87144
G1 X106.585 Y107.247 E4.88685
G1 X106.633 Y106.712 E4.89936
G1 X106.837 Y105.977 E4.91712
G1 X107.07 Y105.388 E4.93187
G1 X107.098 Y105.321 E4.93356
G1 X107.645 Y104.015 E4.96652
G1 X108.62 Y101.492 E5.0295
G1 X109.54 Y98.893 E5.09369
G1 X110.418 Y96.167 E5.16036
G1 X110.739 Y95.116 E5.18595
G1 X110.934 Y94.616 E5.19844
G1 X111.201 Y94.151 E5.21093
G1 X111.533 Y93.731 E5.22339
G0 F3600 X111.887 Y93.939
G1 F1500 X112.267 Y93.605 E5.23517
G1 X112.695 Y93.335 E5.24695
G1 X113.16 Y93.137 E5.25872
G1 X113.65 Y93.013 E5.27049
G1 X114.083 Y92.971 E5.28062
G1 X114.406 Y92.961 E5.28814
G1 X114.505 Y92.959 E5.29045
G1 X129.164 Y92.959 E5.63174
G1 X129.861 Y92.969 E5.64797
G1 X130.364 Y93.016 E5.65973
G1 X130.854 Y93.142 E5.67151
G1 X131.318 Y93.344 E5.68329
G1 X131.744 Y93.616 E5.69506
G1 X132.122 Y93.951 E5.70682
G1 X132.442 Y94.342 E5.71858
G1 X132.697 Y94.779 E5.73036
G1 X132.88 Y95.25 E5.74213
G1 X132.987 Y95.744 E5.75389
G1 X133.015 Y96.164 E5.76369
G1 X133.016 Y96.852 E5.77971
G1 X133.016 Y96.9 E5.78083
G1 X133.005 Y97.727 E5.80009
G1 X133.004 Y97.775 E5.8012
G1 X132.984 Y98.48 E5.81762
G1 X132.974 Y98.657 E5.82175
G1 X132.809 Y100.618 E5.86757
G1 X132.633 Y103.321 E5.93063
G1 X132.531 Y106.076 E5.99482
G1 X132.506 Y108.828 E6.05889
G1 X132.56 Y111.546 E6.12219
G1 X132.691 Y114.277 E6.18584
G1 X133 Y118.069 E6.27442
G1 X133.01 Y118.271 E6.27913
G1 X133.024 Y119.04 E6.29704
G1 X133.025 Y119.098 E6.29839
G1 X133.025 Y119.667 E6.31164
G1 X133.015 Y120.394 E6.32856
G1 X132.968 Y120.897 E6.34033
G1 X132.842 Y121.387 E6.35211
G1 X132.641 Y121.851 E6.36388
G1 X132.369 Y122.277 E6.37565
G1 X132.034 Y122.656 E6.38742
G1 X131.643 Y122.976 E6.39919
G1 X131.207 Y123.231 E6.41095
G1 X130.545 Y123.466 E6.4273
G1 X130.195 Y123.548 E6.43567
G1 X130.143 Y123.559 E6.43691
G1 X128.166 Y123.988 E6.48401
G1 X125.484 Y124.65 E6.54832
G1 X122.819 Y125.385 E6.61269
G1 X120.235 Y126.181 E6.67564
G1 X118.777 Y126.675 E6.71148
G1 X118.736 Y126.689 E6.71249
G1 X118.158 Y126.876 E6.72663
G1 X117.666 Y126.993 E6.73841
G1 X117.271 Y127.03 E6.74764
G1 X116.943 Y127.04 E6.75528
G1 X116.845 Y127.041 E6.75756
G1 X110.841 Y127.041 E6.89735
G1 X110.143 Y127.032 E6.9136
G1 X109.639 Y126.985 E6.92539
G1 X109.149 Y126.86 E6.93716
G1 X108.685 Y126.659 E6.94893
G1 X108.259 Y126.388 E6.96069
G1 X107.88 Y126.053 E6.97247
G1 X107.559 Y125.662 E6.98424
G1 X107.304 Y125.226 E6.996
G1 X107.12 Y124.755 E7.00778
G1 X107.013 Y124.261 E7.01954
G1 X106.985 Y123.918 E7.02756
G1 X106.976 Y123.585 E7.03531
G1 X106.975 Y123.499 E7.03731
G1 X106.975 Y107.915 E7.40014
G1 X106.985 Y107.253 E7.41556
G1 X107.033 Y106.749 E7.42734
G1 X107.209 Y106.124 E7.44246
G1 X107.442 Y105.535 E7.45721
G1 X107.467 Y105.475 E7.45872
G1 X108.016 Y104.164 E7.49181
G1 X109.01 Y101.591 E7.55603
G1 X109.912 Y99.044 E7.61894
G1 X110.799 Y96.29 E7.6863
G1 X111.122 Y95.233 E7.71204
G1 X111.307 Y94.763 E7.7238
G1 X111.565 Y94.328 E7.73557
G1 X111.887 Y93.939 E7.74733
G1 F1500 E1.24733
G0 F3600 X129.982 Y95.498
G0 X130.489 Y98.2
G0 X118.075 Y115.65
;TYPE:SUPPORT
G1 F1500 E7.74733
G1 X119.964 Y116.442 E7.79502
G1 X121.514 Y116.461 E7.83111
G1 X121.511 Y116.775 E7.83842
G1 X121.797 Y117.21 E7.85054
G1 X122.389 Y117.459 E7.86549
G1 X121.625 Y117.459 E7.88328
G1 X121.625 Y117.105 E7.89152
G1 X120.987 Y116.462 E7.91261
G1 X118.151 Y116.435 E7.97864
G1 X118.118 Y116.408 E7.97963
G1 X118.075 Y116.173 E7.9852
G1 X118.075 Y115.65 E7.99737
G1 F1500 E1.49737
;MESH:Body1.stl
G0 F3600 X118.248 Y99.823
G0 X118.107 Y98.54
G0 X120.055 Y97.489
G0 X120.125 Y97.559
;TYPE:WALL-INNER
G1 F1500 E7.99737
G1 X120.125 Y98.559 E8.02065
G1 X118.109 Y98.559 E8.06759
G1 X117.513 Y98.693 E8.08181
G1 X117.174 Y98.906 E8.09113
G1 X116.894 Y99.185 E8.10034
G1 X116.606 Y99.788 E8.1159
G1 X116.575 Y100.471 E8.13181
G1 X116.575 Y116.312 E8.50063
G1 X116.702 Y117.01 E8.51714
G1 X116.94 Y117.388 E8.52754
G1 X117.445 Y117.791 E8.54259
G1 X117.848 Y117.932 E8.55253
G1 X120.125 Y117.953 E8.60554
G1 X120.125 Y118.959 E8.62896
G1 X128.356 Y118.959 E8.8206
G1 X128.441 Y118.265 E8.83688
G1 X128.476 Y118.172 E8.83919
G1 X128.531 Y118.093 E8.84143
G1 X128.596 Y118.035 E8.84346
G1 X128.686 Y117.989 E8.84581
G1 X128.778 Y117.966 E8.84802
G1 X128.872 Y117.966 E8.85021
G1 X128.971 Y117.991 E8.85259
G1 X129.047 Y118.031 E8.85459
G1 X129.121 Y118.097 E8.85689
G1 X129.176 Y118.178 E8.85917
G1 X129.209 Y118.263 E8.8613
G1 X129.225 Y118.405 E8.86462
G1 X129.225 Y119.759 E8.89615
G1 X116.575 Y119.759 E9.19067
G1 X116.575 Y123.241 E9.27173
G1 X110.775 Y123.241 E9.40677
G1 X110.775 Y107.891 E9.76415
G1 X114.775 Y107.891 E9.85728
G1 X114.775 Y96.759 E10.11646
G1 X129.225 Y96.759 E10.45288
G1 X129.225 Y98.124 E10.48466
G1 X129.209 Y98.252 E10.48767
G1 X129.174 Y98.345 E10.48998
G1 X129.121 Y98.422 E10.49215
G1 X129.048 Y98.486 E10.49442
G1 X128.969 Y98.528 E10.4965
G1 X128.872 Y98.551 E10.49882
G1 X128.774 Y98.55 E10.5011
G1 X128.684 Y98.529 E10.50325
G1 X128.598 Y98.483 E10.50552
G1 X128.528 Y98.421 E10.5077
G1 X128.474 Y98.34 E10.50997
G1 X128.432 Y98.231 E10.51269
G1 X128.304 Y97.559 E10.52861
G1 X120.125 Y97.559 E10.71904
G0 F3600 X120.525 Y97.959
;TYPE:WALL-OUTER
G1 F1500 X120.525 Y98.959 E10.74232
G1 X118.153 Y98.959 E10.79754
G1 X117.668 Y99.068 E10.80912
G1 X117.425 Y99.221 E10.8158
G1 X117.225 Y99.42 E10.82237
G1 X117.002 Y99.887 E10.83442
G1 X116.975 Y100.48 E10.84824
G1 X116.975 Y116.276 E11.21601
G1 X117.082 Y116.862 E11.22987
G1 X117.243 Y117.118 E11.23692
G1 X117.641 Y117.436 E11.24878
G1 X117.918 Y117.533 E11.25561
G1 X120.525 Y117.557 E11.31631
G1 X120.525 Y118.559 E11.33964
G1 X128.002 Y118.559 E11.51372
G1 X128.05 Y118.168 E11.52289
G1 X128.119 Y117.986 E11.52742
G1 X128.228 Y117.827 E11.53191
G1 X128.371 Y117.701 E11.53635
G1 X128.544 Y117.611 E11.54089
G1 X128.728 Y117.566 E11.5453
G1 X128.923 Y117.566 E11.54984
G1 X129.113 Y117.614 E11.5544
G1 X129.279 Y117.702 E11.55877
G1 X129.423 Y117.83 E11.56326
G1 X129.532 Y117.991 E11.56779
G1 X129.6 Y118.168 E11.5722
G1 X129.625 Y118.385 E11.57729
G1 X129.625 Y120.159 E11.61859
G1 X116.975 Y120.159 E11.91311
G1 X116.975 Y123.641 E11.99418
G1 X110.375 Y123.641 E12.14784
G1 X110.375 Y107.491 E12.52384
G1 X114.375 Y107.491 E12.61697
G1 X114.375 Y96.359 E12.87615
G1 X129.625 Y96.359 E13.2312
G1 X129.625 Y98.15 E13.2729
G1 X129.6 Y98.349 E13.27757
G1 X129.531 Y98.531 E13.2821
G1 X129.422 Y98.69 E13.28659
G1 X129.278 Y98.817 E13.29106
G1 X129.11 Y98.905 E13.29547
G1 X128.918 Y98.951 E13.30007
G1 X128.724 Y98.95 E13.30459
G1 X128.542 Y98.906 E13.30895
G1 X128.367 Y98.813 E13.31356
G1 X128.224 Y98.686 E13.31801
G1 X128.118 Y98.529 E13.32242
G1 X128.046 Y98.34 E13.32713
G1 X127.973 Y97.959 E13.33616
G1 X120.525 Y97.959 E13.50957
G0 F3600 X120.525 Y98.159
G0 X120.085 Y98.159
G0 X119.735 Y98.169
;TYPE:SKIN
G1 F1500 X118.066 Y98.169 E13.54843
G1 X117.362 Y98.327 E13.56522
G1 X116.93 Y98.599 E13.57711
G1 X116.571 Y98.956 E13.5889
G1 X116.22 Y99.691 E13.60786
G1 X116.185 Y100.462 E13.62583
G1 X116.185 Y116.347 E13.99567
G1 X116.332 Y117.154 E14.01476
G1 X116.645 Y117.651 E14.02844
G1 X117.254 Y118.138 E14.04659
G1 X117.78 Y118.322 E14.05957
G1 X119.735 Y118.339 E14.10509
G1 X119.735 Y119.349 E14.1286
G1 X128.701 Y119.349 E14.33735
G1 X128.823 Y118.357 E14.36062
G1 X128.827 Y118.357 E14.36071
G1 X128.835 Y118.43 E14.36242
G1 X128.835 Y119.369 E14.38428
G1 X116.185 Y119.369 E14.6788
G1 X116.185 Y122.851 E14.75987
G1 X111.165 Y122.851 E14.87675
G1 X111.165 Y108.281 E15.21597
G1 X115.165 Y108.281 E15.30909
G1 X115.165 Y97.149 E15.56827
G1 X128.835 Y97.149 E15.88654
G1 X128.835 Y98.099 E15.90865
G1 X128.828 Y98.159 E15.91006
G1 X128.823 Y98.16 E15.91018
G1 X128.808 Y98.119 E15.9112
G1 X128.627 Y97.169 E15.93371
G1 X119.735 Y97.169 E16.14074
G1 X119.735 Y98.169 E16.16402
G0 F3600 X119.554 Y97.493
G1 F1500 X119.39 Y97.329 E16.16942
G0 F3600 X118.825 Y97.329
G1 F1500 X119.484 Y97.988 E16.19112
G0 F3600 X118.919 Y97.988
G1 F1500 X118.259 Y97.329 E16.21283
G0 F3600 X117.693 Y97.329
G1 F1500 X118.353 Y97.988 E16.23455
G0 F3600 X117.835 Y98.036
G1 F1500 X117.127 Y97.329 E16.25784
G0 F3600 X116.562 Y97.329
G1 F1500 X117.373 Y98.14 E16.28454
G0 F3600 X117.005 Y98.338
G1 F1500 X115.996 Y97.329 E16.31777
G0 F3600 X115.43 Y97.329
G1 F1500 X116.687 Y98.585 E16.35914
G0 F3600 X116.41 Y98.874
G1 F1500 X115.343 Y97.807 E16.39427
G0 F3600 X115.343 Y98.373
G1 F1500 X116.227 Y99.257 E16.42338
G0 F3600 X116.044 Y99.639
G1 F1500 X115.343 Y98.939 E16.44644
G0 F3600 X115.343 Y99.504
G1 F1500 X116.017 Y100.177 E16.46862
G0 F3600 X116.005 Y100.731
G1 F1500 X115.343 Y100.07 E16.4904
G0 F3600 X115.343 Y100.636
G1 F1500 X116.005 Y101.297 E16.51218
G0 F3600 X116.005 Y101.862
G1 F1500 X115.343 Y101.201 E16.53396
G0 F3600 X115.343 Y101.767
G1 F1500 X116.005 Y102.428 E16.55574
G0 F3600 X116.005 Y102.994
G1 F1500 X115.343 Y102.333 E16.57752
G0 F3600 X115.343 Y102.898
G1 F1500 X116.005 Y103.56 E16.59931
G0 F3600 X116.005 Y104.125
G1 F1500 X115.343 Y103.464 E16.6211
G0 F3600 X115.343 Y104.03
G1 F1500 X116.005 Y104.691 E16.64288
G0 F3600 X116.005 Y105.257
G1 F1500 X115.343 Y104.595 E16.66467
G0 F3600 X115.343 Y105.161
G1 F1500 X116.005 Y105.822 E16.68645
G0 F3600 X116.005 Y106.388
G1 F1500 X115.343 Y105.727 E16.70823
G0 F3600 X115.343 Y106.292
G1 F1500 X116.005 Y106.954 E16.73003
G0 F3600 X116.005 Y107.519
G1 F1500 X115.343 Y106.858 E16.75181
G0 F3600 X115.343 Y107.424
G1 F1500 X116.005 Y108.085 E16.77359
G0 F3600 X116.005 Y108.651
G1 F1500 X115.343 Y107.99 E16.79537
G0 F3600 X115.249 Y108.46
G1 F1500 X116.005 Y109.216 E16.82026
G0 F3600 X116.005 Y109.782
G1 F1500 X114.683 Y108.46 E16.86379
G0 F3600 X114.117 Y108.46
G1 F1500 X116.005 Y110.348 E16.92596
G0 F3600 X116.005 Y110.913
G1 F1500 X113.552 Y108.46 E17.00672
G0 F3600 X112.986 Y108.46
G1 F1500 X116.005 Y111.479 E17.10613
G0 F3600 X116.005 Y112.045
G1 F1500 X112.42 Y108.46 E17.22417
G0 F3600 X111.855 Y108.46
G1 F1500 X116.005 Y112.61 E17.36081
G0 F3600 X116.005 Y113.176
G1 F1500 X111.344 Y108.516 E17.51426
G0 F3600 X111.344 Y109.081
G1 F1500 X116.005 Y113.742 E17.66773
G0 F3600 X116.005 Y114.308
G1 F1500 X111.344 Y109.647 E17.82119
G0 F3600 X111.344 Y110.213
G1 F1500 X116.005 Y114.873 E17.97464
G0 F3600 X116.005 Y115.439
G1 F1500 X111.344 Y110.778 E18.12811
G0 F3600 X111.344 Y111.344
G1 F1500 X116.005 Y116.005 E18.28158
G0 F3600 X116.051 Y116.617
G1 F1500 X111.344 Y111.91 E18.43656
G0 F3600 X111.344 Y112.475
G1 F1500 X116.284 Y117.415 E18.59921
G1 X116.354 Y117.485
G0 F3600 X117.167 Y118.298
G1 F1500 X118.057 Y119.188 E18.62852
G0 F3600 X118.622 Y119.188
G1 F1500 X117.937 Y118.503 E18.65107
G0 F3600 X118.508 Y118.508
G1 F1500 X119.188 Y119.188 E18.67346
G0 F3600 X119.554 Y118.988
G1 F1500 X119.078 Y118.513 E18.68912
