;FLAVOR:Marlin
;TIME:864
;Filament used: 0m, 1.05683m
;Layer height: 0.3
;MINX:82.4
;MINY:96.4
;MINZ:0.3
;MAXX:157.6
;MAXY:123.6
;MAXZ:6.9
;Generated with Cura_SteamEngine 4.4.1
T1
M140 S65
M105
M190 S65
M104 S200
M105
M109 S200
M82 ;absolute extrusion mode
G28 ;Home
G1 Z15.0 F6000 ;Move the platform down 15mm
;Prime the extruder
G92 E0
G1 F200 E3
G92 E0
G92 E0
t1
G92 E0
G1 F1500 E-6.5
;LAYER_COUNT:23
;LAYER:0
M106 S255
G0 F3600 X83.794 Y97.171 Z0.3
;TYPE:SKIRT
G1 F1500 E0
G1 X84.241 Y96.873 E0.01876
G1 X84.726 Y96.645 E0.03748
G1 X85.24 Y96.492 E0.05621
G1 X85.908 Y96.41 E0.07971
G1 X86.229 Y96.401 E0.09092
G1 X86.33 Y96.4 E0.09445
G1 X153.345 Y96.4 E2.43483
G1 X154.043 Y96.41 E2.45921
G1 X154.577 Y96.458 E2.47793
G1 X155.098 Y96.584 E2.49665
G1 X155.595 Y96.787 E2.5154
G1 X156.056 Y97.061 E2.53413
G1 X156.471 Y97.4 E2.55284
G1 X156.831 Y97.798 E2.57158
G1 X157.128 Y98.244 E2.5903
G1 X157.356 Y98.73 E2.60904
G1 X157.508 Y99.244 E2.62776
G1 X157.59 Y99.909 E2.65116
G1 X157.599 Y100.229 E2.66234
G1 X157.6 Y100.33 E2.66587
G1 X157.6 Y119.309 E3.32868
G1 X157.591 Y120.036 E3.35407
G1 X157.544 Y120.57 E3.37279
G1 X157.419 Y121.091 E3.3915
G1 X157.217 Y121.588 E3.41023
G1 X156.944 Y122.05 E3.42898
G1 X156.606 Y122.466 E3.44769
G1 X156.209 Y122.827 E3.46643
G1 X155.763 Y123.125 E3.48517
G1 X155.278 Y123.353 E3.50388
G1 X154.764 Y123.507 E3.52262
G1 X154.092 Y123.59 E3.54627
G1 X153.771 Y123.599 E3.55748
G1 X153.67 Y123.6 E3.56101
G1 X86.661 Y123.6 E5.90117
G1 X85.963 Y123.591 E5.92555
G1 X85.428 Y123.544 E5.94431
G1 X84.907 Y123.418 E5.96303
G1 X84.41 Y123.216 E5.98176
G1 X83.949 Y122.943 E6.00048
G1 X83.533 Y122.604 E6.01922
G1 X83.172 Y122.208 E6.03793
G1 X82.874 Y121.762 E6.05666
G1 X82.646 Y121.276 E6.07541
G1 X82.493 Y120.762 E6.09414
G1 X82.41 Y120.088 E6.11785
G1 X82.401 Y119.755 E6.12949
G1 X82.4 Y119.658 E6.13288
G1 X82.4 Y100.625 E6.79757
G1 X82.409 Y99.96 E6.82079
G1 X82.457 Y99.426 E6.83952
G1 X82.583 Y98.905 E6.85824
G1 X82.785 Y98.408 E6.87697
G1 X83.058 Y97.947 E6.89568
G1 X83.397 Y97.531 E6.91443
G1 X83.794 Y97.171 E6.93314
G0 F3600 X84.18 Y97.383
G1 F1500 X84.617 Y97.128 E6.95081
G1 X85.088 Y96.944 E6.96847
G1 X85.582 Y96.838 E6.98612
G1 X85.919 Y96.81 E6.99792
G1 X86.24 Y96.801 E7.00914
G1 X86.33 Y96.8 E7.01228
G1 X153.339 Y96.8 E9.35245
G1 X154.037 Y96.81 E9.37683
G1 X154.54 Y96.857 E9.39447
G1 X155.03 Y96.983 E9.41214
G1 X155.494 Y97.185 E9.42981
G1 X155.92 Y97.457 E9.44746
G1 X156.298 Y97.792 E9.4651
G1 X156.618 Y98.183 E9.48275
G1 X156.873 Y98.62 E9.50042
G1 X157.056 Y99.091 E9.51806
G1 X157.163 Y99.585 E9.53572
G1 X157.19 Y99.92 E9.54745
G1 X157.199 Y100.24 E9.55863
G1 X157.2 Y100.33 E9.56178
G1 X157.2 Y119.304 E10.22441
G1 X157.191 Y120.031 E10.2498
G1 X157.145 Y120.534 E10.26744
G1 X157.02 Y121.024 E10.2851
G1 X156.819 Y121.488 E10.30276
G1 X156.548 Y121.915 E10.32042
G1 X156.213 Y122.294 E10.33809
G1 X155.823 Y122.615 E10.35573
G1 X155.387 Y122.871 E10.37338
G1 X154.916 Y123.054 E10.39103
G1 X154.422 Y123.162 E10.40869
G1 X154.081 Y123.19 E10.42064
G1 X153.76 Y123.199 E10.43185
G1 X153.67 Y123.2 E10.435
G1 X86.666 Y123.2 E12.77499
G1 X85.968 Y123.191 E12.79936
G1 X85.464 Y123.144 E12.81704
G1 X84.974 Y123.019 E12.8347
G1 X84.51 Y122.818 E12.85236
G1 X84.084 Y122.547 E12.86999
G1 X83.705 Y122.212 E12.88766
G1 X83.384 Y121.821 E12.90533
G1 X83.129 Y121.385 E12.92297
G1 X82.945 Y120.914 E12.94063
G1 X82.838 Y120.42 E12.95828
G1 X82.81 Y120.077 E12.9703
G1 X82.801 Y119.744 E12.98193
G1 X82.8 Y119.658 E12.98493
G1 X82.8 Y100.631 E13.64942
G1 X82.809 Y99.966 E13.67264
G1 X82.856 Y99.462 E13.69032
G1 X82.982 Y98.973 E13.70795
G1 X83.183 Y98.509 E13.72561
G1 X83.454 Y98.082 E13.74328
G1 X83.789 Y97.704 E13.76092
G1 X84.18 Y97.383 E13.77858
G1 F1500 E7.27858
;MESH:Body29.stl
G0 F3600 X86.614 Y99.335
G0 X86.614 Y100.614
G0 X121.83 Y117.67
G0 X121.9 Y117.6
;TYPE:WALL-INNER
G1 F1500 E13.77858
G1 X144.6 Y117.6 E14.57134
G1 X144.6 Y102.4 E15.10217
G1 X121.9 Y102.4 E15.89492
G1 X121.9 Y117.6 E16.42576
G0 F3600 X122.3 Y117.2
;TYPE:WALL-OUTER
G1 F1500 X144.2 Y117.2 E17.19057
G1 X144.2 Y102.8 E17.69347
G1 X122.3 Y102.8 E18.45828
G1 X122.3 Y117.2 E18.96118
G0 F3600 X122.5 Y117.2
G0 X122.5 Y117.64
G0 X122.5 Y117.7
G0 X86.67 Y119.33
G0 X86.6 Y119.4
;TYPE:WALL-INNER
G1 F1500 X86.6 Y100.6 E19.61773
G1 X153.4 Y100.6 E21.9506
G1 X153.4 Y119.4 E22.60715
G1 X86.6 Y119.4 E24.94002
G0 F3600 X86.2 Y119.8
;TYPE:WALL-OUTER
G1 F1500 X86.2 Y100.2 E25.62451
G1 X153.8 Y100.2 E27.98532
G1 X153.8 Y119.8 E28.66981
G1 X86.2 Y119.8 E31.03061
G0 F3600 X86.2 Y119.6
G0 X86.64 Y119.36
G0 X86.99 Y119.01
;TYPE:SKIN
G1 F1500 X86.99 Y100.99 E31.65993
G1 X153.01 Y100.99 E33.96556
G1 X153.01 Y119.01 E34.59487
G1 X86.99 Y119.01 E36.9005
G0 F3600 X121.51 Y117.99
G1 F1500 X144.99 Y117.99 E37.72049
G1 X144.99 Y102.01 E38.27856
G1 X121.51 Y102.01 E39.09856
G1 X121.51 Y117.99 E39.65663
G0 F3600 X87.716 Y118.829
G1 F1500 X87.169 Y118.281 E39.68367
G0 F3600 X87.169 Y117.716
G1 F1500 X88.282 Y118.829 E39.73864
G0 F3600 X88.847 Y118.829
G1 F1500 X87.169 Y117.15 E39.82154
G0 F3600 X87.169 Y116.584
G1 F1500 X89.413 Y118.829 E39.93239
G0 F3600 X89.979 Y118.829
G1 F1500 X87.169 Y116.019 E40.07118
G0 F3600 X87.169 Y115.453
G1 F1500 X90.545 Y118.829 E40.23791
G0 F3600 X91.11 Y118.829
G1 F1500 X87.169 Y114.887 E40.43258
G0 F3600 X87.169 Y114.322
G1 F1500 X91.676 Y118.829 E40.65517
G0 F3600 X92.242 Y118.829
G1 F1500 X87.169 Y113.756 E40.90572
G0 F3600 X87.169 Y113.19
G1 F1500 X92.807 Y118.829 E41.1842
G0 F3600 X93.373 Y118.829
G1 F1500 X87.169 Y112.625 E41.49061
G0 F3600 X87.169 Y112.059
G1 F1500 X93.939 Y118.829 E41.82497
G0 F3600 X94.504 Y118.829
G1 F1500 X87.169 Y111.493 E42.18726
G0 F3600 X87.169 Y110.928
G1 F1500 X95.07 Y118.829 E42.57748
G0 F3600 X95.636 Y118.829
G1 F1500 X87.169 Y110.362 E42.99566
G0 F3600 X87.169 Y109.796
G1 F1500 X96.201 Y118.829 E43.44176
G0 F3600 X96.767 Y118.829
G1 F1500 X87.169 Y109.231 E43.9158
G0 F3600 X87.169 Y108.665
G1 F1500 X97.333 Y118.829 E44.41778
G0 F3600 X97.898 Y118.829
G1 F1500 X87.169 Y108.099 E44.9477
G0 F3600 X87.169 Y107.533
G1 F1500 X98.464 Y118.829 E45.50557
G0 F3600 X99.03 Y118.829
G1 F1500 X87.169 Y106.968 E46.09137
G0 F3600 X87.169 Y106.402
G1 F1500 X99.595 Y118.829 E46.7051
G0 F3600 X100.161 Y118.829
G1 F1500 X87.169 Y105.836 E47.34678
G0 F3600 X87.169 Y105.271
G1 F1500 X100.727 Y118.829 E48.0164
G0 F3600 X101.293 Y118.829
G1 F1500 X87.169 Y104.705 E48.71396
G0 F3600 X87.169 Y104.139
G1 F1500 X101.858 Y118.829 E49.43946
G0 F3600 X102.424 Y118.829
G1 F1500 X87.169 Y103.574 E50.19289
G0 F3600 X87.169 Y103.008
G1 F1500 X102.99 Y118.829 E50.97427
G0 F3600 X103.555 Y118.829
G1 F1500 X87.169 Y102.442 E51.78358
G0 F3600 X87.169 Y101.877
G1 F1500 X104.121 Y118.829 E52.62081
G0 F3600 X104.687 Y118.829
G1 F1500 X87.169 Y101.311 E53.48601
G0 F3600 X87.593 Y101.17
G1 F1500 X105.252 Y118.829 E54.35816
G0 F3600 X105.818 Y118.829
G1 F1500 X88.159 Y101.17 E55.23032
G0 F3600 X88.724 Y101.17
G1 F1500 X106.384 Y118.829 E56.1025
G0 F3600 X106.949 Y118.829
G1 F1500 X89.29 Y101.17 E56.97466
G0 F3600 X89.856 Y101.17
G1 F1500 X107.515 Y118.829 E57.84681
G0 F3600 X108.081 Y118.829
G1 F1500 X90.421 Y101.17 E58.719
G0 F3600 X90.987 Y101.17
G1 F1500 X108.646 Y118.829 E59.59115
G0 F3600 X109.212 Y118.829
G1 F1500 X91.553 Y101.17 E60.46331
G0 F3600 X92.119 Y101.17
G1 F1500 X109.778 Y118.829 E61.33547
G0 F3600 X110.344 Y118.829
G1 F1500 X92.684 Y101.17 E62.20765
G0 F3600 X93.25 Y101.17
G1 F1500 X110.909 Y118.829 E63.0798
G0 F3600 X111.475 Y118.829
G1 F1500 X93.816 Y101.17 E63.95196
G0 F3600 X94.381 Y101.17
G1 F1500 X112.041 Y118.829 E64.82414
G0 F3600 X112.606 Y118.829
G1 F1500 X94.947 Y101.17 E65.6963
G0 F3600 X95.513 Y101.17
G1 F1500 X113.172 Y118.829 E66.56845
G0 F3600 X113.738 Y118.829
G1 F1500 X96.078 Y101.17 E67.44063
G0 F3600 X96.644 Y101.17
G1 F1500 X114.303 Y118.829 E68.31279
G0 F3600 X114.869 Y118.829
G1 F1500 X97.21 Y101.17 E69.18495
G0 F3600 X97.775 Y101.17
G1 F1500 X115.435 Y118.829 E70.05713
G0 F3600 X116 Y118.829
G1 F1500 X98.341 Y101.17 E70.92929
G0 F3600 X98.907 Y101.17
G1 F1500 X116.566 Y118.829 E71.80144
G0 F3600 X117.132 Y118.829
G1 F1500 X99.472 Y101.17 E72.67362
G0 F3600 X100.038 Y101.17
G1 F1500 X117.697 Y118.829 E73.54578
G0 F3600 X118.263 Y118.829
G1 F1500 X100.604 Y101.17 E74.41794
G0 F3600 X101.17 Y101.17
G1 F1500 X118.829 Y118.829 E75.29009
G0 F3600 X119.394 Y118.829
G1 F1500 X101.735 Y101.17 E76.16225
G0 F3600 X102.301 Y101.17
G1 F1500 X119.96 Y118.829 E77.03441
G0 F3600 X120.526 Y118.829
G1 F1500 X102.867 Y101.17 E77.90656
G0 F3600 X103.432 Y101.17
G1 F1500 X121.092 Y118.829 E78.77874
G0 F3600 X121.657 Y118.829
G1 F1500 X103.998 Y101.17 E79.6509
G0 F3600 X104.564 Y101.17
G1 F1500 X121.329 Y117.935 E80.4789
G0 F3600 X121.564 Y118.17
G1 F1500 X122.223 Y118.829 E80.51145
G0 F3600 X122.789 Y118.829
G1 F1500 X122.13 Y118.17 E80.544
G0 F3600 X122.695 Y118.17
G1 F1500 X123.354 Y118.829 E80.57654
G0 F3600 X123.92 Y118.829
G1 F1500 X123.261 Y118.17 E80.60909
G0 F3600 X123.827 Y118.17
G1 F1500 X124.486 Y118.829 E80.64164
G0 F3600 X125.051 Y118.829
G1 F1500 X124.392 Y118.17 E80.67419
G0 F3600 X124.958 Y118.17
G1 F1500 X125.617 Y118.829 E80.70673
G0 F3600 X126.183 Y118.829
G1 F1500 X125.524 Y118.17 E80.73928
G0 F3600 X126.089 Y118.17
G1 F1500 X126.748 Y118.829 E80.77183
G0 F3600 X127.314 Y118.829
G1 F1500 X126.655 Y118.17 E80.80437
G0 F3600 X127.221 Y118.17
G1 F1500 X127.88 Y118.829 E80.83692
G0 F3600 X128.445 Y118.829
G1 F1500 X127.786 Y118.17 E80.86947
G0 F3600 X128.352 Y118.17
G1 F1500 X129.011 Y118.829 E80.90202
G0 F3600 X129.577 Y118.829
G1 F1500 X128.918 Y118.17 E80.93456
G0 F3600 X129.483 Y118.17
G1 F1500 X130.143 Y118.829 E80.96714
G0 F3600 X130.708 Y118.829
G1 F1500 X130.049 Y118.17 E80.99968
G0 F3600 X130.615 Y118.17
G1 F1500 X131.274 Y118.829 E81.03223
G0 F3600 X131.84 Y118.829
G1 F1500 X131.181 Y118.17 E81.06478
G0 F3600 X131.746 Y118.17
G1 F1500 X132.405 Y118.829 E81.09732
G0 F3600 X132.971 Y118.829
G1 F1500 X132.312 Y118.17 E81.12987
G0 F3600 X132.878 Y118.17
G1 F1500 X133.537 Y118.829 E81.16242
G0 F3600 X134.102 Y118.829
G1 F1500 X133.443 Y118.17 E81.19497
G0 F3600 X134.009 Y118.17
G1 F1500 X134.668 Y118.829 E81.22751
G0 F3600 X135.234 Y118.829
G1 F1500 X134.575 Y118.17 E81.26006
G0 F3600 X135.14 Y118.17
G1 F1500 X135.799 Y118.829 E81.29261
G0 F3600 X136.365 Y118.829
G1 F1500 X135.706 Y118.17 E81.32515
G0 F3600 X136.272 Y118.17
G1 F1500 X136.931 Y118.829 E81.3577
G0 F3600 X137.496 Y118.829
G1 F1500 X136.837 Y118.17 E81.39025
G0 F3600 X137.403 Y118.17
G1 F1500 X138.062 Y118.829 E81.4228
G0 F3600 X138.628 Y118.829
G1 F1500 X137.969 Y118.17 E81.45534
G0 F3600 X138.534 Y118.17
G1 F1500 X139.193 Y118.829 E81.48789
G0 F3600 X139.759 Y118.829
G1 F1500 X139.1 Y118.17 E81.52044
G0 F3600 X139.666 Y118.17
G1 F1500 X140.325 Y118.829 E81.55298
G0 F3600 X140.891 Y118.829
G1 F1500 X140.232 Y118.17 E81.58553
G0 F3600 X140.797 Y118.17
G1 F1500 X141.456 Y118.829 E81.61808
G0 F3600 X142.022 Y118.829
G1 F1500 X141.363 Y118.17 E81.65063
G0 F3600 X141.929 Y118.17
G1 F1500 X142.588 Y118.829 E81.68317
G0 F3600 X143.153 Y118.829
G1 F1500 X142.494 Y118.17 E81.71572
G0 F3600 X143.06 Y118.17
G1 F1500 X143.719 Y118.829 E81.74827
G0 F3600 X144.285 Y118.829
G1 F1500 X143.626 Y118.17 E81.78082
G0 F3600 X144.191 Y118.17
G1 F1500 X144.85 Y118.829 E81.81336
G0 F3600 X145.416 Y118.829
G1 F1500 X144.757 Y118.17 E81.84591
G0 F3600 X145.169 Y118.016
G1 F1500 X145.982 Y118.829 E81.88606
G0 F3600 X146.547 Y118.829
G1 F1500 X145.169 Y117.45 E81.95415
G0 F3600 X145.169 Y116.884
G1 F1500 X147.113 Y118.829 E82.05018
G0 F3600 X147.679 Y118.829
G1 F1500 X145.169 Y116.319 E82.17415
G0 F3600 X145.169 Y115.753
G1 F1500 X148.244 Y118.829 E82.32604
G0 F3600 X148.81 Y118.829
G1 F1500 X145.169 Y115.187 E82.50589
G0 F3600 X145.169 Y114.622
G1 F1500 X149.376 Y118.829 E82.71367
G0 F3600 X149.941 Y118.829
G1 F1500 X145.169 Y114.056 E82.94938
G0 F3600 X145.169 Y113.49
G1 F1500 X150.507 Y118.829 E83.21304
G0 F3600 X151.073 Y118.829
G1 F1500 X145.169 Y112.924 E83.50466
G0 F3600 X145.169 Y112.359
G1 F1500 X151.639 Y118.829 E83.8242
G0 F3600 X152.204 Y118.829
G1 F1500 X145.169 Y111.793 E84.17168
G0 F3600 X145.169 Y111.227
G1 F1500 X152.77 Y118.829 E84.54711
G0 F3600 X152.829 Y118.323
G1 F1500 X145.169 Y110.662 E84.92545
G0 F3600 X145.169 Y110.096
G1 F1500 X152.829 Y117.757 E85.30379
G0 F3600 X152.829 Y117.191
G1 F1500 X145.169 Y109.53 E85.68213
G0 F3600 X145.169 Y108.965
G1 F1500 X152.829 Y116.625 E86.06045
G0 F3600 X152.829 Y116.06
G1 F1500 X145.169 Y108.399 E86.43879
G0 F3600 X145.169 Y107.833
G1 F1500 X152.829 Y115.494 E86.81714
G0 F3600 X152.829 Y114.928
G1 F1500 X145.169 Y107.268 E87.19546
G0 F3600 X145.169 Y106.702
G1 F1500 X152.829 Y114.363 E87.5738
G0 F3600 X152.829 Y113.797
G1 F1500 X145.169 Y106.136 E87.95214
G0 F3600 X145.169 Y105.571
G1 F1500 X152.829 Y113.231 E88.33046
G0 F3600 X152.829 Y112.666
G1 F1500 X145.169 Y105.005 E88.7088
G0 F3600 X145.169 Y104.439
G1 F1500 X152.829 Y112.1 E89.08714
G0 F3600 X152.829 Y111.534
G1 F1500 X145.169 Y103.873 E89.46549
G0 F3600 X145.169 Y103.308
G1 F1500 X152.829 Y110.969 E89.84383
G0 F3600 X152.829 Y110.403
G1 F1500 X145.169 Y102.742 E90.22217
G0 F3600 X145.169 Y102.176
G1 F1500 X152.829 Y109.837 E90.60052
G0 F3600 X152.829 Y109.272
G1 F1500 X144.727 Y101.17 E91.00066
G0 F3600 X144.162 Y101.17
G1 F1500 X144.821 Y101.829 E91.03321
G0 F3600 X144.256 Y101.829
G1 F1500 X143.596 Y101.17 E91.06578
G0 F3600 X143.03 Y101.17
G1 F1500 X143.69 Y101.829 E91.09835
G0 F3600 X143.124 Y101.829
G1 F1500 X142.465 Y101.17 E91.1309
G0 F3600 X141.899 Y101.17
G1 F1500 X142.559 Y101.829 E91.16347
G0 F3600 X141.993 Y101.829
G1 F1500 X141.333 Y101.17 E91.19605
G0 F3600 X140.767 Y101.17
G1 F1500 X141.427 Y101.829 E91.22862
G0 F3600 X140.862 Y101.829
G1 F1500 X140.202 Y101.17 E91.26119
G0 F3600 X139.636 Y101.17
G1 F1500 X140.296 Y101.829 E91.29376
G0 F3600 X139.73 Y101.829
G1 F1500 X139.07 Y101.17 E91.32633
G0 F3600 X138.505 Y101.17
G1 F1500 X139.164 Y101.829 E91.35888
G0 F3600 X138.599 Y101.829
G1 F1500 X137.939 Y101.17 E91.39145
G0 F3600 X137.373 Y101.17
G1 F1500 X138.033 Y101.829 E91.42402
G0 F3600 X137.467 Y101.829
G1 F1500 X136.808 Y101.17 E91.45657
G0 F3600 X136.242 Y101.17
G1 F1500 X136.902 Y101.829 E91.48914
G0 F3600 X136.336 Y101.829
G1 F1500 X135.676 Y101.17 E91.52172
G0 F3600 X135.111 Y101.17
G1 F1500 X135.77 Y101.829 E91.55426
G0 F3600 X135.205 Y101.829
G1 F1500 X134.545 Y101.17 E91.58683
G0 F3600 X133.979 Y101.17
G1 F1500 X134.639 Y101.829 E91.61941
G0 F3600 X134.073 Y101.829
G1 F1500 X133.414 Y101.17 E91.65195
G0 F3600 X132.848 Y101.17
G1 F1500 X133.508 Y101.829 E91.68453
G0 F3600 X132.942 Y101.829
G1 F1500 X132.282 Y101.17 E91.7171
G0 F3600 X131.717 Y101.17
G1 F1500 X132.376 Y101.829 E91.74964
G0 F3600 X131.811 Y101.829
G1 F1500 X131.151 Y101.17 E91.78222
G0 F3600 X130.585 Y101.17
G1 F1500 X131.245 Y101.829 E91.81479
G0 F3600 X130.679 Y101.829
G1 F1500 X130.019 Y101.17 E91.84736
G0 F3600 X129.454 Y101.17
G1 F1500 X130.114 Y101.829 E91.87993
G0 F3600 X129.548 Y101.829
G1 F1500 X128.888 Y101.17 E91.9125
G0 F3600 X128.322 Y101.17
G1 F1500 X128.982 Y101.829 E91.94508
G0 F3600 X128.416 Y101.829
G1 F1500 X127.757 Y101.17 E91.97762
G0 F3600 X127.191 Y101.17
G1 F1500 X127.851 Y101.829 E92.0102
G0 F3600 X127.285 Y101.829
G1 F1500 X126.625 Y101.17 E92.04277
G0 F3600 X126.06 Y101.17
G1 F1500 X126.719 Y101.829 E92.07531
G0 F3600 X126.154 Y101.829
G1 F1500 X125.494 Y101.17 E92.10789
G0 F3600 X124.928 Y101.17
G1 F1500 X125.588 Y101.829 E92.14046
G0 F3600 X125.022 Y101.829
G1 F1500 X124.363 Y101.17 E92.17301
G0 F3600 X123.797 Y101.17
G1 F1500 X124.457 Y101.829 E92.20558
G0 F3600 X123.891 Y101.829
G1 F1500 X123.231 Y101.17 E92.23815
G0 F3600 X122.666 Y101.17
G1 F1500 X123.325 Y101.829 E92.2707
G0 F3600 X122.76 Y101.829
G1 F1500 X122.1 Y101.17 E92.30327
G0 F3600 X121.534 Y101.17
G1 F1500 X122.194 Y101.829 E92.33584
G0 F3600 X121.628 Y101.829
G1 F1500 X120.968 Y101.17 E92.36841
G0 F3600 X120.403 Y101.17
G1 F1500 X121.329 Y102.096 E92.41415
G0 F3600 X121.329 Y102.662
G1 F1500 X119.837 Y101.17 E92.48783
G0 F3600 X119.271 Y101.17
