;FLAVOR:Marlin
;TIME:1007
;Filament used: 0m, 1.05786m
;Layer height: 0.3
;MINX:79.004
;MINY:97.4
;MINZ:0.3
;MAXX:164.6
;MAXY:122.6
;MAXZ:7.8
;Generated with Cura_SteamEngine 4.4.1
T1
M140 S65
M105
M190 S65
M104 S200
M105
M109 S200
M82 ;absolute extrusion mode
G28 ;Home
G1 Z15.0 F6000 ;Move the platform down 15mm
;Prime the extruder
G92 E0
G1 F200 E3
G92 E0
G92 E0
t1
G92 E0
G1 F1500 E-6.5
;LAYER_COUNT:26
;LAYER:0
M106 S255
G0 F3600 X80.405 Y98.168 Z0.3
;TYPE:SKIRT
G1 F1500 E0
G1 X80.851 Y97.872 E0.01869
G1 X81.337 Y97.644 E0.03744
G1 X81.851 Y97.492 E0.05616
G1 X82.506 Y97.412 E0.07921
G1 X82.836 Y97.402 E0.09073
G1 X82.945 Y97.4 E0.09454
G1 X160.345 Y97.4 E2.79759
G1 X161.043 Y97.41 E2.82197
G1 X161.577 Y97.458 E2.8407
G1 X162.098 Y97.584 E2.85942
G1 X162.595 Y97.787 E2.87816
G1 X163.056 Y98.061 E2.89689
G1 X163.471 Y98.4 E2.91561
G1 X163.831 Y98.798 E2.93435
G1 X164.128 Y99.244 E2.95306
G1 X164.356 Y99.73 E2.97181
G1 X164.508 Y100.244 E2.99053
G1 X164.59 Y100.908 E3.01389
G1 X164.599 Y101.227 E3.02504
G1 X164.6 Y101.329 E3.0286
G1 X164.6 Y118.309 E3.6216
G1 X164.591 Y119.036 E3.64699
G1 X164.544 Y119.57 E3.66571
G1 X164.419 Y120.091 E3.68442
G1 X164.217 Y120.588 E3.70316
G1 X163.944 Y121.05 E3.7219
G1 X163.606 Y121.466 E3.74062
G1 X163.209 Y121.827 E3.75935
G1 X162.763 Y122.125 E3.77809
G1 X162.278 Y122.353 E3.7968
G1 X161.764 Y122.507 E3.81554
G1 X161.092 Y122.59 E3.83919
G1 X160.771 Y122.599 E3.8504
G1 X160.67 Y122.6 E3.85393
G1 X91.656 Y122.6 E6.26412
G1 X90.955 Y122.59 E6.2886
G1 X90.42 Y122.542 E6.30736
G1 X89.899 Y122.416 E6.32608
G1 X89.403 Y122.213 E6.34479
G1 X88.942 Y121.939 E6.36352
G1 X88.426 Y121.5 E6.38718
G1 X88.283 Y121.353 E6.39435
G1 X88.23 Y121.298 E6.39701
G1 X86.649 Y119.602 E6.47799
G1 X84.734 Y117.662 E6.57318
G1 X82.766 Y115.775 E6.6684
G1 X80.693 Y113.898 E6.76607
G1 X80.239 Y113.5 E6.78715
G1 X79.863 Y113.118 E6.80587
G1 X79.549 Y112.683 E6.82461
G1 X79.302 Y112.207 E6.84333
G1 X79.129 Y111.7 E6.86204
G1 X79.033 Y111.172 E6.88078
G1 X79.014 Y110.894 E6.89052
G1 X79.005 Y110.571 E6.9018
G1 X79.004 Y110.471 E6.90529
G1 X79.005 Y101.674 E7.21251
G1 X79.005 Y101.62 E7.2144
G1 X79.015 Y100.956 E7.23759
G1 X79.063 Y100.422 E7.25631
G1 X79.19 Y99.901 E7.27504
G1 X79.393 Y99.404 E7.29379
G1 X79.667 Y98.943 E7.31252
G1 X80.007 Y98.528 E7.33125
G1 X80.405 Y98.168 E7.35
G0 F3600 X80.79 Y98.381
G1 F1500 X81.227 Y98.127 E7.36765
G1 X81.698 Y97.944 E7.38529
G1 X82.193 Y97.838 E7.40297
G1 X82.518 Y97.811 E7.41436
G1 X82.848 Y97.801 E7.42589
G1 X82.945 Y97.8 E7.42928
G1 X160.339 Y97.8 E10.13212
G1 X161.037 Y97.81 E10.1565
G1 X161.54 Y97.857 E10.17414
G1 X162.03 Y97.983 E10.19181
G1 X162.494 Y98.185 E10.20949
G1 X162.92 Y98.457 E10.22714
G1 X163.298 Y98.792 E10.24478
G1 X163.618 Y99.183 E10.26242
G1 X163.873 Y99.62 E10.28009
G1 X164.056 Y100.091 E10.29774
G1 X164.163 Y100.585 E10.31539
G1 X164.19 Y100.92 E10.32713
G1 X164.199 Y101.239 E10.33827
G1 X164.2 Y101.329 E10.34142
G1 X164.2 Y118.304 E10.93424
G1 X164.191 Y119.031 E10.95963
G1 X164.145 Y119.534 E10.97727
G1 X164.02 Y120.024 E10.99493
G1 X163.819 Y120.488 E11.01259
G1 X163.548 Y120.915 E11.03025
G1 X163.213 Y121.294 E11.04791
G1 X162.823 Y121.615 E11.06555
G1 X162.387 Y121.871 E11.08321
G1 X161.916 Y122.054 E11.10086
G1 X161.422 Y122.162 E11.11852
G1 X161.081 Y122.19 E11.13047
G1 X160.76 Y122.199 E11.14168
G1 X160.67 Y122.2 E11.14482
G1 X91.661 Y122.2 E13.55483
G1 X90.96 Y122.19 E13.57932
G1 X90.457 Y122.143 E13.59696
G1 X89.967 Y122.017 E13.61463
G1 X89.504 Y121.815 E13.63227
G1 X89.077 Y121.543 E13.64995
G1 X88.712 Y121.221 E13.66695
G1 X88.569 Y121.074 E13.67411
G1 X88.523 Y121.025 E13.67646
G1 X86.944 Y119.331 E13.75733
G1 X85.013 Y117.375 E13.85332
G1 X83.047 Y115.49 E13.94844
G1 X81 Y113.636 E14.04489
G1 X80.503 Y113.2 E14.06798
G1 X80.15 Y112.837 E14.08567
G1 X79.859 Y112.424 E14.10331
G1 X79.637 Y111.97 E14.12096
G1 X79.489 Y111.486 E14.13863
G1 X79.414 Y110.883 E14.15985
G1 X79.405 Y110.56 E14.17114
G1 X79.404 Y110.471 E14.17425
G1 X79.405 Y101.674 E14.48147
G1 X79.405 Y101.626 E14.48314
G1 X79.415 Y100.962 E14.50633
G1 X79.463 Y100.458 E14.52402
G1 X79.589 Y99.969 E14.54165
G1 X79.791 Y99.505 E14.55932
G1 X80.063 Y99.079 E14.57697
G1 X80.399 Y98.701 E14.59464
G1 X80.79 Y98.381 E14.61228
G1 F1500 E8.11228
;MESH:Body37.stl
G0 F3600 X83.219 Y100.335
G0 X83.219 Y101.614
G0 X91.67 Y110.13
G0 X91.6 Y110.2
;TYPE:WALL-INNER
G1 F1500 E14.61228
G1 X83.403 Y110.2 E14.89855
G1 X83.204 Y110.2 E14.9055
G1 X83.204 Y110.001 E14.90999
G1 X83.205 Y101.6 E15.20338
G1 X160.4 Y101.6 E17.89927
G1 X160.4 Y118.4 E18.48598
G1 X91.6 Y118.4 E20.8887
G1 X91.6 Y110.2 E21.17507
G0 F3600 X91.2 Y110.6
;TYPE:WALL-OUTER
G1 F1500 X83.004 Y110.6 E21.4613
G1 X82.804 Y110.6 E21.46828
G1 X82.804 Y110.4 E21.4728
G1 X82.805 Y101.2 E21.7941
G1 X160.8 Y101.2 E24.51793
G1 X160.8 Y118.8 E25.13257
G1 X91.2 Y118.8 E27.56322
G1 X91.2 Y110.6 E27.84959
G0 F3600 X91 Y110.6
G0 X91 Y110.16
G0 X91 Y110.1
G0 X91.99 Y109.81
;TYPE:SKIN
G1 F1500 X83.594 Y109.81 E28.14281
G1 X83.595 Y101.99 E28.41591
G1 X160.01 Y101.99 E31.08456
G1 X160.01 Y118.01 E31.64403
G1 X91.99 Y118.01 E34.0195
G1 X91.99 Y109.81 E34.30587
G0 F3600 X84.173 Y109.629
G1 F1500 X83.774 Y109.23 E34.32558
G0 F3600 X83.774 Y108.664
G1 F1500 X84.738 Y109.629 E34.37321
G0 F3600 X85.304 Y109.629
G1 F1500 X83.774 Y108.098 E34.4488
G0 F3600 X83.774 Y107.533
G1 F1500 X85.87 Y109.629 E34.55232
G0 F3600 X86.436 Y109.629
G1 F1500 X83.774 Y106.967 E34.68379
G0 F3600 X83.774 Y106.401
G1 F1500 X87.001 Y109.629 E34.84319
G0 F3600 X87.567 Y109.629
G1 F1500 X83.774 Y105.836 E35.03053
G0 F3600 X83.774 Y105.27
G1 F1500 X88.133 Y109.629 E35.24581
G0 F3600 X88.698 Y109.629
G1 F1500 X83.774 Y104.704 E35.48903
G0 F3600 X83.774 Y104.139
G1 F1500 X89.264 Y109.629 E35.76017
G0 F3600 X89.83 Y109.629
G1 F1500 X83.774 Y103.573 E36.05927
G0 F3600 X83.774 Y103.007
G1 F1500 X90.395 Y109.629 E36.3863
G0 F3600 X90.961 Y109.629
G1 F1500 X83.774 Y102.442 E36.74126
G0 F3600 X84.067 Y102.169
G1 F1500 X91.527 Y109.629 E37.1097
G0 F3600 X92.092 Y109.629
G1 F1500 X84.633 Y102.169 E37.47811
G0 F3600 X85.199 Y102.169
G1 F1500 X100.858 Y117.829 E38.25151
G0 F3600 X100.293 Y117.829
G1 F1500 X92.169 Y109.706 E38.65272
G0 F3600 X92.169 Y110.271
G1 F1500 X99.727 Y117.829 E39.026
G0 F3600 X99.161 Y117.829
G1 F1500 X92.169 Y110.837 E39.37133
G0 F3600 X92.169 Y111.403
G1 F1500 X98.596 Y117.829 E39.68873
G0 F3600 X98.03 Y117.829
G1 F1500 X92.169 Y111.968 E39.9782
G0 F3600 X92.169 Y112.534
G1 F1500 X97.464 Y117.829 E40.23971
G0 F3600 X96.899 Y117.829
G1 F1500 X92.169 Y113.1 E40.47329
G0 F3600 X92.169 Y113.666
G1 F1500 X96.333 Y117.829 E40.67892
G0 F3600 X95.767 Y117.829
G1 F1500 X92.169 Y114.231 E40.85662
G0 F3600 X92.169 Y114.797
G1 F1500 X95.202 Y117.829 E41.0064
G0 F3600 X94.636 Y117.829
G1 F1500 X92.169 Y115.363 E41.12821
G0 F3600 X92.169 Y115.928
G1 F1500 X94.07 Y117.829 E41.2221
G0 F3600 X93.504 Y117.829
G1 F1500 X92.169 Y116.494 E41.28804
G0 F3600 X92.169 Y117.06
G1 F1500 X92.939 Y117.829 E41.32604
G0 F3600 X92.373 Y117.829
G1 F1500 X92.169 Y117.625 E41.33612
G0 F3600 X101.424 Y117.829
G1 F1500 X85.764 Y102.169 E42.10954
G0 F3600 X86.33 Y102.169
G1 F1500 X101.99 Y117.829 E42.88297
G0 F3600 X102.555 Y117.829
G1 F1500 X86.896 Y102.169 E43.65638
G0 F3600 X87.462 Y102.169
G1 F1500 X103.121 Y117.829 E44.42978
G0 F3600 X103.687 Y117.829
G1 F1500 X88.027 Y102.169 E45.20321
G0 F3600 X88.593 Y102.169
G1 F1500 X104.252 Y117.829 E45.97661
G0 F3600 X104.818 Y117.829
G1 F1500 X89.159 Y102.169 E46.75002
G0 F3600 X89.724 Y102.169
G1 F1500 X105.384 Y117.829 E47.52344
G0 F3600 X105.95 Y117.829
G1 F1500 X90.29 Y102.169 E48.29687
G0 F3600 X90.856 Y102.169
G1 F1500 X106.515 Y117.829 E49.07028
G0 F3600 X107.081 Y117.829
G1 F1500 X91.421 Y102.169 E49.8437
G0 F3600 X91.987 Y102.169
G1 F1500 X107.647 Y117.829 E50.61713
G0 F3600 X108.212 Y117.829
G1 F1500 X92.553 Y102.169 E51.39054
G0 F3600 X93.118 Y102.169
G1 F1500 X108.778 Y117.829 E52.16396
G0 F3600 X109.344 Y117.829
G1 F1500 X93.684 Y102.169 E52.93739
G0 F3600 X94.25 Y102.169
G1 F1500 X109.909 Y117.829 E53.7108
G0 F3600 X110.475 Y117.829
G1 F1500 X94.815 Y102.169 E54.48422
G0 F3600 X95.381 Y102.169
G1 F1500 X111.041 Y117.829 E55.25765
G0 F3600 X111.606 Y117.829
G1 F1500 X95.947 Y102.169 E56.03106
G0 F3600 X96.513 Y102.169
G1 F1500 X112.172 Y117.829 E56.80446
G0 F3600 X112.738 Y117.829
G1 F1500 X97.078 Y102.169 E57.57789
G0 F3600 X97.644 Y102.169
G1 F1500 X113.303 Y117.829 E58.35129
G0 F3600 X113.869 Y117.829
G1 F1500 X98.21 Y102.169 E59.1247
G0 F3600 X98.775 Y102.169
G1 F1500 X114.435 Y117.829 E59.89812
G0 F3600 X115.001 Y117.829
G1 F1500 X99.341 Y102.169 E60.67155
G0 F3600 X99.907 Y102.169
G1 F1500 X115.566 Y117.829 E61.44496
G0 F3600 X116.132 Y117.829
G1 F1500 X100.472 Y102.169 E62.21838
G0 F3600 X101.038 Y102.169
G1 F1500 X116.698 Y117.829 E62.99181
G0 F3600 X117.263 Y117.829
G1 F1500 X101.604 Y102.169 E63.76522
G0 F3600 X102.169 Y102.169
G1 F1500 X117.829 Y117.829 E64.53864
G0 F3600 X118.395 Y117.829
G1 F1500 X102.735 Y102.169 E65.31207
G0 F3600 X103.301 Y102.169
G1 F1500 X118.96 Y117.829 E66.08548
G0 F3600 X119.526 Y117.829
G1 F1500 X103.866 Y102.169 E66.8589
G0 F3600 X104.432 Y102.169
G1 F1500 X120.092 Y117.829 E67.63233
G0 F3600 X120.657 Y117.829
G1 F1500 X104.998 Y102.169 E68.40574
G0 F3600 X105.563 Y102.169
G1 F1500 X121.223 Y117.829 E69.17916
G0 F3600 X121.789 Y117.829
G1 F1500 X106.129 Y102.169 E69.95259
G0 F3600 X106.695 Y102.169
G1 F1500 X122.354 Y117.829 E70.726
G0 F3600 X122.92 Y117.829
G1 F1500 X107.261 Y102.169 E71.4994
G0 F3600 X107.826 Y102.169
G1 F1500 X123.486 Y117.829 E72.27283
G0 F3600 X124.051 Y117.829
G1 F1500 X108.392 Y102.169 E73.04623
G0 F3600 X108.958 Y102.169
G1 F1500 X124.617 Y117.829 E73.81964
G0 F3600 X125.183 Y117.829
G1 F1500 X109.523 Y102.169 E74.59306
G0 F3600 X110.089 Y102.169
G1 F1500 X125.749 Y117.829 E75.36649
G0 F3600 X126.314 Y117.829
G1 F1500 X110.655 Y102.169 E76.1399
G0 F3600 X111.22 Y102.169
G1 F1500 X126.88 Y117.829 E76.91332
G0 F3600 X127.446 Y117.829
G1 F1500 X111.786 Y102.169 E77.68675
G0 F3600 X112.352 Y102.169
G1 F1500 X128.011 Y117.829 E78.46016
G0 F3600 X128.577 Y117.829
G1 F1500 X112.917 Y102.169 E79.23358
G0 F3600 X113.483 Y102.169
G1 F1500 X129.143 Y117.829 E80.00701
G0 F3600 X129.708 Y117.829
G1 F1500 X114.049 Y102.169 E80.78042
G0 F3600 X114.614 Y102.169
G1 F1500 X130.274 Y117.829 E81.55384
G0 F3600 X130.84 Y117.829
G1 F1500 X115.18 Y102.169 E82.32727
G0 F3600 X115.746 Y102.169
G1 F1500 X131.405 Y117.829 E83.10068
G0 F3600 X131.971 Y117.829
G1 F1500 X116.311 Y102.169 E83.8741
G0 F3600 X116.877 Y102.169
G1 F1500 X132.537 Y117.829 E84.64753
G0 F3600 X133.102 Y117.829
G1 F1500 X117.443 Y102.169 E85.42094
G0 F3600 X118.009 Y102.169
G1 F1500 X133.668 Y117.829 E86.19434
G0 F3600 X134.234 Y117.829
G1 F1500 X118.574 Y102.169 E86.96777
G0 F3600 X119.14 Y102.169
G1 F1500 X134.8 Y117.829 E87.7412
G0 F3600 X135.365 Y117.829
G1 F1500 X119.706 Y102.169 E88.5146
G0 F3600 X120.271 Y102.169
G1 F1500 X135.931 Y117.829 E89.28803
G0 F3600 X136.497 Y117.829
G1 F1500 X120.837 Y102.169 E90.06146
G0 F3600 X121.403 Y102.169
G1 F1500 X137.062 Y117.829 E90.83486
G0 F3600 X137.628 Y117.829
G1 F1500 X121.968 Y102.169 E91.60829
G0 F3600 X122.534 Y102.169
G1 F1500 X138.194 Y117.829 E92.38172
G0 F3600 X138.759 Y117.829
G1 F1500 X123.1 Y102.169 E93.15512
G0 F3600 X123.665 Y102.169
G1 F1500 X139.325 Y117.829 E93.92855
G0 F3600 X139.891 Y117.829
G1 F1500 X124.231 Y102.169 E94.70198
G0 F3600 X124.797 Y102.169
G1 F1500 X140.456 Y117.829 E95.47538
G0 F3600 X141.022 Y117.829
G1 F1500 X125.362 Y102.169 E96.24881
G0 F3600 X125.928 Y102.169
G1 F1500 X141.588 Y117.829 E97.02224
G0 F3600 X142.153 Y117.829
G1 F1500 X126.494 Y102.169 E97.79564
G0 F3600 X127.06 Y102.169
G1 F1500 X142.719 Y117.829 E98.56904
G0 F3600 X143.285 Y117.829
G1 F1500 X127.625 Y102.169 E99.34247
G0 F3600 X128.191 Y102.169
G1 F1500 X143.85 Y117.829 E100.11588
G0 F3600 X144.416 Y117.829
G1 F1500 X128.757 Y102.169 E100.88928
G0 F3600 X129.322 Y102.169
G1 F1500 X144.982 Y117.829 E101.66271
G0 F3600 X145.548 Y117.829
G1 F1500 X129.888 Y102.169 E102.43614
G0 F3600 X130.454 Y102.169
G1 F1500 X146.113 Y117.829 E103.20954
G0 F3600 X146.679 Y117.829
G1 F1500 X131.019 Y102.169 E103.98297
G0 F3600 X131.585 Y102.169
G1 F1500 X147.245 Y117.829 E104.7564
G0 F3600 X147.81 Y117.829
G1 F1500 X132.151 Y102.169 E105.5298
G0 F3600 X132.716 Y102.169
G1 F1500 X148.376 Y117.829 E106.30323
G0 F3600 X148.942 Y117.829
G1 F1500 X133.282 Y102.169 E107.07666
G0 F3600 X133.848 Y102.169
G1 F1500 X149.507 Y117.829 E107.85006
G0 F3600 X150.073 Y117.829
G1 F1500 X134.413 Y102.169 E108.62349
G0 F3600 X134.979 Y102.169
G1 F1500 X150.639 Y117.829 E109.39692
G0 F3600 X151.204 Y117.829
G1 F1500 X135.545 Y102.169 E110.17032
G0 F3600 X136.11 Y102.169
G1 F1500 X151.77 Y117.829 E110.94375
G0 F3600 X152.336 Y117.829
G1 F1500 X136.676 Y102.169 E111.71718
G0 F3600 X137.242 Y102.169
G1 F1500 X152.901 Y117.829 E112.49058
G0 F3600 X153.467 Y117.829
G1 F1500 X137.808 Y102.169 E113.26399
G0 F3600 X138.373 Y102.169
G1 F1500 X154.033 Y117.829 E114.03741
G0 F3600 X154.598 Y117.829
G1 F1500 X138.939 Y102.169 E114.81082
G0 F3600 X139.505 Y102.169
G1 F1500 X155.164 Y117.829 E115.58422
G0 F3600 X155.73 Y117.829
G1 F1500 X140.07 Y102.169 E116.35765
G0 F3600 X140.636 Y102.169
G1 F1500 X156.296 Y117.829 E117.13108
G0 F3600 X156.861 Y117.829
G1 F1500 X141.202 Y102.169 E117.90448
G0 F3600 X141.767 Y102.169
G1 F1500 X157.427 Y117.829 E118.67791
G0 F3600 X157.993 Y117.829
G1 F1500 X142.333 Y102.169 E119.45134
G0 F3600 X142.899 Y102.169
G1 F1500 X158.558 Y117.829 E120.22474
G0 F3600 X159.124 Y117.829
G1 F1500 X143.464 Y102.169 E120.99817
G0 F3600 X144.03 Y102.169
G1 F1500 X159.69 Y117.829 E121.7716
G0 F3600 X159.829 Y117.403
G1 F1500 X144.596 Y102.169 E122.52396
G0 F3600 X145.161 Y102.169
G1 F1500 X159.829 Y116.837 E123.2484
G0 F3600 X159.829 Y116.271
G1 F1500 X145.727 Y102.169 E123.94488
G0 F3600 X146.293 Y102.169
G1 F1500 X159.829 Y115.706 E124.61343
G0 F3600 X159.829 Y115.14
G1 F1500 X146.859 Y102.169 E125.25403
G0 F3600 X147.424 Y102.169
G1 F1500 X159.829 Y114.574 E125.86669
G0 F3600 X159.829 Y114.008
G1 F1500 X147.99 Y102.169 E126.45141
G0 F3600 X148.556 Y102.169
G1 F1500 X159.829 Y113.443 E127.00819
G0 F3600 X159.829 Y112.877
G1 F1500 X149.121 Y102.169 E127.53705
G0 F3600 X149.687 Y102.169
G1 F1500 X159.829 Y112.311 E128.03795
G0 F3600 X159.829 Y111.746
G1 F1500 X150.253 Y102.169 E128.51092
G0 F3600 X150.818 Y102.169
G1 F1500 X159.829 Y111.18 E128.95596
G0 F3600 X159.829 Y110.614
G1 F1500 X151.384 Y102.169 E129.37305
G0 F3600 X151.95 Y102.169
G1 F1500 X159.829 Y110.049 E129.76221
G0 F3600 X159.829 Y109.483
G1 F1500 X152.515 Y102.169 E130.12344
G0 F3600 X153.081 Y102.169
G1 F1500 X159.829 Y108.917 E130.45671
G0 F3600 X159.829 Y108.352
G1 F1500 X153.647 Y102.169 E130.76206
G0 F3600 X154.212 Y102.169
G1 F1500 X159.829 Y107.786 E131.03948
G0 F3600 X159.829 Y107.22
G1 F1500 X154.778 Y102.169 E131.28894
G0 F3600 X155.344 Y102.169
G1 F1500 X159.829 Y106.655 E131.51047
G0 F3600 X159.829 Y106.089
G1 F1500 X155.909 Y102.169 E131.70408
G0 F3600 X156.475 Y102.169
G1 F1500 X159.829 Y105.523 E131.86973
G0 F3600 X159.829 Y104.957
G1 F1500 X157.041 Y102.169 E132.00742
G0 F3600 X157.607 Y102.169
G1 F1500 X159.829 Y104.392 E132.11719
G0 F3600 X159.829 Y103.826
G1 F1500 X158.172 Y102.169 E132.19903
G0 F3600 X158.738 Y102.169
G1 F1500 X159.829 Y103.26 E132.25291
G0 F3600 X159.829 Y102.695
G1 F1500 X159.304 Y102.169 E132.27886
;MESH:NONMESH
G0 F600 X159.304 Y102.169 Z0.6
G0 F3600 X91.67 Y110.13
G0 X91.6 Y110.2
;TIME_ELAPSED:160.831362
;LAYER:1
M140 S65
;TYPE:WALL-INNER
;MESH:Body37.stl
G1 F2250 X82.537 Y110.2 E132.73102
G1 X82.338 Y110.2 E132.74095
G1 X82.338 Y110.001 E132.74737
G1 X82.339 Y101.6 E133.1665
G1 X160.4 Y101.6 E137.06098
G1 X160.4 Y118.4 E137.89913
G1 X91.6 Y118.4 E141.33158
G1 X91.6 Y110.2 E141.74068
G0 F5400 X91.2 Y110.6
;TYPE:WALL-OUTER
G1 F1500 X82.138 Y110.6 E142.19278
G1 X81.938 Y110.6 E142.20276
G1 X81.938 Y110.4 E142.20922
G1 X81.939 Y101.2 E142.66821
G1 X160.8 Y101.2 E146.6026
