;FLAVOR:Marlin
;TIME:692
;Filament used: 0m, 0.694575m
;Layer height: 0.3
;MINX:75.4
;MINY:97.4
;MINZ:0.3
;MAXX:164.6
;MAXY:122.6
;MAXZ:6.3
;Generated with Cura_SteamEngine 4.4.1
T1
M140 S65
M105
M190 S65
M104 S200
M105
M109 S200
M82 ;absolute extrusion mode
G28 ;Home
G1 Z15.0 F6000 ;Move the platform down 15mm
;Prime the extruder
G92 E0
G1 F200 E3
G92 E0
G92 E0
t1
G92 E0
G1 F1500 E-6.5
;LAYER_COUNT:21
;LAYER:0
M106 S255
G0 F3600 X76.794 Y98.171 Z0.3
;TYPE:SKIRT
G1 F1500 E0
G1 X77.241 Y97.873 E0.01876
G1 X77.726 Y97.645 E0.03748
G1 X78.24 Y97.492 E0.05621
G1 X78.908 Y97.41 E0.07971
G1 X79.229 Y97.401 E0.09092
G1 X79.33 Y97.4 E0.09445
G1 X160.345 Y97.4 E2.92375
G1 X161.043 Y97.41 E2.94813
G1 X161.577 Y97.458 E2.96685
G1 X162.098 Y97.584 E2.98557
G1 X162.595 Y97.787 E3.00432
G1 X163.056 Y98.061 E3.02305
G1 X163.471 Y98.4 E3.04176
G1 X163.831 Y98.798 E3.06051
G1 X164.128 Y99.244 E3.07922
G1 X164.356 Y99.73 E3.09797
G1 X164.508 Y100.244 E3.11669
G1 X164.59 Y100.909 E3.14009
G1 X164.599 Y101.229 E3.15127
G1 X164.6 Y101.33 E3.15479
G1 X164.6 Y118.309 E3.74775
G1 X164.591 Y119.036 E3.77314
G1 X164.544 Y119.57 E3.79187
G1 X164.419 Y120.091 E3.81058
G1 X164.217 Y120.588 E3.82931
G1 X163.944 Y121.05 E3.84805
G1 X163.606 Y121.466 E3.86677
G1 X163.209 Y121.827 E3.88551
G1 X162.763 Y122.125 E3.90424
G1 X162.278 Y122.353 E3.92296
G1 X161.764 Y122.507 E3.9417
G1 X161.092 Y122.59 E3.96535
G1 X160.771 Y122.599 E3.97656
G1 X160.67 Y122.6 E3.98009
G1 X91.655 Y122.6 E6.39031
G1 X90.957 Y122.59 E6.41469
G1 X90.423 Y122.542 E6.43341
G1 X89.902 Y122.416 E6.45213
G1 X89.405 Y122.213 E6.47088
G1 X88.809 Y121.84 E6.49543
G1 X88.502 Y121.603 E6.50898
G1 X88.441 Y121.555 E6.51169
G1 X86.839 Y120.262 E6.58359
G1 X84.682 Y118.621 E6.67824
G1 X82.452 Y117.02 E6.77411
G1 X80.213 Y115.508 E6.86846
G1 X77.886 Y114.03 E6.96473
G1 X77.12 Y113.558 E6.99615
G1 X76.686 Y113.243 E7.01488
G1 X76.303 Y112.868 E7.0336
G1 X75.981 Y112.439 E7.05233
G1 X75.725 Y111.968 E7.07106
G1 X75.542 Y111.464 E7.08978
G1 X75.437 Y110.938 E7.10851
G1 X75.41 Y110.593 E7.1206
G1 X75.401 Y110.27 E7.13188
G1 X75.4 Y110.17 E7.13538
G1 X75.4 Y101.625 E7.43379
G1 X75.409 Y100.96 E7.45702
G1 X75.457 Y100.426 E7.47574
G1 X75.583 Y99.905 E7.49446
G1 X75.785 Y99.408 E7.5132
G1 X76.058 Y98.947 E7.53191
G1 X76.397 Y98.531 E7.55065
G1 X76.794 Y98.171 E7.56937
G0 F3600 X77.18 Y98.383
G1 F1500 X77.617 Y98.128 E7.58704
G1 X78.088 Y97.944 E7.6047
G1 X78.582 Y97.838 E7.62234
G1 X78.919 Y97.81 E7.63415
G1 X79.24 Y97.801 E7.64537
G1 X79.33 Y97.8 E7.64851
G1 X160.339 Y97.8 E10.4776
G1 X161.037 Y97.81 E10.50198
G1 X161.54 Y97.857 E10.51962
G1 X162.03 Y97.983 E10.53729
G1 X162.494 Y98.185 E10.55496
G1 X162.92 Y98.457 E10.57261
G1 X163.298 Y98.792 E10.59025
G1 X163.618 Y99.183 E10.6079
G1 X163.873 Y99.62 E10.62557
G1 X164.056 Y100.091 E10.64321
G1 X164.163 Y100.585 E10.66087
G1 X164.19 Y100.92 E10.6726
G1 X164.199 Y101.24 E10.68378
G1 X164.2 Y101.33 E10.68693
G1 X164.2 Y118.304 E11.27971
G1 X164.191 Y119.031 E11.3051
G1 X164.145 Y119.534 E11.32274
G1 X164.02 Y120.024 E11.3404
G1 X163.819 Y120.488 E11.35806
G1 X163.548 Y120.915 E11.37572
G1 X163.213 Y121.294 E11.39339
G1 X162.823 Y121.615 E11.41103
G1 X162.387 Y121.871 E11.42869
G1 X161.916 Y122.054 E11.44633
G1 X161.422 Y122.162 E11.46399
G1 X161.081 Y122.19 E11.47594
G1 X160.76 Y122.199 E11.48716
G1 X160.67 Y122.2 E11.4903
G1 X91.661 Y122.2 E13.90031
G1 X90.963 Y122.19 E13.92469
G1 X90.46 Y122.143 E13.94233
G1 X89.97 Y122.017 E13.96
G1 X89.506 Y121.815 E13.97767
G1 X89.054 Y121.523 E13.99647
G1 X88.747 Y121.286 E14.01001
G1 X88.692 Y121.243 E14.01245
G1 X87.086 Y119.947 E14.08452
G1 X84.927 Y118.304 E14.17927
G1 X82.687 Y116.697 E14.27555
G1 X80.405 Y115.155 E14.37173
G1 X78.096 Y113.689 E14.46725
G1 X77.33 Y113.217 E14.49867
G1 X76.922 Y112.919 E14.51631
G1 X76.566 Y112.56 E14.53397
G1 X76.271 Y112.149 E14.55164
G1 X76.044 Y111.698 E14.56927
G1 X75.892 Y111.216 E14.58692
G1 X75.81 Y110.582 E14.60925
G1 X75.801 Y110.259 E14.62053
G1 X75.8 Y110.17 E14.62364
G1 X75.8 Y101.631 E14.92185
G1 X75.809 Y100.966 E14.94507
G1 X75.856 Y100.462 E14.96275
G1 X75.982 Y99.973 E14.98039
G1 X76.183 Y99.509 E14.99805
G1 X76.454 Y99.082 E15.01571
G1 X76.789 Y98.704 E15.03335
G1 X77.18 Y98.383 E15.05101
G1 F1500 E8.55101
;MESH:Body42.stl
G0 F3600 X79.614 Y100.335
G0 X79.614 Y101.614
G0 X91.67 Y109.83
G0 X91.6 Y109.9
;TYPE:WALL-INNER
G1 F1500 E15.05101
G1 X79.6 Y109.9 E15.47009
G1 X79.6 Y101.6 E15.75995
G1 X160.4 Y101.6 E18.58174
G1 X160.4 Y118.4 E19.16845
G1 X91.6 Y118.4 E21.57117
G1 X91.6 Y109.9 E21.86801
G0 F3600 X91.2 Y110.3
;TYPE:WALL-OUTER
G1 F1500 X79.2 Y110.3 E22.28709
G1 X79.2 Y101.2 E22.60489
G1 X160.8 Y101.2 E25.45462
G1 X160.8 Y118.8 E26.06927
G1 X91.2 Y118.8 E28.49992
G1 X91.2 Y110.3 E28.79676
G0 F3600 X91 Y110.3
G0 X91 Y109.86
G0 X91 Y109.8
G0 X91.99 Y109.51
;TYPE:SKIN
G1 F1500 X79.99 Y109.51 E29.21584
G1 X79.99 Y101.99 E29.47846
G1 X160.01 Y101.99 E32.27301
G1 X160.01 Y118.01 E32.83248
G1 X91.99 Y118.01 E35.20795
G1 X91.99 Y109.51 E35.5048
G0 F3600 X80.479 Y109.329
G1 F1500 X80.169 Y109.019 E35.52011
G0 F3600 X80.169 Y108.453
G1 F1500 X81.045 Y109.329 E35.56338
G0 F3600 X81.61 Y109.329
G1 F1500 X80.169 Y107.888 E35.63454
G0 F3600 X80.169 Y107.322
G1 F1500 X82.176 Y109.329 E35.73367
G0 F3600 X82.742 Y109.329
G1 F1500 X80.169 Y106.756 E35.86075
G0 F3600 X80.169 Y106.191
G1 F1500 X83.307 Y109.329 E36.01573
G0 F3600 X83.873 Y109.329
G1 F1500 X80.169 Y105.625 E36.19866
G0 F3600 X80.169 Y105.059
G1 F1500 X84.439 Y109.329 E36.40955
G0 F3600 X85.004 Y109.329
G1 F1500 X80.169 Y104.494 E36.64835
G0 F3600 X80.169 Y103.928
G1 F1500 X85.57 Y109.329 E36.9151
G0 F3600 X86.136 Y109.329
G1 F1500 X80.169 Y103.362 E37.2098
G0 F3600 X80.169 Y102.797
G1 F1500 X86.701 Y109.329 E37.53241
G0 F3600 X87.267 Y109.329
G1 F1500 X80.169 Y102.231 E37.88297
G0 F3600 X80.673 Y102.169
G1 F1500 X87.833 Y109.329 E38.23659
G0 F3600 X88.398 Y109.329
G1 F1500 X81.239 Y102.169 E38.59019
G0 F3600 X81.805 Y102.169
G1 F1500 X88.964 Y109.329 E38.94379
G0 F3600 X89.53 Y109.329
G1 F1500 X82.37 Y102.169 E39.29741
G0 F3600 X82.936 Y102.169
G1 F1500 X90.096 Y109.329 E39.65104
G0 F3600 X90.661 Y109.329
G1 F1500 X83.502 Y102.169 E40.00464
G0 F3600 X84.067 Y102.169
G1 F1500 X91.227 Y109.329 E40.35826
G0 F3600 X91.793 Y109.329
G1 F1500 X84.633 Y102.169 E40.71188
G0 F3600 X85.199 Y102.169
G1 F1500 X100.858 Y117.829 E41.48529
G0 F3600 X100.293 Y117.829
G1 F1500 X92.169 Y109.706 E41.8865
G0 F3600 X92.169 Y110.271
G1 F1500 X99.727 Y117.829 E42.25978
G0 F3600 X99.161 Y117.829
G1 F1500 X92.169 Y110.837 E42.6051
G0 F3600 X92.169 Y111.403
G1 F1500 X98.596 Y117.829 E42.9225
G0 F3600 X98.03 Y117.829
G1 F1500 X92.169 Y111.968 E43.21197
G0 F3600 X92.169 Y112.534
G1 F1500 X97.464 Y117.829 E43.47348
G0 F3600 X96.899 Y117.829
G1 F1500 X92.169 Y113.1 E43.70707
G0 F3600 X92.169 Y113.666
G1 F1500 X96.333 Y117.829 E43.9127
G0 F3600 X95.767 Y117.829
G1 F1500 X92.169 Y114.231 E44.0904
G0 F3600 X92.169 Y114.797
G1 F1500 X95.202 Y117.829 E44.24017
G0 F3600 X94.636 Y117.829
G1 F1500 X92.169 Y115.363 E44.36199
G0 F3600 X92.169 Y115.928
G1 F1500 X94.07 Y117.829 E44.45588
G0 F3600 X93.504 Y117.829
G1 F1500 X92.169 Y116.494 E44.52181
G0 F3600 X92.169 Y117.06
G1 F1500 X92.939 Y117.829 E44.55981
G0 F3600 X92.373 Y117.829
G1 F1500 X92.169 Y117.625 E44.56989
G0 F3600 X101.424 Y117.829
G1 F1500 X85.764 Y102.169 E45.34332
G0 F3600 X86.33 Y102.169
G1 F1500 X101.99 Y117.829 E46.11675
G0 F3600 X102.555 Y117.829
G1 F1500 X86.896 Y102.169 E46.89015
G0 F3600 X87.462 Y102.169
G1 F1500 X103.121 Y117.829 E47.66355
G0 F3600 X103.687 Y117.829
G1 F1500 X88.027 Y102.169 E48.43698
G0 F3600 X88.593 Y102.169
G1 F1500 X104.252 Y117.829 E49.21038
G0 F3600 X104.818 Y117.829
G1 F1500 X89.159 Y102.169 E49.98379
G0 F3600 X89.724 Y102.169
G1 F1500 X105.384 Y117.829 E50.75722
G0 F3600 X105.95 Y117.829
G1 F1500 X90.29 Y102.169 E51.53065
G0 F3600 X90.856 Y102.169
G1 F1500 X106.515 Y117.829 E52.30405
G0 F3600 X107.081 Y117.829
G1 F1500 X91.421 Y102.169 E53.07748
G0 F3600 X91.987 Y102.169
G1 F1500 X107.647 Y117.829 E53.85091
G0 F3600 X108.212 Y117.829
G1 F1500 X92.553 Y102.169 E54.62431
G0 F3600 X93.118 Y102.169
G1 F1500 X108.778 Y117.829 E55.39774
G0 F3600 X109.344 Y117.829
G1 F1500 X93.684 Y102.169 E56.17117
G0 F3600 X94.25 Y102.169
G1 F1500 X109.909 Y117.829 E56.94457
G0 F3600 X110.475 Y117.829
G1 F1500 X94.815 Y102.169 E57.718
G0 F3600 X95.381 Y102.169
G1 F1500 X111.041 Y117.829 E58.49143
G0 F3600 X111.606 Y117.829
G1 F1500 X95.947 Y102.169 E59.26483
G0 F3600 X96.513 Y102.169
G1 F1500 X112.172 Y117.829 E60.03823
G0 F3600 X112.738 Y117.829
G1 F1500 X97.078 Y102.169 E60.81166
G0 F3600 X97.644 Y102.169
G1 F1500 X113.303 Y117.829 E61.58506
G0 F3600 X113.869 Y117.829
G1 F1500 X98.21 Y102.169 E62.35847
G0 F3600 X98.775 Y102.169
G1 F1500 X114.435 Y117.829 E63.1319
G0 F3600 X115.001 Y117.829
G1 F1500 X99.341 Y102.169 E63.90533
G0 F3600 X99.907 Y102.169
G1 F1500 X115.566 Y117.829 E64.67873
G0 F3600 X116.132 Y117.829
G1 F1500 X100.472 Y102.169 E65.45216
G0 F3600 X101.038 Y102.169
G1 F1500 X116.698 Y117.829 E66.22559
G0 F3600 X117.263 Y117.829
G1 F1500 X101.604 Y102.169 E66.99899
G0 F3600 X102.169 Y102.169
G1 F1500 X117.829 Y117.829 E67.77242
G0 F3600 X118.395 Y117.829
G1 F1500 X102.735 Y102.169 E68.54585
G0 F3600 X103.301 Y102.169
G1 F1500 X118.96 Y117.829 E69.31925
G0 F3600 X119.526 Y117.829
G1 F1500 X103.866 Y102.169 E70.09268
G0 F3600 X104.432 Y102.169
G1 F1500 X120.092 Y117.829 E70.86611
G0 F3600 X120.657 Y117.829
G1 F1500 X104.998 Y102.169 E71.63951
G0 F3600 X105.563 Y102.169
G1 F1500 X121.223 Y117.829 E72.41294
G0 F3600 X121.789 Y117.829
G1 F1500 X106.129 Y102.169 E73.18637
G0 F3600 X106.695 Y102.169
G1 F1500 X122.354 Y117.829 E73.95977
G0 F3600 X122.92 Y117.829
G1 F1500 X107.261 Y102.169 E74.73317
G0 F3600 X107.826 Y102.169
G1 F1500 X123.486 Y117.829 E75.5066
G0 F3600 X124.051 Y117.829
G1 F1500 X108.392 Y102.169 E76.28001
G0 F3600 X108.958 Y102.169
G1 F1500 X124.617 Y117.829 E77.05341
G0 F3600 X125.183 Y117.829
G1 F1500 X109.523 Y102.169 E77.82684
G0 F3600 X110.089 Y102.169
G1 F1500 X125.749 Y117.829 E78.60027
G0 F3600 X126.314 Y117.829
G1 F1500 X110.655 Y102.169 E79.37367
G0 F3600 X111.22 Y102.169
G1 F1500 X126.88 Y117.829 E80.1471
G0 F3600 X127.446 Y117.829
G1 F1500 X111.786 Y102.169 E80.92053
G0 F3600 X112.352 Y102.169
G1 F1500 X128.011 Y117.829 E81.69393
G0 F3600 X128.577 Y117.829
G1 F1500 X112.917 Y102.169 E82.46736
G0 F3600 X113.483 Y102.169
G1 F1500 X129.143 Y117.829 E83.24079
G0 F3600 X129.708 Y117.829
G1 F1500 X114.049 Y102.169 E84.01419
G0 F3600 X114.614 Y102.169
G1 F1500 X130.274 Y117.829 E84.78762
G0 F3600 X130.84 Y117.829
G1 F1500 X115.18 Y102.169 E85.56105
G0 F3600 X115.746 Y102.169
G1 F1500 X131.405 Y117.829 E86.33445
G0 F3600 X131.971 Y117.829
G1 F1500 X116.311 Y102.169 E87.10788
G0 F3600 X116.877 Y102.169
G1 F1500 X132.537 Y117.829 E87.88131
G0 F3600 X133.102 Y117.829
G1 F1500 X117.443 Y102.169 E88.65471
G0 F3600 X118.009 Y102.169
G1 F1500 X133.668 Y117.829 E89.42811
G0 F3600 X134.234 Y117.829
G1 F1500 X118.574 Y102.169 E90.20154
G0 F3600 X119.14 Y102.169
G1 F1500 X134.8 Y117.829 E90.97497
G0 F3600 X135.365 Y117.829
G1 F1500 X119.706 Y102.169 E91.74837
G0 F3600 X120.271 Y102.169
G1 F1500 X135.931 Y117.829 E92.5218
G0 F3600 X136.497 Y117.829
G1 F1500 X120.837 Y102.169 E93.29523
G0 F3600 X121.403 Y102.169
G1 F1500 X137.062 Y117.829 E94.06863
G0 F3600 X137.628 Y117.829
G1 F1500 X121.968 Y102.169 E94.84206
G0 F3600 X122.534 Y102.169
G1 F1500 X138.194 Y117.829 E95.61549
G0 F3600 X138.759 Y117.829
G1 F1500 X123.1 Y102.169 E96.38889
G0 F3600 X123.665 Y102.169
G1 F1500 X139.325 Y117.829 E97.16232
G0 F3600 X139.891 Y117.829
G1 F1500 X124.231 Y102.169 E97.93575
G0 F3600 X124.797 Y102.169
G1 F1500 X140.456 Y117.829 E98.70915
G0 F3600 X141.022 Y117.829
G1 F1500 X125.362 Y102.169 E99.48258
G0 F3600 X125.928 Y102.169
G1 F1500 X141.588 Y117.829 E100.25601
G0 F3600 X142.153 Y117.829
G1 F1500 X126.494 Y102.169 E101.02941
G0 F3600 X127.06 Y102.169
G1 F1500 X142.719 Y117.829 E101.80282
G0 F3600 X143.285 Y117.829
G1 F1500 X127.625 Y102.169 E102.57625
G0 F3600 X128.191 Y102.169
G1 F1500 X143.85 Y117.829 E103.34965
G0 F3600 X144.416 Y117.829
G1 F1500 X128.757 Y102.169 E104.12305
G0 F3600 X129.322 Y102.169
G1 F1500 X144.982 Y117.829 E104.89648
G0 F3600 X145.548 Y117.829
G1 F1500 X129.888 Y102.169 E105.66991
G0 F3600 X130.454 Y102.169
G1 F1500 X146.113 Y117.829 E106.44331
G0 F3600 X146.679 Y117.829
G1 F1500 X131.019 Y102.169 E107.21674
G0 F3600 X131.585 Y102.169
G1 F1500 X147.245 Y117.829 E107.99017
G0 F3600 X147.81 Y117.829
G1 F1500 X132.151 Y102.169 E108.76357
G0 F3600 X132.716 Y102.169
G1 F1500 X148.376 Y117.829 E109.537
G0 F3600 X148.942 Y117.829
G1 F1500 X133.282 Y102.169 E110.31043
G0 F3600 X133.848 Y102.169
G1 F1500 X149.507 Y117.829 E111.08383
G0 F3600 X150.073 Y117.829
G1 F1500 X134.413 Y102.169 E111.85726
G0 F3600 X134.979 Y102.169
G1 F1500 X150.639 Y117.829 E112.63069
G0 F3600 X151.204 Y117.829
G1 F1500 X135.545 Y102.169 E113.40409
G0 F3600 X136.11 Y102.169
G1 F1500 X151.77 Y117.829 E114.17752
G0 F3600 X152.336 Y117.829
G1 F1500 X136.676 Y102.169 E114.95095
G0 F3600 X137.242 Y102.169
G1 F1500 X152.901 Y117.829 E115.72435
G0 F3600 X153.467 Y117.829
G1 F1500 X137.808 Y102.169 E116.49776
G0 F3600 X138.373 Y102.169
G1 F1500 X154.033 Y117.829 E117.27119
G0 F3600 X154.598 Y117.829
G1 F1500 X138.939 Y102.169 E118.04459
G0 F3600 X139.505 Y102.169
G1 F1500 X155.164 Y117.829 E118.81799
G0 F3600 X155.73 Y117.829
G1 F1500 X140.07 Y102.169 E119.59142
G0 F3600 X140.636 Y102.169
G1 F1500 X156.296 Y117.829 E120.36485
G0 F3600 X156.861 Y117.829
G1 F1500 X141.202 Y102.169 E121.13825
G0 F3600 X141.767 Y102.169
G1 F1500 X157.427 Y117.829 E121.91168
G0 F3600 X157.993 Y117.829
G1 F1500 X142.333 Y102.169 E122.68511
G0 F3600 X142.899 Y102.169
G1 F1500 X158.558 Y117.829 E123.45851
G0 F3600 X159.124 Y117.829
G1 F1500 X143.464 Y102.169 E124.23194
G0 F3600 X144.03 Y102.169
G1 F1500 X159.69 Y117.829 E125.00537
G0 F3600 X159.829 Y117.403
G1 F1500 X144.596 Y102.169 E125.75774
G0 F3600 X145.161 Y102.169
G1 F1500 X159.829 Y116.837 E126.48217
G0 F3600 X159.829 Y116.271
G1 F1500 X145.727 Y102.169 E127.17865
G0 F3600 X146.293 Y102.169
G1 F1500 X159.829 Y115.706 E127.8472
G0 F3600 X159.829 Y115.14
G1 F1500 X146.859 Y102.169 E128.4878
G0 F3600 X147.424 Y102.169
G1 F1500 X159.829 Y114.574 E129.10047
G0 F3600 X159.829 Y114.008
G1 F1500 X147.99 Y102.169 E129.68518
G0 F3600 X148.556 Y102.169
G1 F1500 X159.829 Y113.443 E130.24196
G0 F3600 X159.829 Y112.877
G1 F1500 X149.121 Y102.169 E130.77082
G0 F3600 X149.687 Y102.169
G1 F1500 X159.829 Y112.311 E131.27172
G0 F3600 X159.829 Y111.746
G1 F1500 X150.253 Y102.169 E131.74469
G0 F3600 X150.818 Y102.169
G1 F1500 X159.829 Y111.18 E132.18973
G0 F3600 X159.829 Y110.614
G1 F1500 X151.384 Y102.169 E132.60682
G0 F3600 X151.95 Y102.169
G1 F1500 X159.829 Y110.049 E132.99598
G0 F3600 X159.829 Y109.483
G1 F1500 X152.515 Y102.169 E133.35721
G0 F3600 X153.081 Y102.169
G1 F1500 X159.829 Y108.917 E133.69049
G0 F3600 X159.829 Y108.352
G1 F1500 X153.647 Y102.169 E133.99583
G0 F3600 X154.212 Y102.169
G1 F1500 X159.829 Y107.786 E134.27325
G0 F3600 X159.829 Y107.22
G1 F1500 X154.778 Y102.169 E134.52271
G0 F3600 X155.344 Y102.169
G1 F1500 X159.829 Y106.655 E134.74425
G0 F3600 X159.829 Y106.089
G1 F1500 X155.909 Y102.169 E134.93785
G0 F3600 X156.475 Y102.169
G1 F1500 X159.829 Y105.523 E135.1035
G0 F3600 X159.829 Y104.957
G1 F1500 X157.041 Y102.169 E135.2412
G0 F3600 X157.607 Y102.169
G1 F1500 X159.829 Y104.392 E135.35096
G0 F3600 X159.829 Y103.826
G1 F1500 X158.172 Y102.169 E135.4328
G0 F3600 X158.738 Y102.169
G1 F1500 X159.829 Y103.26 E135.48668
G0 F3600 X159.829 Y102.695
G1 F1500 X159.304 Y102.169 E135.51264
;MESH:NONMESH
G0 F600 X159.304 Y102.169 Z0.6
G0 F3600 X92.2 Y118.3
G0 X92.2 Y118.4
;TIME_ELAPSED:164.736299
;LAYER:1
M140 S65
;TYPE:WALL-INNER
;MESH:Body42.stl
G1 F2250 X91.6 Y118.4 E135.54257
G1 X91.6 Y110.1 E135.95666
G1 X92.2 Y110.1 E135.98659
G1 X93.575 Y110.1 E136.05519
G1 X93.575 Y110.051 E136.05764
G1 X93.601 Y101.6 E136.47926
