;FLAVOR:Marlin
;TIME:912
;Filament used: 0m, 0.906372m
;Layer height: 0.3
;MINX:71.723
;MINY:91.313
;MINZ:0.2
;MAXX:170.966
;MAXY:128.699
;MAXZ:6.2
;Generated with Cura_SteamEngine 4.4.1
T1
M140 S65
M105
M190 S65
M104 S200
M105
M109 S200
M82 ;absolute extrusion mode
G28 ;Home
G1 Z15.0 F6000 ;Move the platform down 15mm
;Prime the extruder
G92 E0
G1 F200 E3
G92 E0
G92 E0
t1
G92 E0
G1 F1500 E-6.5
;LAYER_COUNT:21
;LAYER:0
M106 S255
G0 F3600 X73.116 Y101.471 Z0.2
;TYPE:SKIRT
G1 F1500 E0
G1 X73.562 Y101.173 E0.01249
G1 X74.047 Y100.945 E0.02497
G1 X74.561 Y100.791 E0.03746
G1 X75.231 Y100.709 E0.05317
G1 X75.552 Y100.7 E0.06065
G1 X75.653 Y100.699 E0.063
G1 X89.184 Y100.699 E0.37803
G1 X89.881 Y100.709 E0.39426
G1 X90.217 Y100.73 E0.4021
G1 X90.54 Y100.765 E0.40966
G1 X90.703 Y100.786 E0.41349
G1 X91.349 Y100.886 E0.42871
G1 X91.405 Y100.896 E0.43003
G1 X92.837 Y101.141 E0.46386
G1 X95.589 Y101.53 E0.52857
G1 X98.282 Y101.835 E0.59167
G1 X100.996 Y102.063 E0.65508
G1 X103.698 Y102.214 E0.71808
G1 X107.76 Y102.299 E0.81268
G1 X113.18 Y102.299 E0.93886
G1 X115.961 Y102.26 E1.00362
G1 X118.689 Y102.144 E1.06719
G1 X121.419 Y101.95 E1.13091
G1 X124.094 Y101.685 E1.19349
G1 X126.834 Y101.335 E1.25781
G1 X129.511 Y100.914 E1.3209
G1 X132.191 Y100.416 E1.38436
G1 X134.808 Y99.852 E1.44669
G1 X137.524 Y99.187 E1.51179
G1 X140.142 Y98.467 E1.57501
G1 X142.735 Y97.673 E1.63815
G1 X145.319 Y96.801 E1.70164
G1 X147.886 Y95.854 E1.76534
G1 X150.422 Y94.836 E1.82896
G1 X152.89 Y93.762 E1.89163
G1 X154.823 Y92.844 E1.94145
G1 X154.838 Y92.837 E1.94184
G1 X157.188 Y91.734 E2.00228
G1 X157.689 Y91.543 E2.01476
G1 X158.063 Y91.453 E2.02372
G1 X158.506 Y91.371 E2.0342
G1 X159.039 Y91.313 E2.04669
G1 X159.649 Y91.344 E2.06091
G1 X160.058 Y91.4 E2.07052
G1 X160.171 Y91.417 E2.07318
G1 X160.62 Y91.493 E2.08378
G1 X161.14 Y91.622 E2.09626
G1 X161.635 Y91.826 E2.10872
G1 X161.866 Y91.942 E2.11474
G1 X162.019 Y92.024 E2.11878
G1 X162.198 Y92.125 E2.12357
G1 X162.774 Y92.529 E2.13995
G1 X163.078 Y92.79 E2.14927
G1 X163.615 Y93.364 E2.16757
G1 X163.856 Y93.686 E2.17694
G1 X164.055 Y93.981 E2.18522
G1 X164.669 Y94.997 E2.21286
G1 X164.706 Y95.059 E2.21454
G1 X169.792 Y103.869 E2.45138
G1 X169.817 Y103.914 E2.45258
G1 X170.156 Y104.521 E2.46877
G1 X170.228 Y104.657 E2.47235
G1 X170.364 Y104.927 E2.47939
G1 X170.432 Y105.069 E2.48306
G1 X170.562 Y105.358 E2.49043
G1 X170.745 Y105.862 E2.50292
G1 X170.809 Y106.131 E2.50936
G1 X170.898 Y106.577 E2.51994
G1 X170.964 Y107.109 E2.53243
G1 X170.966 Y107.394 E2.53906
G1 X170.953 Y107.809 E2.54873
G1 X170.86 Y108.519 E2.5654
G1 X170.775 Y108.881 E2.57406
G1 X170.543 Y109.558 E2.59072
G1 X170.356 Y109.966 E2.60117
G1 X170.108 Y110.418 E2.61317
G1 X168.033 Y113.634 E2.70228
G1 X166.609 Y115.994 E2.76645
G1 X165.289 Y118.323 E2.82878
G1 X164.003 Y120.753 E2.89279
G1 X162.794 Y123.203 E2.9564
G1 X161.439 Y126.177 E3.03249
G1 X161.307 Y126.481 E3.0402
G1 X161.21 Y126.687 E3.0455
G1 X161.188 Y126.73 E3.04663
G1 X160.909 Y127.188 E3.05911
G1 X160.565 Y127.599 E3.07159
G1 X160.163 Y127.955 E3.08409
G1 X159.714 Y128.247 E3.09656
G1 X159.225 Y128.469 E3.10907
G1 X158.71 Y128.616 E3.12154
G1 X158.084 Y128.689 E3.13621
G1 X157.764 Y128.698 E3.14366
G1 X157.663 Y128.699 E3.14602
G1 X88.648 Y128.699 E4.75283
G1 X87.95 Y128.689 E4.76908
G1 X87.416 Y128.641 E4.78156
G1 X86.895 Y128.515 E4.79404
G1 X86.398 Y128.312 E4.80654
G1 X85.937 Y128.038 E4.81903
G1 X85.713 Y127.868 E4.82558
G1 X85.101 Y127.364 E4.84403
G1 X82.969 Y125.644 E4.90781
G1 X80.806 Y123.998 E4.97109
G1 X78.571 Y122.394 E5.03514
G1 X76.331 Y120.881 E5.09808
G1 X74.002 Y119.402 E5.16231
G1 X73.447 Y119.06 E5.17749
G1 X73.013 Y118.745 E5.18997
G1 X72.63 Y118.37 E5.20245
G1 X72.308 Y117.941 E5.21494
G1 X72.052 Y117.47 E5.22742
G1 X71.869 Y116.966 E5.23991
G1 X71.764 Y116.44 E5.25239
G1 X71.739 Y116.138 E5.25945
G1 X71.726 Y115.812 E5.26705
G1 X71.723 Y115.669 E5.27038
G1 X71.723 Y104.95 E5.51994
G1 X71.732 Y104.261 E5.53598
G1 X71.779 Y103.727 E5.54846
G1 X71.905 Y103.205 E5.56096
G1 X72.107 Y102.709 E5.57343
G1 X72.38 Y102.247 E5.58593
G1 X72.719 Y101.832 E5.5984
G1 X73.116 Y101.471 E5.61089
G0 F3600 X73.502 Y101.683
G1 F1500 X73.938 Y101.427 E5.62267
G1 X74.409 Y101.244 E5.63443
G1 X74.903 Y101.137 E5.6462
G1 X75.242 Y101.109 E5.65412
G1 X75.563 Y101.1 E5.66159
G1 X75.653 Y101.099 E5.66369
G1 X89.178 Y101.099 E5.97858
G1 X89.875 Y101.109 E5.99481
G1 X90.174 Y101.128 E6.00178
G1 X90.497 Y101.163 E6.00935
G1 X90.642 Y101.182 E6.01275
G1 X91.288 Y101.282 E6.02797
G1 X91.338 Y101.29 E6.02915
G1 X92.819 Y101.543 E6.06413
G1 X95.489 Y101.921 E6.12691
G1 X98.24 Y102.232 E6.19137
G1 X100.974 Y102.462 E6.25525
G1 X103.697 Y102.614 E6.31875
G1 X107.752 Y102.699 E6.41318
G1 X113.186 Y102.699 E6.53969
G1 X115.983 Y102.659 E6.60482
G1 X118.7 Y102.544 E6.66813
G1 X121.447 Y102.349 E6.73225
G1 X124.151 Y102.081 E6.79551
G1 X126.875 Y101.733 E6.85945
G1 X129.575 Y101.308 E6.92308
G1 X132.284 Y100.805 E6.98723
G1 X134.908 Y100.24 E7.04972
G1 X137.62 Y99.576 E7.11473
G1 X140.227 Y98.858 E7.17769
G1 X142.874 Y98.048 E7.24214
G1 X145.469 Y97.173 E7.30589
G1 X148.006 Y96.237 E7.36885
G1 X150.582 Y95.203 E7.43348
G1 X153.079 Y94.117 E7.49687
G1 X154.995 Y93.206 E7.54627
G1 X155.008 Y93.199 E7.54661
G1 X157.358 Y92.096 E7.60705
G1 X157.832 Y91.918 E7.61884
G1 X158.136 Y91.846 E7.62611
G1 X158.579 Y91.764 E7.6366
G1 X159.081 Y91.712 E7.64835
G1 X159.595 Y91.741 E7.66034
G1 X160.004 Y91.797 E7.66995
G1 X160.104 Y91.812 E7.6723
G1 X160.553 Y91.888 E7.68291
G1 X161.043 Y92.011 E7.69467
G1 X161.455 Y92.183 E7.70506
G1 X161.686 Y92.299 E7.71108
G1 X161.823 Y92.372 E7.7147
G1 X162.002 Y92.473 E7.71948
G1 X162.514 Y92.832 E7.73404
G1 X162.818 Y93.093 E7.74337
G1 X163.295 Y93.604 E7.75964
G1 X163.536 Y93.926 E7.76901
G1 X163.713 Y94.188 E7.77637
G1 X164.327 Y95.204 E7.80401
G1 X164.359 Y95.259 E7.80549
G1 X169.445 Y104.069 E8.04233
G1 X169.468 Y104.109 E8.0434
G1 X169.807 Y104.716 E8.05959
G1 X169.871 Y104.836 E8.06276
G1 X170.007 Y105.106 E8.0698
G1 X170.067 Y105.233 E8.07307
G1 X170.197 Y105.522 E8.08044
G1 X170.417 Y106.209 E8.09724
G1 X170.506 Y106.655 E8.10783
G1 X170.566 Y107.381 E8.12479
G1 X170.553 Y107.796 E8.13446
G1 X170.47 Y108.427 E8.14927
G1 X170.385 Y108.789 E8.15793
G1 X170.179 Y109.391 E8.17274
G1 X169.992 Y109.799 E8.18319
G1 X169.772 Y110.201 E8.19386
G1 X167.682 Y113.44 E8.28361
G1 X166.276 Y115.769 E8.34695
G1 X164.93 Y118.145 E8.41053
G1 X163.65 Y120.565 E8.47427
G1 X162.435 Y123.025 E8.53814
G1 X161.072 Y126.018 E8.61471
G1 X160.94 Y126.322 E8.62243
G1 X160.854 Y126.505 E8.62714
G1 X160.832 Y126.548 E8.62826
G1 X160.567 Y126.978 E8.64002
G1 X160.237 Y127.361 E8.65179
G1 X159.851 Y127.688 E8.66357
G1 X159.419 Y127.95 E8.67533
G1 X158.95 Y128.14 E8.68711
G1 X158.458 Y128.255 E8.69888
G1 X158.073 Y128.289 E8.70788
G1 X157.753 Y128.298 E8.71533
G1 X157.663 Y128.299 E8.71742
G1 X88.654 Y128.299 E10.3241
G1 X87.956 Y128.289 E10.34035
G1 X87.453 Y128.242 E10.35211
G1 X86.963 Y128.116 E10.36389
G1 X86.499 Y127.914 E10.37567
G1 X85.968 Y127.559 E10.39055
G1 X85.381 Y127.076 E10.40824
G1 X83.2 Y125.317 E10.47348
G1 X81.053 Y123.683 E10.5363
G1 X78.806 Y122.07 E10.60069
G1 X76.523 Y120.528 E10.66484
G1 X74.212 Y119.061 E10.72857
G1 X73.657 Y118.719 E10.74374
G1 X73.249 Y118.421 E10.75551
G1 X72.893 Y118.062 E10.76728
G1 X72.598 Y117.651 E10.77906
G1 X72.371 Y117.2 E10.79081
G1 X72.219 Y116.718 E10.80258
G1 X72.139 Y116.123 E10.81656
G1 X72.126 Y115.797 E10.82415
G1 X72.123 Y115.669 E10.82713
G1 X72.123 Y104.955 E11.07658
G1 X72.132 Y104.266 E11.09262
G1 X72.179 Y103.763 E11.10438
G1 X72.304 Y103.273 E11.11616
G1 X72.505 Y102.809 E11.12793
G1 X72.776 Y102.382 E11.1397
G1 X73.111 Y102.004 E11.15146
G1 X73.502 Y101.683 E11.16324
G1 F1500 E4.66324
;MESH:Body42.stl
G0 F3600 X75.937 Y103.634
G0 X75.937 Y104.913
G0 X88.663 Y115.329
G0 X88.593 Y115.399
;TYPE:WALL-INNER
G1 F1500 E11.16324
G1 X75.923 Y115.399 E11.45822
G1 X75.923 Y104.899 E11.70269
G1 X89.807 Y104.899 E12.02594
G1 X90.032 Y104.925 E12.03121
G1 X90.221 Y104.989 E12.03585
G1 X90.381 Y105.087 E12.04022
G1 X90.528 Y105.226 E12.04493
G1 X90.887 Y105.758 E12.05988
G1 X91.222 Y106.076 E12.07063
G1 X91.615 Y106.311 E12.08129
G1 X92.046 Y106.455 E12.09187
G1 X92.461 Y106.499 E12.10159
G1 X154.593 Y106.499 E13.54815
G1 X154.593 Y98.939 E13.72416
G1 X154.628 Y98.507 E13.73425
G1 X154.717 Y98.235 E13.74092
G1 X154.867 Y97.977 E13.74786
G1 X155.058 Y97.766 E13.75449
G1 X155.329 Y97.57 E13.76228
G1 X158.522 Y95.727 E13.84811
G1 X158.887 Y95.561 E13.85745
G1 X159.198 Y95.504 E13.86481
G1 X159.516 Y95.517 E13.87222
G1 X159.814 Y95.597 E13.8794
G1 X160.085 Y95.743 E13.88657
G1 X160.326 Y95.951 E13.89398
G1 X160.562 Y96.282 E13.90345
G1 X166.497 Y106.562 E14.17981
G1 X166.727 Y107.048 E14.19233
G1 X166.782 Y107.36 E14.1997
G1 X166.764 Y107.679 E14.20714
G1 X166.674 Y107.987 E14.21461
G1 X166.514 Y108.268 E14.22214
G1 X166.287 Y108.518 E14.23
G1 X165.695 Y109.029 E14.24821
G1 X157.393 Y116.226 E14.50402
G1 X157.393 Y124.499 E14.69663
G1 X88.593 Y124.499 E16.29844
G1 X88.593 Y115.399 E16.51031
G0 F3600 X88.193 Y115.799
;TYPE:WALL-OUTER
G1 F1500 X75.523 Y115.799 E16.80529
G1 X75.523 Y104.499 E17.06838
G1 X89.826 Y104.499 E17.40138
G1 X90.124 Y104.533 E17.40836
G1 X90.388 Y104.623 E17.41486
G1 X90.629 Y104.77 E17.42143
G1 X90.833 Y104.964 E17.42798
G1 X91.194 Y105.498 E17.44299
G1 X91.465 Y105.755 E17.45169
G1 X91.783 Y105.945 E17.46031
G1 X92.132 Y106.062 E17.46888
G1 X92.482 Y106.099 E17.47708
G1 X154.193 Y106.099 E18.91384
G1 X154.193 Y98.918 E19.08103
G1 X154.233 Y98.43 E19.09243
G1 X154.351 Y98.069 E19.10127
G1 X154.542 Y97.74 E19.11013
G1 X154.791 Y97.466 E19.11875
G1 X155.106 Y97.237 E19.12781
G1 X158.339 Y95.371 E19.21472
G1 X158.767 Y95.177 E19.22566
G1 X159.172 Y95.102 E19.23525
G1 X159.575 Y95.119 E19.24464
G1 X159.961 Y95.223 E19.25395
G1 X160.317 Y95.414 E19.26336
G1 X160.62 Y95.676 E19.27268
G1 X160.9 Y96.068 E19.2839
G1 X166.856 Y106.384 E19.56123
G1 X167.111 Y106.925 E19.57516
G1 X167.184 Y107.334 E19.58483
G1 X167.16 Y107.749 E19.59451
G1 X167.045 Y108.143 E19.60406
G1 X166.84 Y108.505 E19.61375
G1 X166.562 Y108.809 E19.62334
G1 X165.957 Y109.332 E19.64196
G1 X157.793 Y116.409 E19.89351
G1 X157.793 Y124.899 E20.09117
G1 X88.193 Y124.899 E21.71161
G1 X88.193 Y115.799 E21.92347
G0 F3600 X87.993 Y115.799
G0 X87.993 Y115.359
G0 X87.993 Y115.299
G0 X88.983 Y115.009
;TYPE:SKIN
G1 F1500 X76.313 Y115.009 E22.21846
G1 X76.313 Y105.289 E22.44476
G1 X89.78 Y105.289 E22.7583
G1 X89.951 Y105.309 E22.76231
G1 X90.053 Y105.343 E22.76481
G1 X90.143 Y105.399 E22.76728
G1 X90.229 Y105.479 E22.77001
G1 X90.587 Y106.012 E22.78496
G1 X90.984 Y106.388 E22.79769
G1 X91.451 Y106.668 E22.81037
G1 X91.962 Y106.839 E22.82292
G1 X92.44 Y106.889 E22.83411
G1 X154.983 Y106.889 E24.29024
G1 X154.983 Y98.939 E24.47533
G1 X155.012 Y98.589 E24.48351
G1 X155.076 Y98.393 E24.48831
G1 X155.184 Y98.206 E24.49334
G1 X155.318 Y98.058 E24.49798
G1 X155.537 Y97.901 E24.50426
G1 X158.701 Y96.074 E24.58932
G1 X159.004 Y95.937 E24.59706
G1 X159.226 Y95.896 E24.60232
G1 X159.461 Y95.905 E24.60779
G1 X159.667 Y95.961 E24.61276
G1 X159.862 Y96.066 E24.61792
G1 X160.036 Y96.215 E24.62325
G1 X160.233 Y96.492 E24.63117
G1 X166.151 Y106.743 E24.90675
G1 X166.353 Y107.169 E24.91773
G1 X166.39 Y107.38 E24.92271
G1 X166.376 Y107.617 E24.92824
G1 X166.314 Y107.832 E24.93345
G1 X166.197 Y108.038 E24.93897
G1 X166.014 Y108.239 E24.94529
G1 X165.44 Y108.734 E24.96294
G1 X157.003 Y116.047 E25.22289
G1 X157.003 Y124.109 E25.41059
G1 X88.983 Y124.109 E26.99424
G1 X88.983 Y115.009 E27.20611
G0 F3600 X76.927 Y114.828
G1 F1500 X76.492 Y114.393 E27.22043
G0 F3600 X76.492 Y113.827
G1 F1500 X77.493 Y114.828 E27.25339
G0 F3600 X78.058 Y114.828
G1 F1500 X76.492 Y113.262 E27.30495
G0 F3600 X76.492 Y112.696
G1 F1500 X78.624 Y114.828 E27.37515
G0 F3600 X79.19 Y114.828
G1 F1500 X76.492 Y112.13 E27.46398
G0 F3600 X76.492 Y111.565
G1 F1500 X79.755 Y114.828 E27.57142
G0 F3600 X80.321 Y114.828
G1 F1500 X76.492 Y110.999 E27.69749
G0 F3600 X76.492 Y110.433
G1 F1500 X80.887 Y114.828 E27.8422
G0 F3600 X81.453 Y114.828
G1 F1500 X76.492 Y109.868 E28.00553
G0 F3600 X76.492 Y109.302
G1 F1500 X82.018 Y114.828 E28.18748
G0 F3600 X82.584 Y114.828
G1 F1500 X76.492 Y108.736 E28.38806
G0 F3600 X76.492 Y108.171
G1 F1500 X83.15 Y114.828 E28.60727
G0 F3600 X83.715 Y114.828
G1 F1500 X76.492 Y107.605 E28.84509
G0 F3600 X76.492 Y107.039
G1 F1500 X84.281 Y114.828 E29.10155
G0 F3600 X84.847 Y114.828
G1 F1500 X76.492 Y106.474 E29.37663
G0 F3600 X76.492 Y105.908
G1 F1500 X85.412 Y114.828 E29.67033
G0 F3600 X85.978 Y114.828
G1 F1500 X76.618 Y105.468 E29.97851
G0 F3600 X77.184 Y105.468
G1 F1500 X86.544 Y114.828 E30.2867
G0 F3600 X87.109 Y114.828
G1 F1500 X77.749 Y105.468 E30.59489
G0 F3600 X78.315 Y105.468
G1 F1500 X87.675 Y114.828 E30.90307
G0 F3600 X88.241 Y114.828
G1 F1500 X78.881 Y105.468 E31.21126
G0 F3600 X79.446 Y105.468
G1 F1500 X88.806 Y114.828 E31.51944
G0 F3600 X89.162 Y115.184
G1 F1500 X97.906 Y123.928 E31.80735
G0 F3600 X97.341 Y123.928
G1 F1500 X89.162 Y115.749 E32.07665
G0 F3600 X89.162 Y116.315
G1 F1500 X96.775 Y123.928 E32.32731
G0 F3600 X96.209 Y123.928
G1 F1500 X89.162 Y116.881 E32.55934
G0 F3600 X89.162 Y117.446
G1 F1500 X95.643 Y123.928 E32.77275
G0 F3600 X95.078 Y123.928
G1 F1500 X89.162 Y118.012 E32.96754
G0 F3600 X89.162 Y118.578
G1 F1500 X94.512 Y123.928 E33.14369
G0 F3600 X93.946 Y123.928
G1 F1500 X89.162 Y119.143 E33.30123
G0 F3600 X89.162 Y119.709
G1 F1500 X93.381 Y123.928 E33.44014
G0 F3600 X92.815 Y123.928
G1 F1500 X89.162 Y120.275 E33.56042
G0 F3600 X89.162 Y120.841
G1 F1500 X92.249 Y123.928 E33.66206
G0 F3600 X91.684 Y123.928
G1 F1500 X89.162 Y121.406 E33.7451
G0 F3600 X89.162 Y121.972
G1 F1500 X91.118 Y123.928 E33.8095
G0 F3600 X90.552 Y123.928
G1 F1500 X89.162 Y122.538 E33.85527
G0 F3600 X89.162 Y123.103
G1 F1500 X89.987 Y123.928 E33.88243
G0 F3600 X89.421 Y123.928
G1 F1500 X89.162 Y123.669 E33.89096
G0 F3600 X98.472 Y123.928
G1 F1500 X80.012 Y105.468 E34.49877
G0 F3600 X80.578 Y105.468
G1 F1500 X99.038 Y123.928 E35.10658
G0 F3600 X99.603 Y123.928
G1 F1500 X81.144 Y105.468 E35.71438
G0 F3600 X81.709 Y105.468
G1 F1500 X100.169 Y123.928 E36.32219
G0 F3600 X100.735 Y123.928
G1 F1500 X82.275 Y105.468 E36.93
G0 F3600 X82.841 Y105.468
G1 F1500 X101.3 Y123.928 E37.5378
G0 F3600 X101.866 Y123.928
G1 F1500 X83.406 Y105.468 E38.14561
G0 F3600 X83.972 Y105.468
G1 F1500 X102.432 Y123.928 E38.75342
G0 F3600 X102.997 Y123.928
G1 F1500 X84.538 Y105.468 E39.36121
G0 F3600 X85.103 Y105.468
G1 F1500 X103.563 Y123.928 E39.96902
G0 F3600 X104.129 Y123.928
G1 F1500 X85.669 Y105.468 E40.57684
G0 F3600 X86.235 Y105.468
G1 F1500 X104.694 Y123.928 E41.18463
G0 F3600 X105.26 Y123.928
G1 F1500 X86.8 Y105.468 E41.79244
G0 F3600 X87.366 Y105.468
G1 F1500 X105.826 Y123.928 E42.40025
G0 F3600 X106.391 Y123.928
G1 F1500 X87.932 Y105.468 E43.00805
G0 F3600 X88.497 Y105.468
G1 F1500 X106.957 Y123.928 E43.61586
G0 F3600 X107.523 Y123.928
G1 F1500 X89.063 Y105.468 E44.22367
G0 F3600 X89.629 Y105.468
G1 F1500 X108.089 Y123.928 E44.83148
G0 F3600 X108.654 Y123.928
G1 F1500 X91.652 Y106.925 E45.3913
G0 F3600 X92.352 Y107.06
G1 F1500 X109.22 Y123.928 E45.9467
G0 F3600 X109.786 Y123.928
G1 F1500 X92.926 Y107.068 E46.50183
G0 F3600 X93.492 Y107.068
G1 F1500 X110.351 Y123.928 E47.05694
G0 F3600 X110.917 Y123.928
G1 F1500 X94.057 Y107.068 E47.61207
G0 F3600 X94.623 Y107.068
G1 F1500 X111.483 Y123.928 E48.1672
G0 F3600 X112.048 Y123.928
G1 F1500 X95.189 Y107.068 E48.72231
G0 F3600 X95.754 Y107.068
G1 F1500 X112.614 Y123.928 E49.27744
G0 F3600 X113.18 Y123.928
G1 F1500 X96.32 Y107.068 E49.83257
G0 F3600 X96.886 Y107.068
G1 F1500 X113.745 Y123.928 E50.38769
G0 F3600 X114.311 Y123.928
G1 F1500 X97.452 Y107.068 E50.9428
G0 F3600 X98.017 Y107.068
G1 F1500 X114.877 Y123.928 E51.49793
G0 F3600 X115.442 Y123.928
G1 F1500 X98.583 Y107.068 E52.05304
G0 F3600 X99.149 Y107.068
G1 F1500 X116.008 Y123.928 E52.60816
G0 F3600 X116.574 Y123.928
G1 F1500 X99.714 Y107.068 E53.16329
G0 F3600 X100.28 Y107.068
