;FLAVOR:Marlin
;TIME:673
;Filament used: 0m, 0.659736m
;Layer height: 0.3
;MINX:69.418
;MINY:88.108
;MINZ:0.2
;MAXX:170.679
;MAXY:131.966
;MAXZ:3.5
;Generated with Cura_SteamEngine 4.4.1
T1
M140 S65
M105
M190 S65
M104 S200
M105
M109 S200
M82 ;absolute extrusion mode
G28 ;Home
G1 Z15.0 F6000 ;Move the platform down 15mm
;Prime the extruder
G92 E0
G1 F200 E3
G92 E0
G92 E0
t1
G92 E0
G1 F1500 E-6.5
;LAYER_COUNT:12
;LAYER:0
M106 S255
G0 F3600 X77.735 Y89.351 Z0.2
;TYPE:SKIRT
G1 F1500 E0
G1 X78.115 Y89.036 E0.01149
G1 X78.301 Y88.902 E0.01683
G1 X78.758 Y88.622 E0.02931
G1 X79.105 Y88.466 E0.03816
G1 X79.322 Y88.382 E0.04358
G1 X79.836 Y88.226 E0.05609
G1 X80.189 Y88.165 E0.06443
G1 X80.453 Y88.133 E0.07062
G1 X80.989 Y88.108 E0.08311
G1 X81.399 Y88.144 E0.0927
G1 X81.67 Y88.183 E0.09907
G1 X82.193 Y88.298 E0.11154
G1 X82.752 Y88.519 E0.12553
G1 X83.179 Y88.73 E0.13662
G1 X83.281 Y88.782 E0.13929
G1 X83.642 Y88.975 E0.14882
G1 X83.714 Y89.015 E0.15073
G1 X83.916 Y89.129 E0.15614
G1 X83.947 Y89.146 E0.15696
G1 X85.677 Y90.145 E0.20347
G1 X88.045 Y91.468 E0.26662
G1 X90.472 Y92.736 E0.33038
G1 X92.932 Y93.933 E0.39407
G1 X95.409 Y95.054 E0.45737
G1 X97.939 Y96.113 E0.52123
G1 X100.494 Y97.1 E0.585
G1 X103.028 Y97.994 E0.64756
G1 X105.651 Y98.838 E0.71171
G1 X108.231 Y99.59 E0.77428
G1 X110.895 Y100.285 E0.83838
G1 X113.568 Y100.902 E0.90225
G1 X116.248 Y101.442 E0.9659
G1 X118.879 Y101.892 E1.02804
G1 X121.615 Y102.284 E1.09239
G1 X124.314 Y102.591 E1.15563
G1 X127.04 Y102.824 E1.21933
G1 X129.735 Y102.979 E1.28218
G1 X132.497 Y103.058 E1.34651
G1 X135.192 Y103.06 E1.40926
G1 X137.961 Y102.983 E1.47375
G1 X140.646 Y102.832 E1.53636
G1 X143.352 Y102.603 E1.59959
G1 X144.771 Y102.444 E1.63283
G1 X144.833 Y102.438 E1.63428
G1 X145.309 Y102.393 E1.64542
G1 X145.583 Y102.378 E1.6518
G1 X146.193 Y102.367 E1.66601
G1 X146.258 Y102.366 E1.66752
G1 X166.424 Y102.366 E2.13703
G1 X167.122 Y102.376 E2.15328
G1 X167.656 Y102.424 E2.16576
G1 X168.177 Y102.55 E2.17824
G1 X168.674 Y102.753 E2.19074
G1 X169.135 Y103.027 E2.20323
G1 X169.55 Y103.366 E2.2157
G1 X169.91 Y103.764 E2.2282
G1 X170.207 Y104.21 E2.24067
G1 X170.435 Y104.696 E2.25317
G1 X170.587 Y105.21 E2.26565
G1 X170.669 Y105.875 E2.28125
G1 X170.678 Y106.195 E2.28871
G1 X170.679 Y106.296 E2.29106
G1 X170.679 Y116.98 E2.5398
G1 X170.669 Y117.707 E2.55673
G1 X170.621 Y118.241 E2.56921
G1 X170.495 Y118.762 E2.58169
G1 X170.293 Y119.259 E2.59418
G1 X170.019 Y119.72 E2.60667
G1 X169.68 Y120.135 E2.61914
G1 X169.283 Y120.496 E2.63164
G1 X168.767 Y120.831 E2.64596
G1 X168.538 Y120.954 E2.65201
G1 X166.078 Y122.284 E2.71712
G1 X163.743 Y123.635 E2.77993
G1 X161.404 Y125.075 E2.84388
G1 X159.138 Y126.562 E2.90698
G1 X156.92 Y128.109 E2.96994
G1 X154.699 Y129.753 E3.03428
G1 X153.663 Y130.563 E3.06489
G1 X153.613 Y130.601 E3.06635
G1 X152.974 Y131.083 E3.08499
G1 X152.523 Y131.373 E3.09747
G1 X152.162 Y131.544 E3.10677
G1 X151.884 Y131.657 E3.11376
G1 X151.373 Y131.821 E3.12626
G1 X151.054 Y131.883 E3.13382
G1 X150.844 Y131.914 E3.13876
G1 X150.494 Y131.949 E3.14695
G1 X150.269 Y131.96 E3.1522
G1 X150.123 Y131.964 E3.1556
G1 X149.885 Y131.966 E3.16114
G1 X148.399 Y131.966 E3.19574
G1 X147.544 Y131.954 E3.21564
G1 X147.355 Y131.946 E3.22005
G1 X147.011 Y131.923 E3.22808
G1 X146.669 Y131.884 E3.23609
G1 X143.981 Y131.443 E3.29951
G1 X141.285 Y131.076 E3.36286
G1 X138.599 Y130.787 E3.42575
G1 X135.838 Y130.567 E3.49024
G1 X133.147 Y130.431 E3.55297
G1 X129.602 Y130.366 E3.63552
G1 X116.829 Y130.366 E3.9329
G1 X114.049 Y130.405 E3.99763
G1 X111.32 Y130.521 E4.06123
G1 X108.591 Y130.715 E4.12492
G1 X105.914 Y130.98 E4.18755
G1 X103.191 Y131.328 E4.25147
G1 X99.645 Y131.9 E4.33509
G1 X99.358 Y131.935 E4.34182
G1 X99.157 Y131.951 E4.34652
G1 X98.908 Y131.962 E4.35232
G1 X98.52 Y131.966 E4.36136
G1 X82.956 Y131.966 E4.72372
G1 X82.342 Y131.957 E4.73801
G1 X81.917 Y131.925 E4.74794
G1 X81.559 Y131.877 E4.75635
G1 X81.034 Y131.766 E4.76884
G1 X80.624 Y131.62 E4.77897
G1 X80.385 Y131.518 E4.78502
G1 X79.909 Y131.271 E4.79751
G1 X79.59 Y131.05 E4.80654
G1 X79.384 Y130.89 E4.81262
G1 X78.986 Y130.531 E4.8251
G1 X78.726 Y130.225 E4.83444
G1 X78.59 Y130.046 E4.83968
G1 X78.298 Y129.596 E4.85217
G1 X78.115 Y129.209 E4.86213
G1 X77.995 Y128.91 E4.86964
G1 X77.838 Y128.421 E4.88159
G1 X77.657 Y127.678 E4.8994
G1 X76.976 Y125.042 E4.96278
G1 X76.216 Y122.411 E5.02654
G1 X75.39 Y119.826 E5.08973
G1 X74.481 Y117.235 E5.15365
G1 X73.517 Y114.72 E5.21636
G1 X72.464 Y112.191 E5.28014
G1 X71.344 Y109.697 E5.3438
G1 X70.538 Y108.048 E5.38653
G1 X70.522 Y108.015 E5.38738
G1 X69.919 Y106.748 E5.42005
G1 X69.813 Y106.502 E5.42629
G1 X69.656 Y106.097 E5.4364
G1 X69.5 Y105.584 E5.44888
G1 X69.422 Y105.054 E5.46136
G1 X69.418 Y104.611 E5.47167
G1 X69.439 Y104.203 E5.48118
G1 X69.506 Y103.671 E5.49367
G1 X69.684 Y103.071 E5.50824
G1 X69.8 Y102.776 E5.51562
G1 X69.977 Y102.393 E5.52544
G1 X70.097 Y102.169 E5.53136
G1 X70.152 Y102.069 E5.53401
G1 X76.536 Y91.009 E5.83133
G1 X76.559 Y90.97 E5.83239
G1 X76.874 Y90.44 E5.84674
G1 X77.125 Y90.071 E5.85713
G1 X77.375 Y89.749 E5.86662
G1 X77.735 Y89.351 E5.87912
G0 F3600 X78.032 Y89.621
G1 F1500 X78.348 Y89.361 E5.88864
G1 X78.534 Y89.227 E5.89398
G1 X78.967 Y88.964 E5.90578
G1 X79.25 Y88.839 E5.91298
G1 X79.467 Y88.755 E5.9184
G1 X79.951 Y88.61 E5.93016
G1 X80.237 Y88.562 E5.93691
G1 X80.501 Y88.53 E5.9431
G1 X81.006 Y88.509 E5.95487
G1 X81.342 Y88.54 E5.96273
G1 X81.613 Y88.579 E5.9691
G1 X82.106 Y88.69 E5.98087
G1 X82.575 Y88.877 E5.99262
G1 X83.002 Y89.088 E6.00371
G1 X83.093 Y89.135 E6.0061
G1 X83.454 Y89.328 E6.01563
G1 X83.518 Y89.363 E6.01732
G1 X83.72 Y89.477 E6.02272
G1 X83.747 Y89.493 E6.02346
G1 X85.437 Y90.469 E6.06889
G1 X87.871 Y91.829 E6.13381
G1 X90.291 Y93.093 E6.19737
G1 X92.742 Y94.286 E6.26084
G1 X95.256 Y95.423 E6.32508
G1 X97.789 Y96.484 E6.38901
G1 X100.353 Y97.474 E6.45301
G1 X102.91 Y98.376 E6.51613
G1 X105.531 Y99.22 E6.58024
G1 X108.156 Y99.985 E6.6439
G1 X110.776 Y100.668 E6.70694
G1 X113.47 Y101.291 E6.77131
G1 X116.168 Y101.833 E6.83538
G1 X118.828 Y102.289 E6.89822
G1 X121.584 Y102.683 E6.96304
G1 X124.271 Y102.989 E7.026
G1 X126.984 Y103.221 E7.08939
G1 X129.734 Y103.379 E7.15353
G1 X132.485 Y103.458 E7.2176
G1 X135.204 Y103.46 E7.2809
G1 X137.957 Y103.383 E7.34503
G1 X140.668 Y103.231 E7.40824
G1 X143.432 Y102.997 E7.47282
G1 X144.816 Y102.842 E7.50525
G1 X144.871 Y102.836 E7.50654
G1 X145.347 Y102.791 E7.51767
G1 X145.59 Y102.778 E7.52333
G1 X146.2 Y102.767 E7.53754
G1 X146.258 Y102.766 E7.53889
G1 X166.418 Y102.766 E8.00826
G1 X167.116 Y102.776 E8.02451
G1 X167.619 Y102.823 E8.03627
G1 X168.109 Y102.949 E8.04805
G1 X168.573 Y103.151 E8.05983
G1 X168.999 Y103.423 E8.0716
G1 X169.377 Y103.758 E8.08336
G1 X169.697 Y104.149 E8.09512
G1 X169.952 Y104.586 E8.1069
G1 X170.135 Y105.057 E8.11867
G1 X170.242 Y105.551 E8.13043
G1 X170.269 Y105.886 E8.13826
G1 X170.278 Y106.206 E8.14571
G1 X170.279 Y106.296 E8.14781
G1 X170.279 Y116.974 E8.39641
G1 X170.269 Y117.701 E8.41334
G1 X170.222 Y118.204 E8.4251
G1 X170.096 Y118.694 E8.43688
G1 X169.895 Y119.158 E8.44866
G1 X169.623 Y119.584 E8.46042
G1 X169.288 Y119.963 E8.4722
G1 X168.897 Y120.283 E8.48396
G1 X168.578 Y120.479 E8.49268
G1 X168.335 Y120.609 E8.4991
G1 X165.894 Y121.929 E8.56371
G1 X163.528 Y123.297 E8.62734
G1 X161.206 Y124.727 E8.69083
G1 X158.895 Y126.243 E8.75517
G1 X156.676 Y127.792 E8.81818
G1 X154.46 Y129.431 E8.88235
G1 X153.416 Y130.248 E8.91322
G1 X153.372 Y130.282 E8.91451
G1 X152.733 Y130.764 E8.93315
G1 X152.307 Y131.035 E8.9449
G1 X152.011 Y131.173 E8.9525
G1 X151.733 Y131.286 E8.95949
G1 X151.251 Y131.439 E8.97127
G1 X150.995 Y131.488 E8.97733
G1 X150.785 Y131.519 E8.98228
G1 X150.474 Y131.549 E8.98955
G1 X150.249 Y131.56 E8.99479
G1 X150.12 Y131.564 E8.9978
G1 X149.882 Y131.566 E9.00334
G1 X148.405 Y131.566 E9.03773
G1 X147.55 Y131.554 E9.05764
G1 X147.382 Y131.547 E9.06155
G1 X147.038 Y131.524 E9.06958
G1 X146.733 Y131.489 E9.07673
G1 X144.058 Y131.051 E9.13984
G1 X141.345 Y130.681 E9.20358
G1 X138.602 Y130.385 E9.26782
G1 X135.891 Y130.17 E9.33113
G1 X133.143 Y130.031 E9.39519
G1 X129.609 Y129.966 E9.47749
G1 X116.823 Y129.966 E9.77517
G1 X114.026 Y130.006 E9.8403
G1 X111.309 Y130.121 E9.90361
G1 X108.563 Y130.316 E9.96771
G1 X105.857 Y130.584 E10.03102
G1 X103.137 Y130.932 E10.09486
G1 X99.581 Y131.505 E10.17872
G1 X99.326 Y131.536 E10.1847
G1 X99.125 Y131.552 E10.18939
G1 X98.904 Y131.562 E10.19454
G1 X98.516 Y131.566 E10.20358
G1 X82.962 Y131.566 E10.56571
G1 X82.348 Y131.557 E10.58
G1 X81.97 Y131.529 E10.58883
G1 X81.612 Y131.481 E10.59724
G1 X81.118 Y131.374 E10.60901
G1 X80.781 Y131.252 E10.61735
G1 X80.542 Y131.15 E10.6234
G1 X80.094 Y130.916 E10.63517
G1 X79.835 Y130.734 E10.64254
G1 X79.629 Y130.574 E10.64861
G1 X79.256 Y130.234 E10.66036
G1 X79.044 Y129.983 E10.66801
G1 X78.908 Y129.804 E10.67325
G1 X78.635 Y129.378 E10.68503
G1 X78.486 Y129.06 E10.6932
G1 X78.366 Y128.761 E10.7007
G1 X78.227 Y128.326 E10.71134
G1 X78.046 Y127.583 E10.72914
G1 X77.365 Y124.948 E10.7925
G1 X76.595 Y122.283 E10.85709
G1 X75.766 Y119.688 E10.92051
G1 X74.863 Y117.115 E10.984
G1 X73.876 Y114.54 E11.04821
G1 X72.847 Y112.066 E11.11059
G1 X71.704 Y109.524 E11.17548
G1 X70.898 Y107.873 E11.21825
G1 X70.884 Y107.843 E11.21902
G1 X70.281 Y106.576 E11.25169
G1 X70.186 Y106.358 E11.25723
G1 X70.029 Y105.953 E11.26734
G1 X69.884 Y105.468 E11.27913
G1 X69.818 Y104.967 E11.29089
G1 X69.817 Y104.632 E11.29869
G1 X69.838 Y104.224 E11.30821
G1 X69.904 Y103.722 E11.31999
G1 X70.056 Y103.217 E11.33227
G1 X70.172 Y102.922 E11.33965
G1 X70.329 Y102.582 E11.34837
G1 X70.449 Y102.358 E11.35429
G1 X70.499 Y102.269 E11.35666
G1 X76.883 Y91.209 E11.65398
G1 X76.903 Y91.174 E11.65492
G1 X77.218 Y90.644 E11.66927
G1 X77.441 Y90.317 E11.67849
G1 X77.691 Y89.995 E11.68798
G1 X78.032 Y89.621 E11.69976
G1 F1500 E5.19976
;MESH:cover.stl
G0 F3600 X79.51 Y91.751
G0 X80.354 Y92.432
G0 X82.002 Y106.547
;TYPE:WALL-INNER
G1 F1500 E11.69976
G1 X82.002 Y108.685 E11.74954
G1 X83.852 Y109.752 E11.79926
G1 X85.702 Y108.685 E11.84899
G1 X85.702 Y108.238 E11.85939
G1 X85.702 Y107.974 E11.86554
G1 X85.702 Y107.948 E11.86615
G1 X85.737 Y107.974 E11.86646
G1 X85.984 Y108.068 E11.87031
G1 X86.12 Y108.12 E11.8737
G1 X86.462 Y108.166 E11.88173
G1 X143.743 Y108.166 E13.21535
G1 X144.128 Y108.113 E13.2244
G1 X144.698 Y107.83 E13.23922
G1 X145.012 Y107.495 E13.24991
G1 X145.239 Y106.989 E13.26282
G1 X145.298 Y106.821 E13.26696
G1 X145.434 Y106.647 E13.27211
G1 X145.471 Y106.625 E13.27311
G1 X145.712 Y106.569 E13.27887
G1 X145.728 Y106.566 E13.27925
G1 X146.172 Y106.566 E13.28959
G1 X146.061 Y106.758 E13.29119
G1 X146.053 Y106.772 E13.29156
G1 X145.565 Y107.616 E13.31426
G1 X146.634 Y109.466 E13.364
G1 X148.769 Y109.466 E13.41371
G1 X149.838 Y107.616 E13.46346
G1 X149.403 Y106.864 E13.48368
G1 X149.231 Y106.566 E13.49169
G1 X149.575 Y106.566 E13.49624
G1 X149.576 Y106.566 E13.49626
G1 X166.479 Y106.566 E13.8898
G1 X166.479 Y117.066 E14.13426
G1 X150.702 Y117.066 E14.50158
G1 X150.702 Y124.866 E14.68318
G1 X150.702 Y125.171 E14.69029
G1 X150.526 Y124.866 E14.69273
G1 X148.391 Y124.866 E14.74244
G1 X147.322 Y126.716 E14.79218
G1 X147.768 Y127.488 E14.81294
G1 X147.889 Y127.698 E14.81858
G1 X147.929 Y127.766 E14.82042
G1 X147.773 Y127.766 E14.82205
G1 X147.53 Y127.754 E14.82606
G1 X147.356 Y127.745 E14.83012
G1 X147.303 Y127.725 E14.83144
G1 X147.133 Y127.585 E14.83656
G1 X147.09 Y127.509 E14.8386
G1 X146.931 Y127.04 E14.85013
G1 X146.537 Y126.537 E14.865
G1 X146.148 Y126.297 E14.87565
G1 X145.566 Y126.166 E14.88953
G1 X100.935 Y126.166 E15.92864
G1 X100.548 Y126.219 E15.93773
G1 X99.979 Y126.504 E15.95255
G1 X99.667 Y126.838 E15.96319
G1 X99.438 Y127.344 E15.97612
G1 X99.38 Y127.512 E15.98026
G1 X99.244 Y127.686 E15.9854
G1 X99.207 Y127.709 E15.98641
G1 X98.952 Y127.766 E15.9925
G1 X84.921 Y127.766 E16.31917
G1 X84.92 Y127.766 E16.31919
G1 X84.576 Y127.766 E16.3272
G1 X84.748 Y127.467 E16.33175
G1 X85.181 Y126.716 E16.35194
G1 X84.114 Y124.866 E16.40166
G1 X81.976 Y124.866 E16.45144
G1 X81.902 Y124.994 E16.45488
G1 X81.902 Y124.866 E16.45505
G1 X81.902 Y117.379 E16.62936
G1 X73.69 Y104.914 E16.97689
G1 X73.602 Y104.682 E16.98267
G1 X73.615 Y104.498 E16.98696
G1 X73.662 Y104.387 E16.98977
G1 X80.506 Y92.531 E17.30849
G1 X80.607 Y92.406 E17.31223
G1 X80.695 Y92.343 E17.31475
G1 X80.788 Y92.308 E17.31707
G1 X80.892 Y92.297 E17.3195
G1 X80.977 Y92.311 E17.32151
G1 X81.466 Y92.563 E17.33432
G1 X84.654 Y94.403 E17.42001
G1 X84.786 Y94.51 E17.42397
G1 X84.846 Y94.593 E17.42635
G1 X84.886 Y94.698 E17.42897
G1 X84.902 Y94.813 E17.43167
G1 X84.902 Y105.741 E17.6861
G1 X84.902 Y105.742 E17.68612
G1 X84.902 Y106.086 E17.69413
G1 X84.604 Y105.914 E17.69868
G1 X83.852 Y105.48 E17.71889
G1 X82.002 Y106.547 E17.76862
G0 F3600 X82.402 Y106.778
;TYPE:WALL-OUTER
G1 F1500 X82.402 Y108.454 E17.80764
G1 X83.852 Y109.29 E17.84661
G1 X85.302 Y108.454 E17.88557
G1 X85.302 Y107.459 E17.90874
G1 X85.302 Y107.435 E17.9093
G1 X85.302 Y107.193 E17.91493
G1 X85.302 Y106.906 E17.92161
G1 X85.302 Y106.778 E17.92459
G1 X85.217 Y106.729 E17.92688
G1 X85.045 Y106.63 E17.9315
G1 X83.852 Y105.942 E17.96356
G1 X82.753 Y106.576 E17.9931
G1 X82.402 Y106.778 E18.00253
G0 F3600 X82.402 Y106.978
G0 X81.962 Y106.978
G1 F1500 E11.50253
G0 F3600 X81.865 Y125.414
G0 X81.507 Y126.962
G0 X81.892 Y127.818
G0 X81.978 Y127.769
G1 F1500 E18.00253
G1 X82.005 Y127.815 E18.00377
G1 X82.073 Y127.934 E18.00696
G1 X82.157 Y128.08 E18.01089
G1 X82.196 Y128.147 E18.01269
G1 X82.075 Y128.128 E18.01351
G1 X81.9 Y128.05 E18.01549
G1 X81.885 Y128.043
G1 X81.846 Y128.012 E18.01574
G1 X81.727 Y127.915 E18.01855
G1 X81.603 Y127.744 E18.02347
G1 X81.531 Y127.557 E18.02813
G1 X81.502 Y127.132 E18.03805
G1 X81.502 Y126.943 E18.04245
G1 X81.583 Y127.085 E18.04275
G1 X81.774 Y127.416 E18.04739
G1 X81.873 Y127.588 E18.05095
G1 X81.978 Y127.769 E18.05461
G0 F3600 X82.005 Y127.815
G0 X82.073 Y127.934
G0 X82.078 Y127.942
G1 F1500 E11.55461
G0 F3600 X81.994 Y127.983
G0 X84.247 Y127.956
G0 X117.602 Y124.766
;TYPE:WALL-INNER
G1 F1500 E18.05461
G1 X140.302 Y124.766 E18.58311
G1 X140.302 Y109.566 E18.937
G1 X117.602 Y109.566 E19.4655
G1 X117.602 Y124.766 E19.81939
G0 F3600 X118.002 Y124.366
;TYPE:WALL-OUTER
G1 F1500 X139.902 Y124.366 E20.32927
G1 X139.902 Y109.966 E20.66453
G1 X118.002 Y109.966 E21.17441
G1 X118.002 Y124.366 E21.50967
G0 F3600 X118.202 Y124.366
G0 X118.202 Y124.806
G0 X140.13 Y124.594
G0 X145.768 Y107.465
G0 X146.027 Y107.616
G1 F1500 X146.865 Y109.066 E21.54866
G1 X148.538 Y109.066 E21.58761
G1 X149.376 Y107.616 E21.6266
G1 X148.711 Y106.465 E21.65755
G1 X148.538 Y106.166 E21.66211
G1 X146.865 Y106.166
G1 X146.692 Y106.465 E21.67015
G1 X146.027 Y107.616 E21.7011
G0 F3600 X146.127 Y107.789
G0 X145.745 Y108.008
G1 F1500 E15.2011
G0 F3600 X150.739 Y125.588
G0 X151.097 Y126.789
G0 X150.886 Y127.739
G0 X150.979 Y127.783
G1 F1500 E21.7011
G1 X150.974 Y127.789 E21.70128
G1 X150.851 Y127.941 E21.70584
G1 X150.68 Y128.065 E21.71075
G1 X150.483 Y128.14 E21.71566
G1 X150.295 Y128.165 E21.72008
G1 X150.352 Y128.065 E21.72015
G1 X150.434 Y127.924 E21.72182
G1 X150.531 Y127.757 E21.725
G1 X150.629 Y127.588 E21.72937
G1 X150.632 Y127.582 E21.72953
G1 X150.733 Y127.407 E21.73423
G1 X150.939 Y127.051 E21.74381
G1 X151.102 Y126.77 E21.75137
G1 X151.102 Y127.145 E21.75409
G1 X151.062 Y127.597 E21.76179
G1 X150.98 Y127.782 E21.76638
G1 X150.979 Y127.783 E21.76641
G0 F3600 X150.974 Y127.789
G0 X150.853 Y127.939
G1 F1500 E15.26641
G0 F3600 X150.775 Y127.873
G0 X151.097 Y126.789
G0 X150.89 Y125.537
G0 X150.802 Y117.466
G0 X151.102 Y117.466
G1 F1500 E21.76641
G1 X151.102 Y125.917 E21.96317
G1 X151.102 Y125.918 E21.96319
G1 X151.102 Y126.662 E21.98051
G1 X150.73 Y126.017 E21.98948
G1 X150.295 Y125.266 E22.00969
G1 X148.622 Y125.266 E22.04864
G1 X147.784 Y126.716 E22.08763
G1 X148.449 Y127.867 E22.11858
G1 X148.622 Y128.166 E22.12662
G1 X148.277 Y128.166 E22.13117
G1 X148.276 Y128.166 E22.13119
G1 X147.753 Y128.166 E22.14337
G1 X147.273 Y128.142 E22.15456
G1 X147.1 Y128.076 E22.15887
