;FLAVOR:Marlin
;TIME:1004
;Filament used: 0m, 0.982976m
;Layer height: 0.3
;MINX:69.053
;MINY:88.634
;MINZ:0.2
;MAXX:170.929
;MAXY:131.384
;MAXZ:7.1
;Generated with Cura_SteamEngine 4.4.1
T1
M140 S65
M105
M190 S65
M104 S200
M105
M109 S200
M82 ;absolute extrusion mode
G28 ;Home
G1 Z15.0 F6000 ;Move the platform down 15mm
;Prime the extruder
G92 E0
G1 F200 E3
G92 E0
G92 E0
t1
G92 E0
G1 F1500 E-6.5
;LAYER_COUNT:24
;LAYER:0
M106 S255
G0 F3600 X70.446 Y104.156 Z0.2
;TYPE:SKIRT
G1 F1500 E0
G1 X70.892 Y103.858 E0.01249
G1 X71.377 Y103.63 E0.02497
G1 X71.891 Y103.476 E0.03746
G1 X72.561 Y103.394 E0.05317
G1 X72.882 Y103.385 E0.06065
G1 X72.983 Y103.384 E0.063
G1 X88.976 Y103.384 E0.43535
G1 X89.55 Y103.392 E0.44872
G1 X89.662 Y103.396 E0.45133
G1 X90.196 Y103.42 E0.46377
G1 X90.487 Y103.445 E0.47057
G1 X91.875 Y103.621 E0.50315
G1 X91.942 Y103.63 E0.50472
G1 X92.436 Y103.702 E0.51634
G1 X95.126 Y104.019 E0.57941
G1 X97.878 Y104.264 E0.64373
G1 X100.573 Y104.428 E0.70659
G1 X103.3 Y104.516 E0.77012
G1 X106.032 Y104.528 E0.83372
G1 X108.757 Y104.462 E0.89719
G1 X111.491 Y104.318 E0.96093
G1 X114.173 Y104.101 E1.02357
G1 X116.926 Y103.8 E1.08805
G1 X119.6 Y103.43 E1.1509
G1 X122.286 Y102.981 E1.2143
G1 X124.977 Y102.453 E1.27815
G1 X127.663 Y101.847 E1.34226
G1 X130.266 Y101.18 E1.40482
G1 X132.878 Y100.433 E1.46807
G1 X135.497 Y99.603 E1.53203
G1 X138.09 Y98.699 E1.59597
G1 X140.576 Y97.752 E1.65791
G1 X143.145 Y96.692 E1.72261
G1 X145.622 Y95.586 E1.78577
G1 X148.073 Y94.406 E1.8491
G1 X150.518 Y93.144 E1.91316
G1 X153.279 Y91.61 E1.9867
G1 X156.787 Y89.586 E2.08099
G1 X156.831 Y89.561 E2.08217
G1 X157.438 Y89.222 E2.09835
G1 X157.848 Y89.026 E2.10894
G1 X158.069 Y88.937 E2.11448
G1 X158.58 Y88.774 E2.12697
G1 X158.891 Y88.714 E2.13434
G1 X159.177 Y88.672 E2.14107
G1 X159.712 Y88.634 E2.15356
G1 X160.247 Y88.676 E2.16606
G1 X160.653 Y88.762 E2.17572
G1 X161.145 Y88.897 E2.1876
G1 X161.65 Y89.077 E2.20008
G1 X162.123 Y89.33 E2.21257
G1 X162.363 Y89.497 E2.21937
G1 X162.531 Y89.624 E2.22428
G1 X162.933 Y89.979 E2.23676
G1 X163.301 Y90.42 E2.25014
G1 X163.529 Y90.743 E2.25934
G1 X163.67 Y90.959 E2.26535
G1 X164.279 Y91.968 E2.29279
G1 X164.315 Y92.028 E2.29441
G1 X169.99 Y101.858 E2.55868
G1 X170.014 Y101.9 E2.55981
G1 X170.329 Y102.463 E2.57483
G1 X170.614 Y103.12 E2.5915
G1 X170.756 Y103.562 E2.60231
G1 X170.882 Y104.083 E2.61479
G1 X170.929 Y104.617 E2.62727
G1 X170.894 Y105.165 E2.64005
G1 X170.836 Y105.577 E2.64974
G1 X170.722 Y106.101 E2.66222
G1 X170.518 Y106.63 E2.67542
G1 X170.358 Y106.964 E2.68405
G1 X170.304 Y107.071 E2.68684
G1 X169.374 Y108.857 E2.73372
G1 X168.184 Y111.313 E2.79726
G1 X167.062 Y113.806 E2.86091
G1 X166.011 Y116.324 E2.92443
G1 X165.022 Y118.895 E2.98857
G1 X164.133 Y121.432 E3.05116
G1 X163.299 Y124.032 E3.11473
G1 X162.544 Y126.641 E3.17796
G1 X162.152 Y128.151 E3.21428
G1 X162.138 Y128.202 E3.21552
G1 X161.993 Y128.729 E3.22824
G1 X161.813 Y129.234 E3.24072
G1 X161.559 Y129.707 E3.25322
G1 X161.238 Y130.136 E3.2657
G1 X160.857 Y130.514 E3.27819
G1 X160.424 Y130.83 E3.29067
G1 X159.949 Y131.079 E3.30316
G1 X159.442 Y131.254 E3.31565
G1 X158.915 Y131.352 E3.32813
G1 X158.634 Y131.372 E3.33469
G1 X158.312 Y131.382 E3.34219
G1 X158.2 Y131.384 E3.34479
G1 X88.685 Y131.384 E4.96325
G1 X87.987 Y131.374 E4.9795
G1 X87.453 Y131.326 E4.99198
G1 X86.932 Y131.2 E5.00446
G1 X86.435 Y130.997 E5.01696
G1 X85.989 Y130.733 E5.02903
G1 X84.961 Y130.021 E5.05814
G1 X84.913 Y129.987 E5.05951
G1 X84.63 Y129.784 E5.06762
G1 X82.398 Y128.278 E5.13031
G1 X80.054 Y126.791 E5.19494
G1 X77.74 Y125.415 E5.25762
G1 X75.332 Y124.072 E5.32181
G1 X72.947 Y122.828 E5.38444
G1 X71.644 Y122.195 E5.41817
G1 X71.597 Y122.171 E5.4194
G1 X71.04 Y121.89 E5.43392
G1 X70.58 Y121.614 E5.44641
G1 X70.167 Y121.272 E5.45889
G1 X69.809 Y120.873 E5.47138
G1 X69.514 Y120.424 E5.48388
G1 X69.289 Y119.938 E5.49635
G1 X69.139 Y119.423 E5.50884
G1 X69.062 Y118.765 E5.52426
G1 X69.054 Y118.443 E5.53176
G1 X69.053 Y118.354 E5.53384
G1 X69.053 Y116.161 E5.58489
G1 X69.073 Y114.742 E5.61793
G1 X69.073 Y112.007 E5.68161
G1 X69.058 Y111.37 E5.69645
G1 X69.057 Y111.313 E5.69777
G1 X69.053 Y110.796 E5.70981
G1 X69.053 Y107.635 E5.7834
G1 X69.062 Y106.946 E5.79945
G1 X69.109 Y106.412 E5.81193
G1 X69.235 Y105.89 E5.82443
G1 X69.437 Y105.394 E5.8369
G1 X69.71 Y104.932 E5.84939
G1 X70.049 Y104.517 E5.86187
G1 X70.446 Y104.156 E5.87436
G0 F3600 X70.832 Y104.368
G1 F1500 X71.268 Y104.112 E5.88613
G1 X71.739 Y103.929 E5.8979
G1 X72.233 Y103.822 E5.90967
G1 X72.572 Y103.794 E5.91759
G1 X72.893 Y103.785 E5.92506
G1 X72.983 Y103.784 E5.92716
G1 X88.971 Y103.784 E6.29939
G1 X89.545 Y103.792 E6.31276
G1 X89.644 Y103.795 E6.31506
G1 X90.178 Y103.819 E6.32751
G1 X90.437 Y103.841 E6.33356
G1 X91.825 Y104.017 E6.36613
G1 X91.884 Y104.026 E6.36752
G1 X92.367 Y104.097 E6.37889
G1 X95.112 Y104.42 E6.44324
G1 X97.819 Y104.661 E6.50651
G1 X100.572 Y104.829 E6.57073
G1 X103.285 Y104.916 E6.63393
G1 X106.04 Y104.928 E6.69807
G1 X108.754 Y104.863 E6.76127
G1 X111.507 Y104.717 E6.82546
G1 X114.251 Y104.495 E6.88955
G1 X116.953 Y104.199 E6.95284
G1 X119.684 Y103.822 E7.01703
G1 X122.358 Y103.376 E7.08014
G1 X125.07 Y102.843 E7.14449
G1 X127.712 Y102.246 E7.20755
G1 X130.37 Y101.566 E7.27143
G1 X133.036 Y100.803 E7.33599
G1 X135.601 Y99.99 E7.39864
G1 X138.196 Y99.086 E7.46262
G1 X140.754 Y98.112 E7.52634
G1 X143.294 Y97.064 E7.59032
G1 X145.794 Y95.947 E7.65407
G1 X148.266 Y94.757 E7.71794
G1 X150.704 Y93.498 E7.78183
G1 X153.448 Y91.974 E7.8549
G1 X156.987 Y89.932 E7.95003
G1 X157.026 Y89.91 E7.95107
G1 X157.633 Y89.571 E7.96726
G1 X157.998 Y89.397 E7.97667
G1 X158.219 Y89.308 E7.98222
G1 X158.949 Y89.11 E7.99983
G1 X159.235 Y89.068 E8.00656
G1 X159.74 Y89.034 E8.01835
G1 X160.243 Y89.08 E8.0301
G1 X160.547 Y89.148 E8.03736
G1 X161.039 Y89.283 E8.04924
G1 X161.514 Y89.455 E8.061
G1 X162.122 Y89.816 E8.07746
G1 X162.29 Y89.943 E8.08236
G1 X162.668 Y90.279 E8.09414
G1 X162.974 Y90.651 E8.10535
G1 X163.202 Y90.974 E8.11456
G1 X163.328 Y91.165 E8.11989
G1 X163.937 Y92.174 E8.14732
G1 X163.968 Y92.228 E8.14877
G1 X169.643 Y102.058 E8.41304
G1 X169.665 Y102.096 E8.41406
G1 X169.98 Y102.659 E8.42908
G1 X170.234 Y103.242 E8.44389
G1 X170.376 Y103.684 E8.45469
G1 X170.492 Y104.176 E8.46646
G1 X170.529 Y104.68 E8.47823
G1 X170.498 Y105.109 E8.48824
G1 X170.44 Y105.521 E8.49793
G1 X170.33 Y106.015 E8.50971
G1 X170.157 Y106.457 E8.52076
G1 X169.997 Y106.791 E8.52939
G1 X169.95 Y106.886 E8.53185
G1 X169.004 Y108.705 E8.57959
G1 X167.822 Y111.142 E8.64265
G1 X166.699 Y113.637 E8.70635
G1 X165.645 Y116.163 E8.77008
G1 X164.648 Y118.755 E8.83473
G1 X163.746 Y121.327 E8.89819
G1 X162.92 Y123.904 E8.9612
G1 X162.142 Y126.591 E9.02632
G1 X161.764 Y128.05 E9.06141
G1 X161.752 Y128.096 E9.06252
G1 X161.607 Y128.623 E9.07525
G1 X161.435 Y129.098 E9.08701
G1 X161.19 Y129.541 E9.09879
G1 X160.879 Y129.939 E9.11055
G1 X160.508 Y130.283 E9.12233
G1 X160.088 Y130.564 E9.1341
G1 X159.629 Y130.776 E9.14587
G1 X159.143 Y130.913 E9.15763
G1 X158.621 Y130.972 E9.16986
G1 X158.299 Y130.982 E9.17736
G1 X158.2 Y130.984 E9.17966
G1 X88.691 Y130.984 E10.79798
G1 X87.993 Y130.974 E10.81423
G1 X87.49 Y130.927 E10.82599
G1 X87 Y130.801 E10.83777
G1 X86.536 Y130.599 E10.84955
G1 X86.217 Y130.405 E10.85825
G1 X85.189 Y129.693 E10.88736
G1 X85.146 Y129.662 E10.88859
G1 X84.88 Y129.471 E10.89622
G1 X82.573 Y127.915 E10.96101
G1 X80.283 Y126.462 E11.02415
G1 X77.944 Y125.071 E11.08751
G1 X75.533 Y123.726 E11.15178
G1 X73.1 Y122.457 E11.21567
G1 X71.819 Y121.835 E11.24883
G1 X71.777 Y121.814 E11.24992
G1 X71.22 Y121.533 E11.26444
G1 X70.788 Y121.27 E11.27622
G1 X70.402 Y120.943 E11.288
G1 X70.074 Y120.559 E11.29975
G1 X69.809 Y120.128 E11.31153
G1 X69.616 Y119.661 E11.3233
G1 X69.499 Y119.169 E11.33507
G1 X69.462 Y118.755 E11.34475
G1 X69.454 Y118.433 E11.35225
G1 X69.453 Y118.354 E11.35409
G1 X69.453 Y116.167 E11.40501
G1 X69.473 Y114.748 E11.43805
G1 X69.473 Y111.997 E11.5021
G1 X69.458 Y111.36 E11.51693
G1 X69.457 Y111.31 E11.5181
G1 X69.453 Y110.793 E11.53013
G1 X69.453 Y107.64 E11.60354
G1 X69.462 Y106.951 E11.61958
G1 X69.509 Y106.448 E11.63135
G1 X69.634 Y105.958 E11.64312
G1 X69.835 Y105.494 E11.65489
G1 X70.106 Y105.067 E11.66667
G1 X70.441 Y104.689 E11.67843
G1 X70.832 Y104.368 E11.6902
G1 F1500 E5.1902
;MESH:Body49.stl
G0 F3600 X73.267 Y106.319
G0 X73.267 Y107.598
G0 X88.658 Y118.056
G0 X91.017 Y125.22
G0 X91.087 Y125.15
;TYPE:WALL-INNER
G1 F1500 E11.6902
G1 X95.967 Y125.15 E11.80382
G1 X95.967 Y119.452 E11.93648
G1 X91.087 Y119.452 E12.0501
G1 X91.087 Y125.15 E12.18276
G0 F3600 X91.487 Y124.75
;TYPE:WALL-OUTER
G1 F1500 X95.567 Y124.75 E12.27775
G1 X95.567 Y119.852 E12.39179
G1 X91.487 Y119.852 E12.48678
G1 X91.487 Y124.75 E12.60081
G0 F3600 X91.687 Y124.75
G0 X91.687 Y125.19
G0 X91.687 Y125.25
G0 X96.417 Y125.22
G0 X96.487 Y125.15
;TYPE:WALL-INNER
G1 F1500 X101.367 Y125.15 E12.71443
G1 X101.367 Y119.452 E12.84709
G1 X96.487 Y119.452 E12.96071
G1 X96.487 Y125.15 E13.09337
G0 F3600 X96.887 Y124.75
;TYPE:WALL-OUTER
G1 F1500 X100.967 Y124.75 E13.18836
G1 X100.967 Y119.852 E13.3024
G1 X96.887 Y119.852 E13.39739
G1 X96.887 Y124.75 E13.51142
G0 F3600 X97.087 Y124.75
G0 X97.087 Y125.19
G0 X97.087 Y125.25
G0 X101.817 Y125.22
G0 X101.887 Y125.15
;TYPE:WALL-INNER
G1 F1500 X106.767 Y125.15 E13.62504
G1 X106.767 Y119.452 E13.7577
G1 X101.887 Y119.452 E13.87132
G1 X101.887 Y125.15 E14.00398
G0 F3600 X102.287 Y124.75
;TYPE:WALL-OUTER
G1 F1500 X106.367 Y124.75 E14.09897
G1 X106.367 Y119.852 E14.21301
G1 X102.287 Y119.852 E14.308
G1 X102.287 Y124.75 E14.42203
G0 F3600 X102.487 Y124.75
G0 X102.487 Y125.19
G0 X102.487 Y125.25
G0 X107.217 Y125.22
G0 X107.287 Y125.15
;TYPE:WALL-INNER
G1 F1500 X112.167 Y125.15 E14.53565
G1 X112.167 Y119.452 E14.66831
G1 X107.287 Y119.452 E14.78193
G1 X107.287 Y125.15 E14.91459
G0 F3600 X107.687 Y124.75
;TYPE:WALL-OUTER
G1 F1500 X111.767 Y124.75 E15.00958
G1 X111.767 Y119.852 E15.12362
G1 X107.687 Y119.852 E15.21861
G1 X107.687 Y124.75 E15.33264
G0 F3600 X107.887 Y124.75
G0 X107.887 Y125.19
G0 X107.887 Y125.25
G0 X112.617 Y125.22
G0 X112.687 Y125.15
;TYPE:WALL-INNER
G1 F1500 X117.567 Y125.15 E15.44626
G1 X117.567 Y119.452 E15.57892
G1 X112.687 Y119.452 E15.69254
G1 X112.687 Y125.15 E15.8252
G0 F3600 X113.087 Y124.75
;TYPE:WALL-OUTER
G1 F1500 X117.167 Y124.75 E15.92019
G1 X117.167 Y119.852 E16.03422
G1 X113.087 Y119.852 E16.12922
G1 X113.087 Y124.75 E16.24325
G0 F3600 X113.287 Y124.75
G0 X113.287 Y125.19
G0 X113.287 Y125.25
G0 X118.017 Y125.22
G0 X118.087 Y125.15
;TYPE:WALL-INNER
G1 F1500 X122.967 Y125.15 E16.35687
G1 X122.967 Y119.452 E16.48953
G1 X118.087 Y119.452 E16.60315
G1 X118.087 Y125.15 E16.73581
G0 F3600 X118.487 Y124.75
;TYPE:WALL-OUTER
G1 F1500 X122.567 Y124.75 E16.8308
G1 X122.567 Y119.852 E16.94483
G1 X118.487 Y119.852 E17.03982
G1 X118.487 Y124.75 E17.15386
G0 F3600 X118.687 Y124.75
G0 X118.687 Y125.19
G0 X118.687 Y125.25
G0 X123.417 Y125.22
G0 X123.487 Y125.15
;TYPE:WALL-INNER
G1 F1500 X128.367 Y125.15 E17.26748
G1 X128.367 Y119.452 E17.40014
G1 X123.487 Y119.452 E17.51376
G1 X123.487 Y125.15 E17.64642
G0 F3600 X123.887 Y124.75
;TYPE:WALL-OUTER
G1 F1500 X127.967 Y124.75 E17.74141
G1 X127.967 Y119.852 E17.85544
G1 X123.887 Y119.852 E17.95043
G1 X123.887 Y124.75 E18.06447
G0 F3600 X124.087 Y124.75
G0 X124.087 Y125.19
G0 X124.087 Y125.25
G0 X128.817 Y125.22
G0 X128.887 Y125.15
;TYPE:WALL-INNER
G1 F1500 X133.767 Y125.15 E18.17809
G1 X133.767 Y119.452 E18.31075
G1 X128.887 Y119.452 E18.42436
G1 X128.887 Y125.15 E18.55703
G0 F3600 X129.287 Y124.75
;TYPE:WALL-OUTER
G1 F1500 X133.367 Y124.75 E18.65202
G1 X133.367 Y119.852 E18.76605
G1 X129.287 Y119.852 E18.86104
G1 X129.287 Y124.75 E18.97508
G0 F3600 X129.487 Y124.75
G0 X129.487 Y125.19
G0 X129.487 Y125.25
G0 X134.217 Y125.22
G0 X134.287 Y125.15
;TYPE:WALL-INNER
G1 F1500 X139.167 Y125.15 E19.0887
G1 X139.167 Y119.452 E19.22136
G1 X134.287 Y119.452 E19.33497
G1 X134.287 Y125.15 E19.46763
G0 F3600 X134.687 Y124.75
;TYPE:WALL-OUTER
G1 F1500 X138.767 Y124.75 E19.56263
G1 X138.767 Y119.852 E19.67666
G1 X134.687 Y119.852 E19.77165
G1 X134.687 Y124.75 E19.88569
G0 F3600 X134.887 Y124.75
G0 X134.887 Y125.19
G0 X134.887 Y125.25
G0 X139.617 Y125.22
G0 X139.687 Y125.15
;TYPE:WALL-INNER
G1 F1500 X144.567 Y125.15 E19.9993
G1 X144.567 Y119.452 E20.13197
G1 X139.687 Y119.452 E20.24558
G1 X139.687 Y125.15 E20.37824
G0 F3600 X140.087 Y124.75
;TYPE:WALL-OUTER
G1 F1500 X144.167 Y124.75 E20.47324
G1 X144.167 Y119.852 E20.58727
G1 X140.087 Y119.852 E20.68226
G1 X140.087 Y124.75 E20.7963
G0 F3600 X140.287 Y124.75
G0 X140.287 Y125.19
G0 X140.287 Y125.25
G0 X145.017 Y125.22
G0 X145.087 Y125.15
;TYPE:WALL-INNER
G1 F1500 X148.767 Y125.15 E20.88198
G1 X148.767 Y125.652 E20.89366
G1 X155.384 Y125.652 E21.04772
G1 X155.384 Y119.452 E21.19207
G1 X145.087 Y119.452 E21.43181
G1 X145.087 Y125.15 E21.56447
G0 F3600 X145.487 Y124.75
;TYPE:WALL-OUTER
G1 F1500 X149.167 Y124.75 E21.65015
G1 X149.167 Y125.252 E21.66183
G1 X154.984 Y125.252 E21.79726
G1 X154.984 Y119.852 E21.92299
G1 X145.487 Y119.852 E22.1441
G1 X145.487 Y124.75 E22.25813
G0 F3600 X145.687 Y124.75
G0 X145.687 Y125.19
G0 X145.687 Y125.25
G0 X145.059 Y119.424
G0 X154.9 Y109.254
G0 X154.83 Y109.184
;TYPE:WALL-INNER
G1 F1500 X154.83 Y95.998 E22.56513
G1 X154.857 Y95.673 E22.57272
G1 X154.889 Y95.596 E22.57467
G1 X154.944 Y95.525 E22.57676
G1 X155.118 Y95.399 E22.58176
G1 X159.443 Y92.902 E22.69803
G1 X159.593 Y92.84 E22.70181
G1 X159.695 Y92.827 E22.7042
G1 X159.796 Y92.841 E22.70658
G1 X159.89 Y92.88 E22.70895
G1 X159.956 Y92.931 E22.71089
G1 X160.18 Y93.264 E22.72023
G1 X166.655 Y104.479 E23.02173
G1 X166.726 Y104.709 E23.02734
G1 X166.701 Y104.888 E23.03155
G1 X165.893 Y106.155 E23.06653
G1 X157.93 Y118.245 E23.40358
G1 X157.93 Y127.184 E23.6117
G1 X88.63 Y127.184 E25.22515
G1 X88.63 Y118.084 E25.43702
G1 X73.253 Y118.084 E25.79503
G1 X73.253 Y116.111 E25.84096
G1 X75.051 Y116.11 E25.88282
G1 X75.432 Y115.209 E25.9056
G1 X75.707 Y114.328 E25.92709
G1 X75.828 Y113.334 E25.9504
G1 X75.708 Y112.346 E25.97357
G1 X75.54 Y111.763 E25.9877
G1 X75.06 Y110.557 E26.01792
G1 X73.452 Y110.558 E26.05536
G1 X73.253 Y110.558 E26.05999
G1 X73.253 Y110.359 E26.06299
G1 X73.253 Y107.584 E26.12759
G1 X89.612 Y107.584 E26.50847
G1 X90.085 Y107.614 E26.5195
G1 X90.254 Y107.671 E26.52365
G1 X90.42 Y107.772 E26.52818
G1 X90.566 Y107.911 E26.53287
G1 X90.926 Y108.444 E26.54785
G1 X91.261 Y108.759 E26.55855
G1 X91.651 Y108.995 E26.56916
G1 X92.083 Y109.138 E26.57976
G1 X92.497 Y109.184 E26.58946
G1 X154.83 Y109.184 E28.0407
G0 F3600 X154.43 Y108.784
;TYPE:WALL-OUTER
G1 F1500 X154.43 Y95.977 E28.33887
G1 X154.463 Y95.578 E28.34819
G1 X154.542 Y95.392 E28.3529
G1 X154.662 Y95.236 E28.35748
G1 X154.896 Y95.065 E28.36423
G1 X159.271 Y92.54 E28.48184
G1 X159.489 Y92.45 E28.48733
G1 X159.694 Y92.424 E28.49214
G1 X159.903 Y92.452 E28.49705
G1 X160.094 Y92.533 E28.50188
G1 X160.251 Y92.653 E28.50648
G1 X160.517 Y93.049 E28.51758
G1 X167.024 Y104.319 E28.82057
G1 X167.135 Y104.677 E28.8293
G1 X167.085 Y105.029 E28.83757
G1 X166.227 Y106.375 E28.87474
G1 X158.33 Y118.365 E29.209
G1 X158.33 Y127.584 E29.42363
G1 X88.23 Y127.584 E31.05571
G1 X88.23 Y118.484 E31.26758
G1 X72.853 Y118.484 E31.62558
G1 X72.853 Y115.711 E31.69015
G1 X74.786 Y115.71 E31.73515
G1 X75.056 Y115.071 E31.7513
G1 X75.314 Y114.244 E31.77147
G1 X75.425 Y113.334 E31.79281
G1 X75.315 Y112.426 E31.81411
G1 X75.161 Y111.893 E31.82703
G1 X74.789 Y110.957 E31.85048
G1 X73.053 Y110.958 E31.89089
G1 X72.853 Y110.958 E31.89555
G1 X72.853 Y110.758 E31.89857
G1 X72.853 Y107.184 E31.98178
G1 X89.621 Y107.184 E32.37217
G1 X90.164 Y107.218 E32.38484
G1 X90.424 Y107.306 E32.39123
G1 X90.666 Y107.454 E32.39783
G1 X90.871 Y107.649 E32.40442
G1 X91.232 Y108.183 E32.41943
G1 X91.504 Y108.439 E32.42812
G1 X91.819 Y108.629 E32.43669
G1 X92.169 Y108.745 E32.44527
G1 X92.519 Y108.784 E32.45347
G1 X154.43 Y108.784 E33.89489
G0 F3600 X154.43 Y108.584
G0 X154.87 Y108.584
G0 X154.93 Y108.584
G0 X155.22 Y109.574
;TYPE:SKIN
G1 F1500 X155.22 Y95.998 E34.21097
