;FLAVOR:Marlin
;TIME:592
;Filament used: 0m, 0.570666m
;Layer height: 0.3
;MINX:77.613
;MINY:88.417
;MINZ:0.2
;MAXX:162.548
;MAXY:131.741
;MAXZ:3.5
;Generated with Cura_SteamEngine 4.4.1
T1
M140 S65
M105
M190 S65
M104 S200
M105
M109 S200
M82 ;absolute extrusion mode
G28 ;Home
G1 Z15.0 F6000 ;Move the platform down 15mm
;Prime the extruder
G92 E0
G1 F200 E3
G92 E0
G92 E0
t1
G92 E0
G1 F1500 E-6.5
;LAYER_COUNT:12
;LAYER:0
M106 S255
G0 F3600 X85.874 Y89.631 Z0.2
;TYPE:SKIRT
G1 F1500 E0
G1 X86.15 Y89.403 E0.00833
G1 X86.405 Y89.213 E0.01574
G1 X86.858 Y88.926 E0.02822
G1 X87.329 Y88.715 E0.04024
G1 X87.547 Y88.636 E0.04564
G1 X88.064 Y88.492 E0.05813
G1 X88.392 Y88.441 E0.06586
G1 X88.617 Y88.417 E0.07113
G1 X89.419 Y88.422 E0.0898
G1 X89.683 Y88.453 E0.09599
G1 X90.209 Y88.555 E0.10847
G1 X90.693 Y88.724 E0.1204
G1 X90.961 Y88.84 E0.1272
G1 X91.224 Y88.967 E0.134
G1 X91.74 Y89.242 E0.14761
G1 X91.81 Y89.28 E0.14947
G1 X92.004 Y89.389 E0.15465
G1 X92.041 Y89.41 E0.15564
G1 X93.006 Y89.967 E0.18158
G1 X95.376 Y91.293 E0.24481
G1 X97.786 Y92.551 E0.3081
G1 X100.257 Y93.754 E0.37209
G1 X102.746 Y94.878 E0.43567
G1 X105.276 Y95.939 E0.49955
G1 X107.819 Y96.917 E0.56298
G1 X110.339 Y97.808 E0.62521
G1 X112.974 Y98.657 E0.68966
G1 X115.598 Y99.42 E0.75329
G1 X118.2 Y100.098 E0.81589
G1 X120.908 Y100.724 E0.8806
G1 X123.563 Y101.256 E0.94364
G1 X126.222 Y101.712 E1.00645
G1 X128.936 Y102.1 E1.07028
G1 X131.653 Y102.41 E1.13395
G1 X134.369 Y102.641 E1.19741
G1 X137.063 Y102.795 E1.26024
G1 X139.828 Y102.874 E1.32464
G1 X142.521 Y102.876 E1.38734
G1 X145.288 Y102.799 E1.45178
G1 X147.976 Y102.647 E1.51447
G1 X150.71 Y102.415 E1.57835
G1 X152.87 Y102.177 E1.62894
G1 X153.186 Y102.156 E1.63632
G1 X153.822 Y102.142 E1.65113
G1 X153.901 Y102.141 E1.65297
G1 X158.293 Y102.141 E1.75522
G1 X158.991 Y102.151 E1.77147
G1 X159.525 Y102.199 E1.78396
G1 X160.046 Y102.325 E1.79644
G1 X160.543 Y102.528 E1.80894
G1 X161.004 Y102.802 E1.82142
G1 X161.419 Y103.141 E1.8339
G1 X161.779 Y103.539 E1.84639
G1 X162.076 Y103.985 E1.85887
G1 X162.304 Y104.471 E1.87137
G1 X162.456 Y104.985 E1.88384
G1 X162.538 Y105.649 E1.89942
G1 X162.547 Y105.967 E1.90683
G1 X162.548 Y106.069 E1.9092
G1 X162.548 Y126.258 E2.37925
G1 X162.539 Y126.928 E2.39485
G1 X162.53 Y127.138 E2.39974
G1 X162.506 Y127.472 E2.40754
G1 X162.498 Y127.564 E2.40969
G1 X162.478 Y127.769 E2.41448
G1 X162.386 Y128.297 E2.42696
G1 X162.186 Y128.878 E2.44127
G1 X162.092 Y129.09 E2.44666
G1 X161.839 Y129.563 E2.45915
G1 X161.637 Y129.848 E2.46729
G1 X161.465 Y130.068 E2.47379
G1 X161.104 Y130.465 E2.48628
G1 X160.807 Y130.717 E2.49535
G1 X160.628 Y130.853 E2.50058
G1 X160.178 Y131.145 E2.51307
G1 X159.787 Y131.33 E2.52314
G1 X159.522 Y131.436 E2.52979
G1 X159.011 Y131.597 E2.54226
G1 X158.738 Y131.65 E2.54874
G1 X158.487 Y131.689 E2.55465
G1 X157.999 Y131.731 E2.56605
G1 X157.497 Y131.74 E2.57774
G1 X157.432 Y131.741 E2.57926
G1 X156.046 Y131.741 E2.61153
G1 X155.192 Y131.729 E2.63141
G1 X155.006 Y131.721 E2.63575
G1 X154.658 Y131.698 E2.64387
G1 X154.311 Y131.658 E2.652
G1 X151.673 Y131.224 E2.71424
G1 X148.93 Y130.849 E2.7787
G1 X146.258 Y130.562 E2.84127
G1 X143.501 Y130.343 E2.90566
G1 X140.803 Y130.206 E2.96855
G1 X137.253 Y130.141 E3.05122
G1 X124.475 Y130.141 E3.34872
G1 X121.695 Y130.18 E3.41345
G1 X118.966 Y130.296 E3.47704
G1 X116.237 Y130.49 E3.54074
G1 X113.56 Y130.755 E3.60337
G1 X110.837 Y131.103 E3.66728
G1 X107.291 Y131.675 E3.75091
G1 X107.005 Y131.71 E3.75762
G1 X106.805 Y131.726 E3.76229
G1 X106.555 Y131.737 E3.76811
G1 X106.167 Y131.741 E3.77715
G1 X90.602 Y131.741 E4.13953
G1 X89.988 Y131.732 E4.15383
G1 X89.563 Y131.7 E4.16375
G1 X89.205 Y131.652 E4.17216
G1 X88.68 Y131.541 E4.18466
G1 X88.27 Y131.395 E4.19479
G1 X88.031 Y131.293 E4.20084
G1 X87.555 Y131.046 E4.21332
G1 X87.236 Y130.825 E4.22236
G1 X87.03 Y130.665 E4.22843
G1 X86.632 Y130.306 E4.24091
G1 X86.372 Y130 E4.25026
G1 X86.236 Y129.821 E4.25549
G1 X85.944 Y129.371 E4.26798
G1 X85.761 Y128.984 E4.27795
G1 X85.641 Y128.685 E4.28545
G1 X85.484 Y128.195 E4.29743
G1 X85.332 Y127.57 E4.31241
G1 X85.32 Y127.52 E4.3136
G1 X84.991 Y126.078 E4.34804
G1 X84.307 Y123.428 E4.41176
G1 X83.554 Y120.82 E4.47496
G1 X82.722 Y118.212 E4.53869
G1 X81.819 Y115.639 E4.60218
G1 X80.851 Y113.11 E4.66523
G1 X79.801 Y110.587 E4.72885
G1 X78.593 Y107.905 E4.79734
G1 X78.154 Y106.968 E4.82143
G1 X78.071 Y106.778 E4.82625
G1 X77.899 Y106.348 E4.83704
G1 X77.738 Y105.837 E4.84951
G1 X77.661 Y105.381 E4.86028
G1 X77.628 Y105.062 E4.86774
G1 X77.613 Y104.526 E4.88023
G1 X77.677 Y103.994 E4.8927
G1 X77.757 Y103.67 E4.90047
G1 X77.866 Y103.302 E4.90941
G1 X78.169 Y102.58 E4.92764
G1 X78.612 Y101.78 E4.94893
G1 X78.643 Y101.724 E4.95042
G1 X84.669 Y91.285 E5.23105
G1 X84.692 Y91.246 E5.2321
G1 X85.051 Y90.642 E5.24846
G1 X85.351 Y90.213 E5.26065
G1 X85.506 Y90.022 E5.26638
G1 X85.874 Y89.631 E5.27888
G0 F3600 X86.165 Y89.907
G1 F1500 X86.389 Y89.724 E5.28561
G1 X86.644 Y89.534 E5.29302
G1 X87.072 Y89.265 E5.30479
G1 X87.466 Y89.091 E5.31481
G1 X87.684 Y89.012 E5.32021
G1 X88.171 Y88.878 E5.33197
G1 X88.435 Y88.839 E5.33818
G1 X88.66 Y88.815 E5.34345
G1 X89.372 Y88.819 E5.36003
G1 X89.636 Y88.85 E5.36622
G1 X90.132 Y88.948 E5.37799
G1 X90.534 Y89.091 E5.38792
G1 X90.802 Y89.207 E5.39472
G1 X91.036 Y89.32 E5.40077
G1 X91.552 Y89.595 E5.41439
G1 X91.614 Y89.629 E5.41603
G1 X91.808 Y89.738 E5.42121
G1 X91.841 Y89.757 E5.4221
G1 X92.795 Y90.308 E5.44775
G1 X95.175 Y91.638 E5.51123
G1 X97.633 Y92.921 E5.57578
G1 X100.083 Y94.114 E5.63922
G1 X102.589 Y95.247 E5.70325
G1 X105.114 Y96.305 E5.76699
G1 X107.679 Y97.292 E5.83098
G1 X110.231 Y98.194 E5.894
G1 X112.836 Y99.033 E5.95772
G1 X115.5 Y99.808 E6.02231
G1 X118.114 Y100.489 E6.0852
G1 X120.804 Y101.111 E6.14948
G1 X123.489 Y101.649 E6.21324
G1 X126.17 Y102.108 E6.27657
G1 X128.906 Y102.499 E6.34091
G1 X131.61 Y102.808 E6.40428
G1 X134.313 Y103.038 E6.46744
G1 X137.063 Y103.195 E6.53157
G1 X139.816 Y103.274 E6.59569
G1 X142.533 Y103.276 E6.65895
G1 X145.284 Y103.199 E6.72302
G1 X147.999 Y103.046 E6.78633
G1 X150.748 Y102.813 E6.85056
G1 X152.914 Y102.574 E6.9013
G1 X153.195 Y102.556 E6.90785
G1 X153.831 Y102.542 E6.92267
G1 X153.901 Y102.541 E6.9243
G1 X158.287 Y102.541 E7.02641
G1 X158.985 Y102.551 E7.04266
G1 X159.488 Y102.598 E7.05443
G1 X159.978 Y102.724 E7.0662
G1 X160.442 Y102.926 E7.07799
G1 X160.868 Y103.198 E7.08975
G1 X161.246 Y103.533 E7.10151
G1 X161.566 Y103.924 E7.11328
G1 X161.821 Y104.361 E7.12506
G1 X162.004 Y104.832 E7.13682
G1 X162.111 Y105.326 E7.14859
G1 X162.138 Y105.66 E7.15639
G1 X162.147 Y105.978 E7.1638
G1 X162.148 Y106.069 E7.16592
G1 X162.148 Y126.253 E7.63584
G1 X162.139 Y126.923 E7.65144
G1 X162.131 Y127.109 E7.65578
G1 X162.107 Y127.443 E7.66357
G1 X162.1 Y127.525 E7.66549
G1 X162.08 Y127.73 E7.67028
G1 X161.991 Y128.227 E7.68204
G1 X161.82 Y128.716 E7.6941
G1 X161.726 Y128.928 E7.6995
G1 X161.486 Y129.373 E7.71127
G1 X161.322 Y129.602 E7.71783
G1 X161.15 Y129.822 E7.72433
G1 X160.808 Y130.194 E7.7361
G1 X160.565 Y130.399 E7.7435
G1 X160.386 Y130.535 E7.74873
G1 X159.96 Y130.808 E7.76051
G1 X159.638 Y130.958 E7.76878
G1 X159.373 Y131.064 E7.77543
G1 X158.676 Y131.255 E7.79225
G1 X158.425 Y131.294 E7.79817
G1 X157.991 Y131.331 E7.80831
G1 X157.489 Y131.34 E7.82
G1 X157.432 Y131.341 E7.82132
G1 X156.052 Y131.341 E7.85345
G1 X155.198 Y131.329 E7.87334
G1 X155.032 Y131.322 E7.87721
G1 X154.684 Y131.299 E7.88533
G1 X154.376 Y131.264 E7.89254
G1 X151.715 Y130.826 E7.95533
G1 X148.999 Y130.455 E8.01915
G1 X146.258 Y130.16 E8.08334
G1 X143.555 Y129.946 E8.14647
G1 X140.799 Y129.806 E8.21071
G1 X137.261 Y129.741 E8.2931
G1 X124.469 Y129.741 E8.59092
G1 X121.672 Y129.781 E8.65605
G1 X118.955 Y129.896 E8.71937
G1 X116.209 Y130.091 E8.78346
G1 X113.503 Y130.359 E8.84677
G1 X110.783 Y130.707 E8.91061
G1 X107.227 Y131.28 E8.99447
G1 X106.973 Y131.311 E9.00043
G1 X106.773 Y131.327 E9.0051
G1 X106.551 Y131.337 E9.01027
G1 X106.163 Y131.341 E9.01931
G1 X90.608 Y131.341 E9.38146
G1 X89.994 Y131.332 E9.39576
G1 X89.616 Y131.304 E9.40458
G1 X89.258 Y131.256 E9.41299
G1 X88.764 Y131.149 E9.42476
G1 X88.427 Y131.027 E9.4331
G1 X88.188 Y130.925 E9.43915
G1 X87.74 Y130.691 E9.45092
G1 X87.481 Y130.509 E9.45829
G1 X87.275 Y130.349 E9.46436
G1 X86.902 Y130.009 E9.47612
G1 X86.69 Y129.758 E9.48376
G1 X86.554 Y129.579 E9.489
G1 X86.281 Y129.153 E9.50078
G1 X86.132 Y128.835 E9.50895
G1 X86.012 Y128.536 E9.51646
G1 X85.873 Y128.1 E9.52711
G1 X85.721 Y127.475 E9.54209
G1 X85.71 Y127.431 E9.54314
G1 X85.374 Y125.961 E9.57825
G1 X84.702 Y123.355 E9.64091
G1 X83.937 Y120.703 E9.70517
G1 X83.094 Y118.064 E9.76967
G1 X82.195 Y115.5 E9.83293
G1 X81.218 Y112.949 E9.89653
G1 X80.177 Y110.448 E9.9596
G1 X78.978 Y107.785 E10.02759
G1 X78.516 Y106.799 E10.05294
G1 X78.443 Y106.629 E10.05725
G1 X78.271 Y106.199 E10.06803
G1 X78.121 Y105.717 E10.07979
G1 X78.059 Y105.34 E10.08868
G1 X78.026 Y105.021 E10.09615
G1 X78.014 Y104.516 E10.10791
G1 X78.141 Y103.783 E10.12523
G1 X78.25 Y103.415 E10.13416
G1 X78.519 Y102.774 E10.15035
G1 X78.962 Y101.974 E10.17164
G1 X78.99 Y101.924 E10.17297
G1 X85.016 Y91.485 E10.4536
G1 X85.036 Y91.45 E10.45454
G1 X85.395 Y90.846 E10.4709
G1 X85.661 Y90.465 E10.48172
G1 X85.816 Y90.274 E10.48745
G1 X86.165 Y89.907 E10.49924
G1 F1500 E3.99924
;MESH:cover.stl
G0 F3600 X152.635 Y105.211
G0 X153.351 Y106.16
G0 X153.403 Y107.392
G0 X154.374 Y109.075
G0 X156.322 Y109.075
G0 X157.293 Y107.392
G0 X156.879 Y106.341
;TYPE:WALL-INNER
G1 F1500 E10.49924
G1 X157.223 Y106.341 E10.50725
G1 X157.224 Y106.341 E10.50727
G1 X158.348 Y106.341 E10.53344
G1 X158.348 Y124.641 E10.9595
G1 X158.348 Y124.946 E10.9666
G1 X158.172 Y124.641 E10.96905
G1 X156.037 Y124.641 E11.01875
G1 X154.968 Y126.491 E11.0685
G1 X155.415 Y127.263 E11.08927
G1 X155.536 Y127.473 E11.09491
G1 X155.575 Y127.541 E11.09674
G1 X155.42 Y127.541 E11.09836
G1 X155.177 Y127.529 E11.10237
G1 X155.001 Y127.52 E11.10648
G1 X154.923 Y127.49 E11.10842
G1 X154.873 Y127.457 E11.10982
G1 X154.732 Y127.271 E11.11525
G1 X154.578 Y126.817 E11.12641
G1 X154.184 Y126.311 E11.14134
G1 X153.792 Y126.071 E11.15205
G1 X153.211 Y125.941 E11.16591
G1 X108.582 Y125.941 E12.20496
G1 X108.196 Y125.994 E12.21404
G1 X107.625 Y126.277 E12.22887
G1 X107.312 Y126.614 E12.23958
G1 X107.085 Y127.118 E12.25245
G1 X107.027 Y127.284 E12.25654
G1 X106.889 Y127.462 E12.26179
G1 X106.853 Y127.484 E12.26277
G1 X106.598 Y127.541 E12.26885
G1 X92.566 Y127.541 E12.59555
G1 X92.565 Y127.541 E12.59557
G1 X92.221 Y127.541 E12.60358
G1 X92.393 Y127.243 E12.60813
G1 X92.828 Y126.491 E12.62835
G1 X91.759 Y124.641 E12.6781
G1 X89.624 Y124.641 E12.72781
G1 X89.548 Y124.773 E12.73135
G1 X89.548 Y124.641 E12.73154
G1 X89.548 Y117.136 E12.90627
G1 X81.902 Y105.083 E13.23859
G1 X81.805 Y104.826 E13.24499
G1 X81.802 Y104.768 E13.24634
G1 X81.875 Y104.525 E13.25225
G1 X88.634 Y92.815 E13.56704
G1 X88.736 Y92.691 E13.57077
G1 X88.815 Y92.634 E13.57304
G1 X88.917 Y92.597 E13.57557
G1 X89.025 Y92.587 E13.57809
G1 X89.12 Y92.603 E13.58034
G1 X89.596 Y92.848 E13.5928
G1 X92.3 Y94.409 E13.66549
G1 X92.432 Y94.516 E13.66945
G1 X92.492 Y94.598 E13.67181
G1 X92.533 Y94.705 E13.67448
G1 X92.548 Y94.818 E13.67714
G1 X92.548 Y105.516 E13.92621
G1 X92.548 Y105.517 E13.92623
G1 X92.548 Y105.861 E13.93424
G1 X92.25 Y105.689 E13.93879
G1 X91.498 Y105.255 E13.959
G1 X89.648 Y106.322 E14.00872
G1 X89.648 Y108.46 E14.0585
G1 X91.498 Y109.527 E14.10822
G1 X93.348 Y108.46 E14.15795
G1 X93.348 Y108.013 E14.16835
G1 X93.348 Y107.749 E14.1745
G1 X93.348 Y107.723 E14.1751
G1 X93.383 Y107.749 E14.17542
G1 X93.63 Y107.843 E14.17927
G1 X93.766 Y107.895 E14.18266
G1 X94.108 Y107.941 E14.19069
G1 X151.389 Y107.941 E15.52431
G1 X151.775 Y107.888 E15.53338
G1 X152.347 Y107.605 E15.54824
G1 X152.658 Y107.269 E15.5589
G1 X152.886 Y106.764 E15.5718
G1 X152.944 Y106.598 E15.5759
G1 X153.083 Y106.419 E15.58117
G1 X153.117 Y106.398 E15.5821
G1 X153.359 Y106.344 E15.58787
G1 X153.372 Y106.341 E15.58819
G1 X153.817 Y106.341 E15.59855
G1 X153.707 Y106.533 E15.60017
G1 X153.7 Y106.545 E15.60048
G1 X153.212 Y107.391 E15.62322
G1 X154.279 Y109.241 E15.67294
G1 X156.417 Y109.241 E15.72272
G1 X157.484 Y107.391 E15.77244
G1 X157.051 Y106.64 E15.79263
G1 X156.879 Y106.341 E15.79718
G0 F3600 X156.186 Y105.941
;TYPE:WALL-OUTER
G1 F1500 X154.51 Y105.941
G1 X154.338 Y106.24 E15.80521
G1 X153.674 Y107.391 E15.83615
G1 X154.51 Y108.841 E15.87512
G1 X156.186 Y108.841 E15.91414
G1 X157.022 Y107.391 E15.9531
G1 X156.358 Y106.24 E15.98404
G1 X156.186 Y105.941 E15.98858
G0 F3600 X155.986 Y105.941
G1 F1500 E9.48858
G0 F3600 X156.619 Y106.191
G0 X157.293 Y107.392
G0 X158.385 Y125.363
G0 X158.743 Y126.564
G0 X158.363 Y127.409
G0 X158.278 Y127.358
G1 F1500 E15.98858
G1 X158.379 Y127.182 E15.99331
G1 X158.584 Y126.827 E16.00285
G1 X158.748 Y126.545 E16.01045
G1 X158.748 Y126.921 E16.01317
G1 X158.708 Y127.372 E16.02087
G1 X158.625 Y127.558 E16.0255
G1 X158.62 Y127.564 E16.02568
G1 X158.497 Y127.716 E16.03023
G1 X158.326 Y127.84 E16.03515
G1 X158.13 Y127.915 E16.04004
G1 X157.941 Y127.94 E16.04447
G1 X157.998 Y127.84 E16.04455
G1 X158.08 Y127.699 E16.04621
G1 X158.177 Y127.532 E16.0494
G1 X158.275 Y127.363 E16.05377
G1 X158.278 Y127.358 E16.0539
G0 F3600 X158.378 Y127.184
G1 F1500 E9.5539
G0 F3600 X158.463 Y127.236
G0 X157.957 Y127.929
G0 X157.445 Y127.082
G0 X154.741 Y128.773
G0 X154.746 Y127.588
G0 X154.074 Y126.432
G0 X125.248 Y124.541
;TYPE:WALL-INNER
G1 F1500 E16.0539
G1 X147.948 Y124.541 E16.58241
G1 X147.948 Y109.341 E16.93629
G1 X125.248 Y109.341 E17.4648
G1 X125.248 Y124.541 E17.81869
G0 F3600 X125.648 Y124.141
;TYPE:WALL-OUTER
G1 F1500 X147.548 Y124.141 E18.32856
G1 X147.548 Y109.741 E18.66383
G1 X125.648 Y109.741 E19.1737
G1 X125.648 Y124.141 E19.50897
G0 F3600 X125.848 Y124.141
G0 X125.848 Y124.581
G0 X91.498 Y109.337
G0 X89.814 Y108.364
G0 X89.814 Y106.418
G0 X90.048 Y106.553
G1 F1500 X90.048 Y108.229 E19.54799
G1 X91.498 Y109.065 E19.58696
G1 X92.948 Y108.229 E19.62592
G1 X92.948 Y107.234 E19.64909
G1 X92.948 Y107.21 E19.64965
G1 X92.948 Y106.968 E19.65528
G1 X92.948 Y106.681 E19.66196
G1 X92.948 Y106.553 E19.66494
G1 X92.863 Y106.504 E19.66723
G1 X92.691 Y106.405 E19.67185
G1 X91.498 Y105.717 E19.70391
G1 X90.399 Y106.351 E19.73345
G1 X90.048 Y106.553 E19.74288
G0 F3600 X90.048 Y106.753
G0 X89.608 Y106.753
G1 F1500 E13.24288
G0 F3600 X89.406 Y125.778
G0 X89.153 Y126.738
G0 X89.747 Y127.806
G0 X89.804 Y127.854
G1 F1500 E19.74288
G1 X89.844 Y127.922 E19.74472
G1 X89.721 Y127.903 E19.74572
G1 X89.547 Y127.826 E19.74858
G1 X89.531 Y127.818 E19.749
G1 X89.493 Y127.787 E19.75014
G1 X89.373 Y127.69 E19.75373
G1 X89.249 Y127.519 E19.75865
G1 X89.177 Y127.332 E19.76332
G1 X89.148 Y126.907 E19.77323
G1 X89.148 Y126.718 E19.77763
G1 X89.229 Y126.859 E19.77792
G1 X89.421 Y127.19 E19.78261
G1 X89.52 Y127.362 E19.78619
G1 X89.625 Y127.544 E19.78988
G1 X89.652 Y127.59 E19.79036
G1 X89.72 Y127.708 E19.79196
G1 X89.804 Y127.854 E19.79342
G0 F3600 X89.844 Y127.922
G0 X89.723 Y127.904
G1 F1500 E13.29342
G0 F3600 X89.68 Y127.838
G0 X91.545 Y127.932
G0 X92.625 Y126.642
G0 X92.366 Y126.491
G1 F1500 E19.79342
G1 X91.528 Y125.041 E19.83241
G1 X89.855 Y125.041 E19.87136
G1 X89.521 Y125.619 E19.88691
G1 X89.148 Y126.264 E19.90425
G1 X89.148 Y125.519 E19.91322
G1 X89.148 Y117.252 E20.10569
G1 X81.543 Y105.264 E20.43623
G1 X81.408 Y104.906 E20.44513
G1 X81.399 Y104.721 E20.44945
G1 X81.505 Y104.367 E20.45805
G1 X88.306 Y92.584 E20.7748
G1 X88.459 Y92.397 E20.78042
G1 X88.629 Y92.275 E20.7853
G1 X88.827 Y92.204 E20.79019
G1 X89.041 Y92.184 E20.7952
G1 X89.25 Y92.22 E20.80013
G1 X89.779 Y92.492 E20.81398
G1 X92.531 Y94.081 E20.88797
G1 X92.725 Y94.238 E20.89378
G1 X92.847 Y94.406 E20.89861
G1 X92.922 Y94.602 E20.9035
G1 X92.948 Y94.795 E20.90803
G1 X92.948 Y106.157 E21.17257
G1 X92.948 Y106.356 E21.17605
G1 X92.977 Y106.548 E21.17824
G1 X92.998 Y106.681 E21.17862
G1 X93.126 Y106.968 E21.18104
G1 X93.323 Y107.21 E21.18643
G1 X93.342 Y107.224 E21.18696
G1 X93.576 Y107.394 E21.1937
G1 X93.865 Y107.505 E21.20091
G1 X94.135 Y107.541 E21.20725
