;FLAVOR:Marlin
;TIME:1009
;Filament used: 0m, 1.00267m
;Layer height: 0.3
;MINX:69.329
;MINY:88.849
;MINZ:0.2
;MAXX:170.652
;MAXY:131.168
;MAXZ:7.1
;Generated with Cura_SteamEngine 4.4.1
T1
M140 S65
M105
M190 S65
M104 S200
M105
M109 S200
M82 ;absolute extrusion mode
G28 ;Home
G1 Z15.0 F6000 ;Move the platform down 15mm
;Prime the extruder
G92 E0
G1 F200 E3
G92 E0
G92 E0
t1
G92 E0
G1 F1500 E-6.5
;LAYER_COUNT:24
;LAYER:0
M106 S255
G0 F3600 X70.708 Y104.552 Z0.2
;TYPE:SKIRT
G1 F1500 E0
G1 X71.144 Y104.296 E0.01177
G1 X71.615 Y104.113 E0.02354
G1 X72.11 Y104.006 E0.03533
G1 X72.448 Y103.978 E0.04322
G1 X72.769 Y103.969 E0.0507
G1 X72.859 Y103.968 E0.0528
G1 X88.848 Y103.968 E0.42505
G1 X89.401 Y103.976 E0.43793
G1 X89.501 Y103.979 E0.44026
G1 X90.049 Y104.004 E0.45303
G1 X90.31 Y104.027 E0.45913
G1 X91.885 Y104.229 E0.4961
G1 X91.926 Y104.235 E0.49706
G1 X92.286 Y104.286 E0.50553
G1 X95.036 Y104.609 E0.57
G1 X97.745 Y104.849 E0.63331
G1 X100.491 Y105.015 E0.69736
G1 X103.208 Y105.101 E0.76065
G1 X105.961 Y105.112 E0.82475
G1 X108.713 Y105.044 E0.88884
G1 X111.395 Y104.901 E0.95137
G1 X114.17 Y104.676 E1.01619
G1 X116.873 Y104.379 E1.0795
G1 X119.611 Y103.999 E1.14386
G1 X122.28 Y103.552 E1.20686
G1 X124.977 Y103.021 E1.27086
G1 X127.642 Y102.417 E1.33448
G1 X130.308 Y101.735 E1.39855
G1 X132.926 Y100.985 E1.46196
G1 X135.544 Y100.154 E1.5259
G1 X138.139 Y99.248 E1.5899
G1 X140.693 Y98.275 E1.65353
G1 X143.178 Y97.245 E1.71616
G1 X145.729 Y96.106 E1.7812
G1 X148.198 Y94.916 E1.84501
G1 X150.596 Y93.676 E1.90787
G1 X153.392 Y92.121 E1.98235
G1 X157.6 Y89.691 E2.09549
G1 X157.633 Y89.672 E2.09637
G1 X158.372 Y89.257 E2.11611
G1 X158.831 Y89.045 E2.12788
G1 X159.318 Y88.908 E2.13966
G1 X159.82 Y88.849 E2.15142
G1 X160.325 Y88.87 E2.16319
G1 X160.821 Y88.971 E2.17498
G1 X161.294 Y89.148 E2.18674
G1 X161.734 Y89.398 E2.19852
G1 X162.129 Y89.713 E2.21028
G1 X162.469 Y90.087 E2.22205
G1 X162.636 Y90.325 E2.22882
G1 X162.763 Y90.524 E2.23431
G1 X162.837 Y90.646 E2.23764
G1 X169.905 Y102.884 E2.56667
G1 X169.927 Y102.922 E2.56769
G1 X170.247 Y103.494 E2.58295
G1 X170.458 Y103.953 E2.59471
G1 X170.594 Y104.44 E2.60648
G1 X170.652 Y104.942 E2.61825
G1 X170.63 Y105.447 E2.63002
G1 X170.529 Y105.943 E2.6418
G1 X170.263 Y106.589 E2.65807
G1 X169.705 Y107.611 E2.68518
G1 X168.395 Y110.039 E2.74941
G1 X167.155 Y112.501 E2.81359
G1 X166 Y114.97 E2.87705
G1 X164.92 Y117.459 E2.94022
G1 X163.889 Y120.027 E3.00465
G1 X162.944 Y122.591 E3.06827
G1 X162.067 Y125.197 E3.13229
G1 X161.276 Y127.784 E3.19527
G1 X161.004 Y128.747 E3.21857
G1 X160.952 Y128.911 E3.22257
G1 X160.924 Y128.993 E3.22459
G1 X160.724 Y129.457 E3.23635
G1 X160.452 Y129.884 E3.24814
G1 X160.117 Y130.262 E3.2599
G1 X159.727 Y130.583 E3.27166
G1 X159.291 Y130.839 E3.28343
G1 X158.82 Y131.023 E3.2952
G1 X158.326 Y131.13 E3.30697
G1 X157.986 Y131.158 E3.31492
G1 X157.667 Y131.167 E3.32235
G1 X157.577 Y131.168 E3.32444
G1 X88.568 Y131.168 E4.93112
G1 X87.867 Y131.158 E4.94744
G1 X87.364 Y131.111 E4.9592
G1 X86.874 Y130.985 E4.97098
G1 X86.411 Y130.783 E4.98274
G1 X86.08 Y130.581 E4.99177
G1 X84.685 Y129.606 E5.03139
G1 X82.361 Y128.042 E5.09661
G1 X80.069 Y126.591 E5.15977
G1 X77.714 Y125.194 E5.22352
G1 X75.304 Y123.853 E5.28773
G1 X72.893 Y122.6 E5.35099
G1 X71.674 Y122.008 E5.38254
G1 X71.638 Y121.99 E5.38348
G1 X71.102 Y121.721 E5.39744
G1 X70.669 Y121.459 E5.40923
G1 X70.283 Y121.133 E5.42099
G1 X69.954 Y120.749 E5.43276
G1 X69.688 Y120.319 E5.44453
G1 X69.494 Y119.852 E5.45631
G1 X69.376 Y119.36 E5.46809
G1 X69.338 Y118.94 E5.47791
G1 X69.33 Y118.617 E5.48543
G1 X69.329 Y118.538 E5.48727
G1 X69.329 Y116.351 E5.53818
G1 X69.349 Y114.932 E5.57123
G1 X69.349 Y112.181 E5.63527
G1 X69.334 Y111.544 E5.65011
G1 X69.333 Y111.494 E5.65127
G1 X69.329 Y110.977 E5.66331
G1 X69.329 Y107.821 E5.73679
G1 X69.338 Y107.135 E5.75276
G1 X69.385 Y106.632 E5.76452
G1 X69.51 Y106.142 E5.7763
G1 X69.711 Y105.678 E5.78807
G1 X69.982 Y105.251 E5.79985
G1 X70.317 Y104.873 E5.8116
G1 X70.708 Y104.552 E5.82338
G1 F1500 E-0.67662
;MESH:Body49.stl
G0 F3600 X73.143 Y106.503
G0 X73.143 Y107.782
G0 X88.535 Y118.24
G0 X90.875 Y125.404
G0 X90.945 Y125.334
;TYPE:WALL-INNER
G1 F1500 E5.82338
G1 X95.643 Y125.334 E5.93276
G1 X95.643 Y119.636 E6.06542
G1 X90.945 Y119.636 E6.1748
G1 X90.945 Y125.334 E6.30746
G0 F3600 X91.345 Y124.934
;TYPE:WALL-OUTER
G1 F1500 X95.243 Y124.934 E6.39822
G1 X95.243 Y120.036 E6.51225
G1 X91.345 Y120.036 E6.60301
G1 X91.345 Y124.934 E6.71704
G0 F3600 X91.545 Y124.934
G0 X91.545 Y125.374
G0 X91.545 Y125.434
G0 X96.275 Y125.404
G0 X96.345 Y125.334
;TYPE:WALL-INNER
G1 F1500 X101.043 Y125.334 E6.82642
G1 X101.043 Y119.636 E6.95908
G1 X96.345 Y119.636 E7.06846
G1 X96.345 Y125.334 E7.20112
G0 F3600 X96.745 Y124.934
;TYPE:WALL-OUTER
G1 F1500 X100.643 Y124.934 E7.29188
G1 X100.643 Y120.036 E7.40591
G1 X96.745 Y120.036 E7.49667
G1 X96.745 Y124.934 E7.6107
G0 F3600 X96.945 Y124.934
G0 X96.945 Y125.374
G0 X96.945 Y125.434
G0 X101.675 Y125.404
G0 X101.745 Y125.334
;TYPE:WALL-INNER
G1 F1500 X106.443 Y125.334 E7.72008
G1 X106.443 Y119.636 E7.85274
G1 X101.745 Y119.636 E7.96212
G1 X101.745 Y125.334 E8.09478
G0 F3600 X102.145 Y124.934
;TYPE:WALL-OUTER
G1 F1500 X106.043 Y124.934 E8.18554
G1 X106.043 Y120.036 E8.29957
G1 X102.145 Y120.036 E8.39033
G1 X102.145 Y124.934 E8.50436
G0 F3600 X102.345 Y124.934
G0 X102.345 Y125.374
G0 X102.345 Y125.434
G0 X107.075 Y125.404
G0 X107.145 Y125.334
;TYPE:WALL-INNER
G1 F1500 X111.843 Y125.334 E8.61374
G1 X111.843 Y119.636 E8.7464
G1 X107.145 Y119.636 E8.85578
G1 X107.145 Y125.334 E8.98844
G0 F3600 X107.545 Y124.934
;TYPE:WALL-OUTER
G1 F1500 X111.443 Y124.934 E9.0792
G1 X111.443 Y120.036 E9.19323
G1 X107.545 Y120.036 E9.28399
G1 X107.545 Y124.934 E9.39802
G0 F3600 X107.745 Y124.934
G0 X107.745 Y125.374
G0 X107.745 Y125.434
G0 X112.475 Y125.404
G0 X112.545 Y125.334
;TYPE:WALL-INNER
G1 F1500 X117.243 Y125.334 E9.5074
G1 X117.243 Y119.636 E9.64006
G1 X112.545 Y119.636 E9.74944
G1 X112.545 Y125.334 E9.8821
G0 F3600 X112.945 Y124.934
;TYPE:WALL-OUTER
G1 F1500 X116.843 Y124.934 E9.97286
G1 X116.843 Y120.036 E10.08689
G1 X112.945 Y120.036 E10.17765
G1 X112.945 Y124.934 E10.29168
G0 F3600 X113.145 Y124.934
G0 X113.145 Y125.374
G0 X113.145 Y125.434
G0 X117.875 Y125.404
G0 X117.945 Y125.334
;TYPE:WALL-INNER
G1 F1500 X122.643 Y125.334 E10.40106
G1 X122.643 Y119.636 E10.53372
G1 X117.945 Y119.636 E10.6431
G1 X117.945 Y125.334 E10.77576
G0 F3600 X118.345 Y124.934
;TYPE:WALL-OUTER
G1 F1500 X122.243 Y124.934 E10.86652
G1 X122.243 Y120.036 E10.98055
G1 X118.345 Y120.036 E11.07131
G1 X118.345 Y124.934 E11.18534
G0 F3600 X118.545 Y124.934
G0 X118.545 Y125.374
G0 X118.545 Y125.434
G0 X123.275 Y125.404
G0 X123.345 Y125.334
;TYPE:WALL-INNER
G1 F1500 X128.043 Y125.334 E11.29472
G1 X128.043 Y119.636 E11.42738
G1 X123.345 Y119.636 E11.53676
G1 X123.345 Y125.334 E11.66942
G0 F3600 X123.745 Y124.934
;TYPE:WALL-OUTER
G1 F1500 X127.643 Y124.934 E11.76018
G1 X127.643 Y120.036 E11.87421
G1 X123.745 Y120.036 E11.96497
G1 X123.745 Y124.934 E12.079
G0 F3600 X123.945 Y124.934
G0 X123.945 Y125.374
G0 X123.945 Y125.434
G0 X128.675 Y125.404
G0 X128.745 Y125.334
;TYPE:WALL-INNER
G1 F1500 X133.443 Y125.334 E12.18838
G1 X133.443 Y119.636 E12.32104
G1 X128.745 Y119.636 E12.43042
G1 X128.745 Y125.334 E12.56308
G0 F3600 X129.145 Y124.934
;TYPE:WALL-OUTER
G1 F1500 X133.043 Y124.934 E12.65384
G1 X133.043 Y120.036 E12.76787
G1 X129.145 Y120.036 E12.85863
G1 X129.145 Y124.934 E12.97266
G0 F3600 X129.345 Y124.934
G0 X129.345 Y125.374
G0 X129.345 Y125.434
G0 X134.075 Y125.404
G0 X134.145 Y125.334
;TYPE:WALL-INNER
G1 F1500 X138.843 Y125.334 E13.08204
G1 X138.843 Y119.636 E13.2147
G1 X134.145 Y119.636 E13.32408
G1 X134.145 Y125.334 E13.45674
G0 F3600 X134.545 Y124.934
;TYPE:WALL-OUTER
G1 F1500 X138.443 Y124.934 E13.5475
G1 X138.443 Y120.036 E13.66153
G1 X134.545 Y120.036 E13.75229
G1 X134.545 Y124.934 E13.86632
G0 F3600 X134.745 Y124.934
G0 X134.745 Y125.374
G0 X134.745 Y125.434
G0 X139.475 Y125.404
G0 X139.545 Y125.334
;TYPE:WALL-INNER
G1 F1500 X144.243 Y125.334 E13.9757
G1 X144.243 Y119.636 E14.10836
G1 X139.545 Y119.636 E14.21774
G1 X139.545 Y125.334 E14.3504
G0 F3600 X139.945 Y124.934
;TYPE:WALL-OUTER
G1 F1500 X143.843 Y124.934 E14.44116
G1 X143.843 Y120.036 E14.55519
G1 X139.945 Y120.036 E14.64595
G1 X139.945 Y124.934 E14.75998
G0 F3600 X140.145 Y124.934
G0 X140.145 Y125.374
G0 X140.145 Y125.434
G0 X144.875 Y125.404
G0 X144.945 Y125.334
;TYPE:WALL-INNER
G1 F1500 X155.061 Y125.334 E14.9955
G1 X155.061 Y119.636 E15.12816
G1 X144.945 Y119.636 E15.36369
G1 X144.945 Y125.334 E15.49635
G0 F3600 X145.345 Y124.934
;TYPE:WALL-OUTER
G1 F1500 X154.661 Y124.934 E15.71324
G1 X154.661 Y120.036 E15.82728
G1 X145.345 Y120.036 E16.04418
G1 X145.345 Y124.934 E16.15821
G0 F3600 X145.545 Y124.934
G0 X145.545 Y125.374
G0 X145.545 Y125.434
G0 X144.917 Y119.608
G0 X154.577 Y109.438
G0 X154.507 Y109.368
;TYPE:WALL-INNER
G1 F1500 X154.507 Y95.865 E16.47259
G1 X159.554 Y92.95 E16.60829
G1 X159.726 Y92.851 E16.61291
G1 X159.825 Y93.023 E16.61589
G1 X166.766 Y105.044 E16.93907
G1 X157.307 Y119.186 E17.33519
G1 X157.307 Y127.368 E17.52568
G1 X88.507 Y127.368 E19.12749
G1 X88.507 Y118.268 E19.33936
G1 X73.129 Y118.268 E19.69739
G1 X73.129 Y116.295 E19.74332
G1 X74.927 Y116.294 E19.78519
G1 X75.308 Y115.393 E19.80796
G1 X75.584 Y114.513 E19.82943
G1 X75.705 Y113.518 E19.85277
G1 X75.585 Y112.53 E19.87594
G1 X75.416 Y111.947 E19.89007
G1 X74.936 Y110.741 E19.92029
G1 X73.328 Y110.742 E19.95773
G1 X73.129 Y110.742 E19.96237
G1 X73.129 Y110.543 E19.96536
G1 X73.129 Y107.768 E20.02997
G1 X89.487 Y107.768 E20.41082
G1 X89.964 Y107.798 E20.42195
G1 X90.131 Y107.855 E20.42605
G1 X90.299 Y107.957 E20.43063
G1 X90.439 Y108.092 E20.43516
G1 X90.802 Y108.627 E20.45021
G1 X91.136 Y108.944 E20.46093
G1 X91.528 Y109.179 E20.47157
G1 X91.96 Y109.322 E20.48217
G1 X92.374 Y109.368 E20.49187
G1 X154.507 Y109.368 E21.93845
G0 F3600 X154.107 Y108.968
;TYPE:WALL-OUTER
G1 F1500 X154.107 Y95.634 E22.2489
G1 X159.699 Y92.405 E22.39924
G1 X159.872 Y92.305 E22.40389
G1 X159.972 Y92.478 E22.40689
G1 X167.236 Y105.059 E22.74512
G1 X157.707 Y119.307 E23.1442
G1 X157.707 Y127.768 E23.34119
G1 X88.107 Y127.768 E24.96162
G1 X88.107 Y118.668 E25.17349
G1 X72.729 Y118.668 E25.53152
G1 X72.729 Y115.895 E25.59608
G1 X74.662 Y115.894 E25.64108
G1 X74.932 Y115.255 E25.65723
G1 X75.191 Y114.428 E25.67741
G1 X75.302 Y113.518 E25.69875
G1 X75.192 Y112.61 E25.72005
G1 X75.037 Y112.077 E25.73297
G1 X74.665 Y111.141 E25.75642
G1 X72.929 Y111.142 E25.79684
G1 X72.729 Y111.142 E25.8015
G1 X72.729 Y110.942 E25.80451
G1 X72.729 Y107.368 E25.88772
G1 X89.496 Y107.368 E26.27809
G1 X90.043 Y107.402 E26.29085
G1 X90.302 Y107.491 E26.29723
G1 X90.546 Y107.639 E26.30387
G1 X90.745 Y107.83 E26.3103
G1 X91.109 Y108.367 E26.3254
G1 X91.379 Y108.623 E26.33406
G1 X91.696 Y108.813 E26.34267
G1 X92.046 Y108.929 E26.35125
G1 X92.396 Y108.968 E26.35945
G1 X154.107 Y108.968 E27.79621
G0 F3600 X154.107 Y108.768
G0 X154.547 Y108.768
G0 X154.607 Y108.768
G0 X154.897 Y109.758
;TYPE:SKIN
G1 F1500 X154.897 Y96.09 E28.11443
G1 X159.583 Y93.384 E28.24042
G1 X166.307 Y105.029 E28.55349
G1 X156.917 Y119.067 E28.9467
G1 X156.917 Y126.978 E29.13088
G1 X88.897 Y126.978 E30.71453
G1 X88.897 Y117.878 E30.9264
G1 X73.519 Y117.878 E31.28443
G1 X73.519 Y116.685 E31.3122
G1 X75.186 Y116.684 E31.35102
G1 X75.675 Y115.528 E31.38024
G1 X75.967 Y114.595 E31.403
G1 X76.097 Y113.518 E31.42826
G1 X75.969 Y112.452 E31.45325
G1 X75.785 Y111.82 E31.46858
G1 X75.201 Y110.351 E31.50538
G1 X73.519 Y110.352 E31.54454
G1 X73.519 Y108.158 E31.59563
G1 X89.462 Y108.158 E31.96681
G1 X89.893 Y108.185 E31.97687
G1 X89.962 Y108.209 E31.97857
G1 X90.061 Y108.269 E31.98126
G1 X90.138 Y108.343 E31.98375
G1 X90.503 Y108.881 E31.99889
G1 X90.898 Y109.256 E32.01157
G1 X91.365 Y109.536 E32.02424
G1 X91.876 Y109.705 E32.03677
G1 X92.352 Y109.758 E32.04792
G1 X154.897 Y109.758 E33.5041
G0 F3600 X155.451 Y119.246
G1 F1500 X90.555 Y119.246 E35.01502
G1 X90.555 Y125.724 E35.16584
G1 X155.451 Y125.724 E36.67675
G1 X155.451 Y119.246 E36.82758
G0 F3600 X159.347 Y93.727
G1 F1500 X159.881 Y94.262 E36.84517
G0 F3600 X158.988 Y93.934
G1 F1500 X160.654 Y95.6 E36.90003
G1 X160.724 Y95.67
G0 F3600 X161.428 Y96.94
G1 F1500 X158.629 Y94.141 E36.99219
G0 F3600 X158.271 Y94.348
G1 F1500 X162.201 Y98.278 E37.12159
G1 X162.271 Y98.348
G0 F3600 X162.973 Y99.617
G1 F1500 X157.912 Y94.555 E37.28824
G0 F3600 X157.553 Y94.762
G1 F1500 X163.747 Y100.956 E37.49218
G1 X163.817 Y101.026
G0 F3600 X164.52 Y102.295
G1 F1500 X157.195 Y94.97 E37.73337
G0 F3600 X156.836 Y95.177
G1 F1500 X165.293 Y103.633 E38.0118
G1 X165.363 Y103.703
G0 F3600 X166.066 Y104.972
G1 F1500 X156.477 Y95.383 E38.32753
G0 F3600 X156.119 Y95.59
G1 F1500 X165.877 Y105.349 E38.64884
G0 F3600 X165.65 Y105.687
G1 F1500 X155.76 Y95.798 E38.97446
G0 F3600 X155.402 Y96.005
G1 F1500 X165.424 Y106.027 E39.30444
G0 F3600 X165.197 Y106.365
G1 F1500 X155.076 Y96.245 E39.63767
G0 F3600 X155.076 Y96.81
G1 F1500 X164.97 Y106.704 E39.96343
G0 F3600 X164.743 Y107.043
G1 F1500 X155.076 Y97.376 E40.28173
G0 F3600 X155.076 Y97.942
G1 F1500 X164.516 Y107.382 E40.59255
G0 F3600 X164.289 Y107.721
G1 F1500 X155.076 Y98.507 E40.89591
G0 F3600 X155.076 Y99.073
G1 F1500 X164.063 Y108.06 E41.19182
G0 F3600 X163.836 Y108.399
G1 F1500 X155.076 Y99.639 E41.48025
G0 F3600 X155.076 Y100.204
G1 F1500 X163.609 Y108.738 E41.76122
G0 F3600 X163.383 Y109.077
G1 F1500 X155.076 Y100.77 E42.03473
G0 F3600 X155.076 Y101.336
G1 F1500 X163.156 Y109.416 E42.30077
G0 F3600 X162.929 Y109.754
G1 F1500 X155.076 Y101.901 E42.55934
G0 F3600 X155.076 Y102.467
G1 F1500 X162.703 Y110.094 E42.81047
G0 F3600 X162.476 Y110.433
G1 F1500 X155.076 Y103.033 E43.05412
G0 F3600 X155.076 Y103.598
G1 F1500 X162.249 Y110.771 E43.2903
G0 F3600 X162.022 Y111.111
G1 F1500 X155.076 Y104.164 E43.51901
G0 F3600 X155.076 Y104.73
G1 F1500 X161.795 Y111.449 E43.74024
G0 F3600 X161.568 Y111.788
G1 F1500 X155.076 Y105.295 E43.95401
G0 F3600 X155.076 Y105.861
G1 F1500 X161.342 Y112.128 E44.16034
G0 F3600 X161.115 Y112.466
G1 F1500 X155.076 Y106.427 E44.35918
G0 F3600 X155.076 Y106.993
G1 F1500 X160.888 Y112.805 E44.55055
G0 F3600 X160.662 Y113.144
G1 F1500 X155.076 Y107.558 E44.73447
G0 F3600 X155.076 Y108.124
G1 F1500 X160.435 Y113.483 E44.91092
G0 F3600 X160.208 Y113.822
G1 F1500 X155.076 Y108.69 E45.0799
G0 F3600 X155.076 Y109.255
G1 F1500 X159.982 Y114.161 E45.24143
G0 F3600 X159.755 Y114.5
G1 F1500 X155.076 Y109.821 E45.39549
G0 F3600 X154.626 Y109.937
G1 F1500 X159.528 Y114.839 E45.55689
G0 F3600 X159.301 Y115.178
G1 F1500 X154.06 Y109.937 E45.72946
G0 F3600 X153.495 Y109.937
G1 F1500 X159.074 Y115.517 E45.91317
G0 F3600 X158.848 Y115.855
G1 F1500 X152.929 Y109.937 E46.10804
G0 F3600 X152.363 Y109.937
G1 F1500 X158.621 Y116.195 E46.31409
G0 F3600 X158.394 Y116.534
G1 F1500 X151.798 Y109.937 E46.53129
G0 F3600 X151.232 Y109.937
G1 F1500 X158.167 Y116.872 E46.75963
G0 F3600 X157.941 Y117.212
G1 F1500 X150.666 Y109.937 E46.99916
G0 F3600 X150.101 Y109.937
G1 F1500 X157.714 Y117.55 E47.24983
G0 F3600 X157.487 Y117.889
G1 F1500 X149.535 Y109.937 E47.51165
G0 F3600 X148.969 Y109.937
G1 F1500 X157.261 Y118.228 E47.78466
G0 F3600 X157.034 Y118.567
G1 F1500 X148.404 Y109.937 E48.06881
G0 F3600 X147.838 Y109.937
G1 F1500 X156.807 Y118.907 E48.36414
G0 F3600 X156.736 Y119.401
G1 F1500 X147.272 Y109.937 E48.67575
G0 F3600 X146.706 Y109.937
G1 F1500 X156.736 Y119.967 E49.00599
G0 F3600 X156.736 Y120.532
G1 F1500 X155.63 Y119.426 E49.04241
G0 F3600 X155.269 Y119.065
G1 F1500 X146.141 Y109.937 E49.34296
G0 F3600 X145.575 Y109.937
G1 F1500 X154.703 Y119.065 E49.6435
G0 F3600 X154.137 Y119.065
G1 F1500 X145.009 Y109.937 E49.94405
G0 F3600 X144.444 Y109.937
G1 F1500 X153.572 Y119.065 E50.2446
G0 F3600 X153.006 Y119.065
G1 F1500 X143.878 Y109.937 E50.54515
G0 F3600 X143.312 Y109.937
G1 F1500 X152.44 Y119.065 E50.84569
G0 F3600 X151.875 Y119.065
G1 F1500 X142.747 Y109.937 E51.14624
G0 F3600 X142.181 Y109.937
G1 F1500 X151.309 Y119.065 E51.44679
G0 F3600 X150.743 Y119.065
