;FLAVOR:Marlin
;TIME:1177
;Filament used: 0m, 1.14109m
;Layer height: 0.3
;MINX:69.453
;MINY:88.234
;MINZ:0.2
;MAXX:170.529
;MAXY:131.784
;MAXZ:7.1
;Generated with Cura_SteamEngine 4.4.1
T1
M140 S65
M105
M190 S65
M104 S200
M105
M109 S200
M82 ;absolute extrusion mode
G28 ;Home
G1 Z15.0 F6000 ;Move the platform down 15mm
;Prime the extruder
G92 E0
G1 F200 E3
G92 E0
G92 E0
t1
G92 E0
G1 F1500 E-6.5
;LAYER_COUNT:24
;LAYER:0
M106 S255
G0 F3600 X70.833 Y103.567 Z0.2
;TYPE:SKIRT
G1 F1500 E0
G1 X71.269 Y103.312 E0.01176
G1 X71.74 Y103.129 E0.02352
G1 X72.234 Y103.022 E0.03529
G1 X72.572 Y102.994 E0.04319
G1 X72.893 Y102.985 E0.05067
G1 X72.983 Y102.984 E0.05276
G1 X93.106 Y102.984 E0.52127
G1 X93.957 Y102.996 E0.54108
G1 X94.111 Y103.002 E0.54467
G1 X94.497 Y103.026 E0.55367
G1 X94.593 Y103.034 E0.55592
G1 X94.993 Y103.071 E0.56527
G1 X95.037 Y103.075 E0.5663
G1 X96.958 Y103.279 E0.61127
G1 X99.67 Y103.491 E0.67461
G1 X102.418 Y103.627 E0.73867
G1 X105.137 Y103.685 E0.80198
G1 X107.889 Y103.666 E0.86606
G1 X110.603 Y103.57 E0.92928
G1 X113.357 Y103.395 E0.99353
G1 X116.092 Y103.143 E1.05748
G1 X118.792 Y102.817 E1.1208
G1 X121.525 Y102.408 E1.18514
G1 X124.189 Y101.932 E1.24814
G1 X126.88 Y101.373 E1.31213
G1 X129.54 Y100.741 E1.37579
G1 X132.17 Y100.037 E1.43917
G1 X134.837 Y99.242 E1.50397
G1 X137.392 Y98.4 E1.5666
G1 X140 Y97.459 E1.63115
G1 X142.525 Y96.465 E1.69433
G1 X145.063 Y95.384 E1.75856
G1 X147.552 Y94.238 E1.82235
G1 X149.983 Y93.035 E1.8855
G1 X152.413 Y91.746 E1.94954
G1 X154.271 Y90.7 E1.99919
G1 X154.271 Y90.701 E1.99921
G1 X156.986 Y89.133 E2.0722
G1 X157.025 Y89.111 E2.07325
G1 X157.628 Y88.774 E2.08933
G1 X157.989 Y88.6 E2.09866
G1 X158.214 Y88.509 E2.10431
G1 X158.696 Y88.358 E2.11607
G1 X158.949 Y88.31 E2.12207
G1 X159.235 Y88.268 E2.1288
G1 X159.74 Y88.234 E2.14058
G1 X160.243 Y88.28 E2.15234
G1 X160.547 Y88.348 E2.15959
G1 X161.039 Y88.483 E2.17147
G1 X161.514 Y88.655 E2.18323
G1 X162.122 Y89.016 E2.1997
G1 X162.29 Y89.143 E2.2046
G1 X162.668 Y89.479 E2.21637
G1 X162.974 Y89.851 E2.22759
G1 X163.202 Y90.174 E2.23679
G1 X163.328 Y90.365 E2.24212
G1 X163.937 Y91.374 E2.26956
G1 X163.968 Y91.428 E2.27101
G1 X169.643 Y101.258 E2.53527
G1 X169.665 Y101.296 E2.5363
G1 X169.98 Y101.859 E2.55132
G1 X170.234 Y102.442 E2.56612
G1 X170.376 Y102.884 E2.57693
G1 X170.492 Y103.376 E2.5887
G1 X170.529 Y103.88 E2.60046
G1 X170.498 Y104.309 E2.61048
G1 X170.44 Y104.721 E2.62017
G1 X170.33 Y105.215 E2.63195
G1 X170.146 Y105.681 E2.64361
G1 X169.853 Y106.28 E2.65914
G1 X169.818 Y106.349 E2.66094
G1 X169.118 Y107.697 E2.6963
G1 X167.944 Y110.123 E2.75905
G1 X166.805 Y112.657 E2.82373
G1 X165.768 Y115.146 E2.88651
G1 X164.764 Y117.762 E2.95175
G1 X163.867 Y120.323 E3.01493
G1 X163.036 Y122.922 E3.07845
G1 X162.277 Y125.55 E3.14214
G1 X161.645 Y127.985 E3.20071
G1 X161.493 Y128.604 E3.21555
G1 X161.339 Y129.071 E3.227
G1 X161.257 Y129.268 E3.23197
G1 X161.027 Y129.718 E3.24373
G1 X160.865 Y129.955 E3.25042
G1 X160.669 Y130.217 E3.25803
G1 X160.335 Y130.597 E3.26981
G1 X160.042 Y130.849 E3.27881
G1 X159.855 Y130.991 E3.28428
G1 X159.43 Y131.263 E3.29603
G1 X159.17 Y131.388 E3.30274
G1 X158.939 Y131.486 E3.30858
G1 X158.459 Y131.646 E3.32036
G1 X158.056 Y131.719 E3.3299
G1 X157.77 Y131.752 E3.3366
G1 X157.449 Y131.773 E3.34409
G1 X156.689 Y131.784 E3.36179
G1 X141.651 Y131.784 E3.7119
G1 X140.91 Y131.774 E3.72916
G1 X140.761 Y131.768 E3.73263
G1 X140.294 Y131.74 E3.74352
G1 X139.992 Y131.708 E3.75059
G1 X139.435 Y131.621 E3.76372
G1 X139.393 Y131.614 E3.76471
G1 X137.767 Y131.337 E3.80311
G1 X135.037 Y130.952 E3.8673
G1 X132.338 Y130.649 E3.93053
G1 X129.591 Y130.418 E3.99472
G1 X126.869 Y130.267 E4.05819
G1 X122.854 Y130.184 E4.15168
G1 X110.181 Y130.184 E4.44674
G1 X107.384 Y130.224 E4.51186
G1 X104.667 Y130.339 E4.57518
G1 X101.921 Y130.534 E4.63927
G1 X99.215 Y130.802 E4.70258
G1 X96.492 Y131.15 E4.76649
G1 X93.781 Y131.576 E4.83039
G1 X93.424 Y131.64 E4.83883
G1 X93.366 Y131.65 E4.8402
G1 X93.003 Y131.708 E4.84876
G1 X92.589 Y131.747 E4.85844
G1 X92.064 Y131.762 E4.87067
G1 X92 Y131.763 E4.87216
G1 X90.244 Y131.778 E4.91304
G1 X90.2 Y131.778 E4.91407
G1 X89.458 Y131.774 E4.93134
G1 X89.105 Y131.753 E4.93958
G1 X88.796 Y131.717 E4.94682
G1 X88.3 Y131.619 E4.95859
G1 X87.919 Y131.485 E4.968
G1 X87.73 Y131.405 E4.97277
G1 X87.281 Y131.172 E4.98455
G1 X87.054 Y131.016 E4.99096
G1 X86.059 Y130.268 E5.01994
G1 X86.005 Y130.227 E5.02152
G1 X85.299 Y129.673 E5.04242
G1 X83.119 Y128.058 E5.10558
G1 X80.859 Y126.481 E5.16974
G1 X78.57 Y124.979 E5.23349
G1 X76.26 Y123.553 E5.29669
G1 X73.903 Y122.19 E5.36008
G1 X71.159 Y120.703 E5.43274
G1 X70.735 Y120.427 E5.44452
G1 X70.36 Y120.089 E5.45628
G1 X70.042 Y119.695 E5.46806
G1 X69.791 Y119.257 E5.47982
G1 X69.612 Y118.784 E5.49159
G1 X69.498 Y118.184 E5.50581
G1 X69.467 Y117.849 E5.51364
G1 X69.453 Y117.554 E5.52052
G1 X69.453 Y115.367 E5.57144
G1 X69.473 Y113.948 E5.60448
G1 X69.473 Y111.197 E5.66853
G1 X69.458 Y110.56 E5.68336
G1 X69.457 Y110.51 E5.68453
G1 X69.453 Y109.993 E5.69656
G1 X69.453 Y106.823 E5.77037
G1 X69.462 Y106.15 E5.78604
G1 X69.509 Y105.647 E5.7978
G1 X69.634 Y105.157 E5.80957
G1 X69.835 Y104.693 E5.82135
G1 X70.107 Y104.267 E5.83311
G1 X70.442 Y103.888 E5.84489
G1 X70.833 Y103.567 E5.85667
G1 F1500 E-0.64333
;MESH:case.stl
G0 F3600 X73.067 Y105.519
G0 X73.067 Y106.598
G0 X90.571 Y107.43
;TYPE:WALL-INNER
G1 F1500 E5.85667
G1 X90.534 Y107.98 E5.8695
G1 X90.714 Y108.581 E5.88411
G1 X91.075 Y108.994 E5.89688
G1 X91.626 Y109.293 E5.91148
G1 X92.176 Y109.33 E5.92431
G1 X92.777 Y109.15 E5.93892
G1 X93.191 Y108.789 E5.95171
G1 X93.489 Y108.237 E5.96631
G1 X93.526 Y107.689 E5.9791
G1 X93.365 Y107.148 E5.99224
G1 X93.348 Y107.088 E5.99369
G1 X93.082 Y106.784 E6.0031
G1 X93.348 Y106.784 E6.00488
G1 X93.411 Y106.784 E6.00621
G1 X93.738 Y106.784 E6.01382
G1 X94.179 Y106.806 E6.0241
G1 X94.248 Y106.831 E6.02581
G1 X94.322 Y106.879 E6.02786
G1 X94.386 Y106.945 E6.03
G1 X94.433 Y107.023 E6.03212
G1 X94.576 Y107.461 E6.04285
G1 X94.768 Y107.773 E6.05138
G1 X95.024 Y108.032 E6.05986
G1 X95.331 Y108.227 E6.06833
G1 X95.695 Y108.355 E6.07731
G1 X96.986 Y108.384 E6.10737
G1 X153.217 Y108.384 E7.41655
G1 X153.65 Y108.333 E7.4267
G1 X154.034 Y108.171 E7.4364
G1 X154.043 Y108.168 E7.43663
G1 X154.345 Y107.931 E7.44556
G1 X154.373 Y107.909 E7.44639
G1 X154.39 Y107.886 E7.44706
G1 X154.389 Y107.909
G1 X154.384 Y107.98
G1 X154.407 Y108.058
G1 X154.409 Y108.067 E7.44727
G1 X154.564 Y108.581 E7.45977
G1 X154.925 Y108.994 E7.47254
G1 X155.476 Y109.293 E7.48714
G1 X156.026 Y109.33 E7.49997
G1 X156.627 Y109.15 E7.51458
G1 X157.023 Y108.804 E7.52682
G1 X157.25 Y108.45 E7.53661
G1 X157.394 Y107.846 E7.55107
G1 X157.291 Y107.328 E7.56337
G1 X157.098 Y106.956 E7.57312
G1 X156.662 Y106.542 E7.58712
G1 X156.251 Y106.373 E7.59747
G1 X155.734 Y106.338 E7.60953
G1 X155.194 Y106.5 E7.62266
G1 X155.133 Y106.518 E7.62414
G1 X154.83 Y106.783 E7.63351
G1 X154.83 Y106.518 E7.63528
G1 X154.83 Y106.454 E7.63662
G1 X154.83 Y95.185 E7.89899
G1 X154.857 Y94.873 E7.90628
G1 X154.889 Y94.796 E7.90822
G1 X154.944 Y94.725 E7.91031
G1 X155.118 Y94.599 E7.91531
G1 X159.443 Y92.102 E8.03159
G1 X159.593 Y92.04 E8.03537
G1 X159.695 Y92.027 E8.03776
G1 X159.796 Y92.041 E8.04013
G1 X159.89 Y92.08 E8.0425
G1 X159.956 Y92.131 E8.04444
G1 X160.18 Y92.464 E8.05379
G1 X166.655 Y103.679 E8.35529
G1 X166.726 Y103.909 E8.36089
G1 X166.701 Y104.087 E8.36508
G1 X165.884 Y105.369 E8.40047
G1 X157.83 Y117.597 E8.74137
G1 X157.83 Y125.597 E8.92763
G1 X157.83 Y125.774 E8.93175
G1 X157.83 Y125.989 E8.93676
G1 X157.642 Y125.774 E8.93922
G1 X157.487 Y125.69 E8.94239
G1 X157.091 Y125.475 E8.95288
G1 X156.541 Y125.438 E8.96572
G1 X155.94 Y125.618 E8.98032
G1 X155.526 Y125.979 E8.99311
G1 X155.226 Y126.531 E9.00774
G1 X155.191 Y127.081 E9.02057
G1 X155.351 Y127.62 E9.03366
G1 X155.369 Y127.681 E9.03514
G1 X155.635 Y127.984 E9.04453
G1 X155.369 Y127.984 E9.0463
G1 X155.305 Y127.984 E9.04765
G1 X141.002 Y127.984 E9.38065
G1 X140.603 Y127.962 E9.38996
G1 X140.541 Y127.94 E9.39149
G1 X140.463 Y127.888 E9.39367
G1 X140.401 Y127.824 E9.39575
G1 X140.353 Y127.745 E9.3979
G1 X140.211 Y127.311 E9.40853
G1 X140.019 Y126.996 E9.41712
G1 X139.761 Y126.735 E9.42566
G1 X139.454 Y126.541 E9.43412
G1 X139.119 Y126.422 E9.4424
G1 X138.79 Y126.384 E9.45011
G1 X94.197 Y126.384 E10.48832
G1 X93.862 Y126.424 E10.49618
G1 X93.517 Y126.549 E10.50472
G1 X93.211 Y126.749 E10.51323
G1 X92.96 Y127.01 E10.52166
G1 X92.775 Y127.316 E10.52999
G1 X92.631 Y127.753 E10.5407
G1 X92.588 Y127.824 E10.54263
G1 X92.521 Y127.892 E10.54486
G1 X92.442 Y127.942 E10.54703
G1 X92.395 Y127.959 E10.5482
G1 X91.707 Y127.965 E10.56422
G1 X91.435 Y127.967 E10.57055
G1 X91.344 Y127.968 E10.57267
G1 X91.434 Y127.889 E10.57337
G1 X91.563 Y127.65 E10.57751
G1 X91.734 Y127.337 E10.58581
G1 X91.769 Y126.787 E10.59864
G1 X91.591 Y126.187 E10.61321
G1 X91.229 Y125.774 E10.626
G1 X90.677 Y125.475 E10.64061
G1 X90.129 Y125.438 E10.6534
G1 X89.526 Y125.618 E10.66805
G1 X89.374 Y125.751 E10.67276
G1 X89.113 Y125.979 E10.68082
G1 X89.03 Y126.132 E10.68488
G1 X89.03 Y125.979 E10.68513
G1 X89.03 Y125.632 E10.6903
G1 X89.03 Y117.284 E10.88466
G1 X73.253 Y117.284 E11.25198
G1 X73.253 Y115.311 E11.29792
G1 X75.051 Y115.31 E11.33978
G1 X75.432 Y114.409 E11.36256
G1 X75.707 Y113.528 E11.38404
G1 X75.828 Y112.534 E11.40736
G1 X75.708 Y111.546 E11.43053
G1 X75.54 Y110.963 E11.44465
G1 X75.06 Y109.757 E11.47487
G1 X73.452 Y109.758 E11.51231
G1 X73.253 Y109.758 E11.51694
G1 X73.253 Y109.559 E11.51994
G1 X73.253 Y106.784 E11.58455
G1 X90.615 Y106.784 E11.98877
G1 X90.87 Y106.784 E11.99471
G1 X90.979 Y106.784 E11.99725
G1 X90.87 Y106.879 E11.99817
G1 X90.749 Y107.103 E12.00216
G1 X90.571 Y107.43 E12.01083
G0 F3600 X90.964 Y107.544
;TYPE:WALL-OUTER
G1 F1500 X90.938 Y107.935 E12.01995
G1 X91.072 Y108.383 E12.03084
G1 X91.329 Y108.677 E12.03993
G1 X91.74 Y108.9 E12.05082
G1 X92.131 Y108.926 E12.05994
G1 X92.579 Y108.792 E12.07083
G1 X92.874 Y108.535 E12.07994
G1 X93.096 Y108.124 E12.09081
G1 X93.122 Y107.734 E12.09991
G1 X92.989 Y107.285 E12.11081
G1 X92.732 Y106.991 E12.11991
G1 X92.347 Y106.782 E12.1301
G1 X92.32 Y106.768 E12.13081
G1 X91.929 Y106.742 E12.13994
G1 X91.792 Y106.783 E12.14327
G1 X91.481 Y106.876 E12.15082
G1 X91.187 Y107.133 E12.15991
G1 X90.964 Y107.544 E12.1708
G0 F3600 X90.951 Y107.744
G0 X90.511 Y107.715
G0 X90.999 Y106.981
G0 X92.848 Y106.782
G0 X95.403 Y108.081
G0 X156.008 Y109.167
G0 X156.899 Y108.7
G0 X157.276 Y107.908
G0 X156.985 Y107.838
G1 F1500 X156.91 Y107.462 E12.17973
G1 X156.774 Y107.2 E12.1866
G1 X156.441 Y106.884 E12.19729
G1 X156.159 Y106.768 E12.20439
G1 X155.779 Y106.742 E12.21326
G1 X155.331 Y106.876 E12.22414
G1 X155.037 Y107.133 E12.23323
G1 X154.814 Y107.544 E12.24412
G1 X154.788 Y107.935 E12.25324
G1 X154.922 Y108.383 E12.26413
G1 X155.179 Y108.677 E12.27322
G1 X155.59 Y108.9 E12.28411
G1 X155.981 Y108.926 E12.29323
G1 X156.429 Y108.792 E12.30412
G1 X156.717 Y108.54 E12.31303
G1 X156.877 Y108.291 E12.31992
G1 X156.985 Y107.838 E12.33076
G0 F3600 X156.946 Y107.642
G0 X157.377 Y107.556
G0 X155.32 Y126.625
G0 X155.62 Y126.644
G1 F1500 X155.595 Y127.035 E12.33989
G1 X155.728 Y127.483 E12.35077
G1 X155.985 Y127.777 E12.35986
G1 X156.37 Y127.986 E12.37006
G1 X156.397 Y128 E12.37076
G1 X156.788 Y128.026 E12.37989
G1 X156.925 Y127.985 E12.38322
G1 X157.236 Y127.892 E12.39077
G1 X157.53 Y127.635 E12.39987
G1 X157.753 Y127.224 E12.41075
G1 X157.779 Y126.833 E12.41988
G1 X157.645 Y126.385 E12.43076
G1 X157.388 Y126.091 E12.43985
G1 X156.977 Y125.868 E12.45074
G1 X156.586 Y125.842 E12.45986
G1 X156.138 Y125.976 E12.47075
G1 X155.843 Y126.233 E12.47986
G1 X155.62 Y126.644 E12.49075
G0 F3600 X155.608 Y126.844
G0 X155.168 Y126.816
G0 X145.069 Y124.35
;TYPE:WALL-INNER
G1 F1500 X148.567 Y124.35 E12.57219
G1 X148.567 Y124.85 E12.58383
G1 X155.184 Y124.85 E12.73789
G1 X155.184 Y118.65 E12.88224
G1 X145.069 Y118.65 E13.11773
G1 X145.069 Y124.35 E13.25044
G0 F3600 X145.469 Y123.95
;TYPE:WALL-OUTER
G1 F1500 X148.967 Y123.95 E13.33188
G1 X148.967 Y124.45 E13.34352
G1 X154.784 Y124.45 E13.47896
G1 X154.784 Y119.05 E13.60468
G1 X145.469 Y119.05 E13.82155
G1 X145.469 Y123.95 E13.93563
G0 F3600 X145.669 Y123.95
G0 X145.669 Y124.39
G0 X139.669 Y124.35
;TYPE:WALL-INNER
G1 F1500 X144.367 Y124.35 E14.04501
G1 X144.367 Y118.65 E14.17772
G1 X139.669 Y118.65 E14.2871
G1 X139.669 Y124.35 E14.41981
G0 F3600 X140.069 Y123.95
;TYPE:WALL-OUTER
G1 F1500 X143.967 Y123.95 E14.51056
G1 X143.967 Y119.05 E14.62464
G1 X140.069 Y119.05 E14.7154
G1 X140.069 Y123.95 E14.82948
G0 F3600 X140.269 Y123.95
G0 X140.269 Y124.39
G0 X134.269 Y124.35
;TYPE:WALL-INNER
G1 F1500 X138.967 Y124.35 E14.93886
G1 X138.967 Y118.65 E15.07157
G1 X134.269 Y118.65 E15.18095
G1 X134.269 Y124.35 E15.31366
G0 F3600 X134.669 Y123.95
;TYPE:WALL-OUTER
G1 F1500 X138.567 Y123.95 E15.40441
G1 X138.567 Y119.05 E15.51849
G1 X134.669 Y119.05 E15.60924
G1 X134.669 Y123.95 E15.72333
G0 F3600 X134.869 Y123.95
G0 X134.869 Y124.39
G0 X128.869 Y124.35
;TYPE:WALL-INNER
G1 F1500 X133.567 Y124.35 E15.83271
G1 X133.567 Y118.65 E15.96541
G1 X128.869 Y118.65 E16.07479
G1 X128.869 Y124.35 E16.2075
G0 F3600 X129.269 Y123.95
;TYPE:WALL-OUTER
G1 F1500 X133.167 Y123.95 E16.29825
G1 X133.167 Y119.05 E16.41234
G1 X129.269 Y119.05 E16.50309
G1 X129.269 Y123.95 E16.61717
G0 F3600 X129.469 Y123.95
G0 X129.469 Y124.39
G0 X123.469 Y124.35
;TYPE:WALL-INNER
G1 F1500 X128.167 Y124.35 E16.72655
G1 X128.167 Y118.65 E16.85926
G1 X123.469 Y118.65 E16.96864
G1 X123.469 Y124.35 E17.10135
G0 F3600 X123.869 Y123.95
;TYPE:WALL-OUTER
G1 F1500 X127.767 Y123.95 E17.1921
G1 X127.767 Y119.05 E17.30618
G1 X123.869 Y119.05 E17.39694
G1 X123.869 Y123.95 E17.51102
G0 F3600 X124.069 Y123.95
G0 X124.069 Y124.39
G0 X118.069 Y124.35
;TYPE:WALL-INNER
G1 F1500 X122.767 Y124.35 E17.6204
G1 X122.767 Y118.65 E17.75311
G1 X118.069 Y118.65 E17.86249
G1 X118.069 Y124.35 E17.99519
G0 F3600 X118.469 Y123.95
;TYPE:WALL-OUTER
G1 F1500 X122.367 Y123.95 E18.08595
G1 X122.367 Y119.05 E18.20003
G1 X118.469 Y119.05 E18.29078
G1 X118.469 Y123.95 E18.40487
G0 F3600 X118.669 Y123.95
G0 X118.669 Y124.39
G0 X112.669 Y124.35
;TYPE:WALL-INNER
G1 F1500 X117.367 Y124.35 E18.51424
G1 X117.367 Y118.65 E18.64695
G1 X112.669 Y118.65 E18.75633
G1 X112.669 Y124.35 E18.88904
G0 F3600 X113.069 Y123.95
;TYPE:WALL-OUTER
G1 F1500 X116.967 Y123.95 E18.97979
G1 X116.967 Y119.05 E19.09388
G1 X113.069 Y119.05 E19.18463
G1 X113.069 Y123.95 E19.29871
G0 F3600 X113.269 Y123.95
G0 X113.269 Y124.39
G0 X107.269 Y124.35
;TYPE:WALL-INNER
G1 F1500 X111.967 Y124.35 E19.40809
G1 X111.967 Y118.65 E19.5408
G1 X107.269 Y118.65 E19.65018
G1 X107.269 Y124.35 E19.78289
G0 F3600 X107.669 Y123.95
;TYPE:WALL-OUTER
G1 F1500 X111.567 Y123.95 E19.87364
G1 X111.567 Y119.05 E19.98772
G1 X107.669 Y119.05 E20.07848
G1 X107.669 Y123.95 E20.19256
G0 F3600 X107.869 Y123.95
G0 X107.869 Y124.39
G0 X101.869 Y124.35
;TYPE:WALL-INNER
G1 F1500 X106.567 Y124.35 E20.30194
G1 X106.567 Y118.65 E20.43464
G1 X101.869 Y118.65 E20.54402
G1 X101.869 Y124.35 E20.67673
G0 F3600 X102.269 Y123.95
;TYPE:WALL-OUTER
G1 F1500 X106.167 Y123.95 E20.76749
G1 X106.167 Y119.05 E20.88157
G1 X102.269 Y119.05 E20.97232
G1 X102.269 Y123.95 E21.0864
G0 F3600 X102.469 Y123.95
G0 X102.469 Y124.39
G0 X96.469 Y124.35
;TYPE:WALL-INNER
G1 F1500 X101.167 Y124.35 E21.19578
G1 X101.167 Y118.65 E21.32849
G1 X96.469 Y118.65 E21.43787
G1 X96.469 Y124.35 E21.57058
G0 F3600 X96.869 Y123.95
;TYPE:WALL-OUTER
G1 F1500 X100.767 Y123.95 E21.66133
G1 X100.767 Y119.05 E21.77541
G1 X96.869 Y119.05 E21.86617
G1 X96.869 Y123.95 E21.98025
G0 F3600 X97.069 Y123.95
G0 X97.069 Y124.39
G0 X91.64 Y127.243
G0 X91.34 Y127.224
G1 F1500 X91.365 Y126.833 E21.98937
G1 X91.232 Y126.385 E22.00025
G1 X90.975 Y126.091 E22.00934
G1 X90.563 Y125.868 E22.02025
G1 X90.174 Y125.842 E22.02933
G1 X89.724 Y125.976 E22.04026
G1 X89.43 Y126.233 E22.04935
G1 X89.207 Y126.644 E22.06024
G1 X89.181 Y127.035 E22.06936
G1 X89.315 Y127.483 E22.08025
G1 X89.572 Y127.777 E22.08934
G1 X89.949 Y127.981 E22.09932
G1 X89.984 Y128 E22.10025
