;FLAVOR:Marlin
;TIME:975
;Filament used: 0m, 0.869047m
;Layer height: 0.3
;MINX:76.877
;MINY:87.808
;MINZ:0.2
;MAXX:163.073
;MAXY:132.217
;MAXZ:7.1
;Generated with Cura_SteamEngine 4.4.1
T1
M140 S65
M105
M190 S65
M104 S200
M105
M109 S200
M82 ;absolute extrusion mode
G28 ;Home
G1 Z15.0 F6000 ;Move the platform down 15mm
;Prime the extruder
G92 E0
G1 F200 E3
G92 E0
G92 E0
t1
G92 E0
G1 F1500 E-6.5
;LAYER_COUNT:24
;LAYER:0
M106 S255
G0 F3600 X78.275 Y103.386 Z0.2
;TYPE:SKIRT
G1 F1500 E0
G1 X78.722 Y103.089 E0.01249
G1 X79.207 Y102.861 E0.02497
G1 X79.721 Y102.708 E0.03746
G1 X80.386 Y102.627 E0.05306
G1 X80.706 Y102.618 E0.06051
G1 X80.807 Y102.617 E0.06286
G1 X85.38 Y102.617 E0.16933
G1 X86.025 Y102.626 E0.18435
G1 X86.242 Y102.636 E0.1894
G1 X86.538 Y102.658 E0.19632
G1 X86.648 Y102.668 E0.19889
G1 X88.415 Y102.854 E0.24025
G1 X91.141 Y103.094 E0.30397
G1 X93.897 Y103.257 E0.36824
G1 X96.593 Y103.341 E0.43104
G1 X99.323 Y103.348 E0.4946
G1 X102.054 Y103.278 E0.55821
G1 X104.78 Y103.132 E0.62177
G1 X107.5 Y102.908 E0.68531
G1 X110.217 Y102.606 E0.74895
G1 X112.891 Y102.233 E0.81181
G1 X115.576 Y101.78 E0.87521
G1 X118.3 Y101.241 E0.93986
G1 X120.918 Y100.646 E1.00237
G1 X123.554 Y99.967 E1.06574
G1 X126.187 Y99.21 E1.12953
G1 X128.792 Y98.38 E1.19318
G1 X131.343 Y97.487 E1.25611
G1 X133.89 Y96.513 E1.31959
G1 X136.413 Y95.468 E1.38317
G1 X138.929 Y94.339 E1.44738
G1 X141.381 Y93.156 E1.51076
G1 X143.758 Y91.924 E1.5731
G1 X146.476 Y90.411 E1.64552
G1 X146.476 Y90.412 E1.64554
G1 X149.343 Y88.756 E1.72263
G1 X149.385 Y88.732 E1.72376
G1 X149.962 Y88.409 E1.73915
G1 X150.344 Y88.223 E1.74904
G1 X150.581 Y88.125 E1.75501
G1 X151.091 Y87.958 E1.76751
G1 X151.404 Y87.895 E1.77494
G1 X151.687 Y87.851 E1.78161
G1 X152.222 Y87.808 E1.79411
G1 X152.757 Y87.845 E1.80659
G1 X153.029 Y87.895 E1.81303
G1 X153.225 Y87.939 E1.81771
G1 X153.386 Y87.98 E1.82157
G1 X153.682 Y88.061 E1.82872
G1 X154.187 Y88.24 E1.84119
G1 X154.833 Y88.609 E1.85851
G1 X155.039 Y88.757 E1.86442
G1 X155.45 Y89.102 E1.87691
G1 X155.768 Y89.456 E1.88799
G1 X155.93 Y89.662 E1.89409
G1 X156.148 Y89.972 E1.90292
G1 X156.263 Y90.155 E1.90795
G1 X156.316 Y90.242 E1.91032
G1 X156.474 Y90.51 E1.91756
G1 X156.49 Y90.537 E1.9183
G1 X161.956 Y99.997 E2.17267
G1 X161.979 Y100.038 E2.17376
G1 X162.423 Y100.83 E2.1949
G1 X162.51 Y100.995 E2.19924
G1 X162.681 Y101.341 E2.20823
G1 X162.883 Y101.838 E2.22072
G1 X163.008 Y102.36 E2.23322
G1 X163.043 Y102.656 E2.24016
G1 X163.071 Y103.015 E2.24854
G1 X163.073 Y103.551 E2.26102
G1 X163.038 Y103.855 E2.26814
G1 X162.99 Y104.16 E2.27533
G1 X162.868 Y104.682 E2.28781
G1 X162.656 Y105.206 E2.30097
G1 X162.318 Y105.884 E2.31861
G1 X162.291 Y105.936 E2.31997
G1 X161.729 Y107.018 E2.34836
G1 X160.547 Y109.465 E2.41163
G1 X159.401 Y112.018 E2.47678
G1 X158.385 Y114.463 E2.53843
G1 X157.382 Y117.081 E2.6037
G1 X156.501 Y119.598 E2.66579
G1 X155.672 Y122.202 E2.72941
G1 X154.911 Y124.836 E2.79325
G1 X154.234 Y127.465 E2.85645
G1 X154.162 Y127.78 E2.86397
G1 X154.148 Y127.839 E2.86539
G1 X153.927 Y128.734 E2.88685
G1 X153.759 Y129.247 E2.89942
G1 X153.656 Y129.496 E2.90569
G1 X153.414 Y129.975 E2.91819
G1 X153.157 Y130.348 E2.92873
G1 X153.001 Y130.546 E2.9346
G1 X152.638 Y130.941 E2.94709
G1 X152.355 Y131.181 E2.95573
G1 X152.149 Y131.338 E2.96176
G1 X151.7 Y131.631 E2.97424
G1 X151.373 Y131.789 E2.9827
G1 X151.142 Y131.887 E2.98854
G1 X150.634 Y132.059 E3.00103
G1 X150.143 Y132.15 E3.01265
G1 X149.853 Y132.183 E3.01945
G1 X149.498 Y132.206 E3.02773
G1 X148.742 Y132.217 E3.04533
G1 X133.692 Y132.217 E3.39573
G1 X132.952 Y132.207 E3.41296
G1 X132.786 Y132.201 E3.41683
G1 X132.318 Y132.173 E3.42774
G1 X131.977 Y132.136 E3.43573
G1 X131.42 Y132.049 E3.44885
G1 X131.372 Y132.041 E3.44999
G1 X129.756 Y131.766 E3.48815
G1 X127.02 Y131.38 E3.55248
G1 X124.342 Y131.079 E3.61522
G1 X121.616 Y130.85 E3.67891
G1 X118.915 Y130.7 E3.7419
G1 X114.893 Y130.617 E3.83556
G1 X102.247 Y130.617 E4.12998
G1 X99.467 Y130.656 E4.19471
G1 X96.738 Y130.772 E4.25831
G1 X94.009 Y130.966 E4.322
G1 X91.332 Y131.231 E4.38463
G1 X88.593 Y131.581 E4.44892
G1 X85.903 Y132.004 E4.51232
G1 X85.681 Y132.044 E4.51757
G1 X85.618 Y132.055 E4.51906
G1 X85.134 Y132.133 E4.53048
G1 X84.655 Y132.178 E4.54168
G1 X84.004 Y132.195 E4.55684
G1 X83.943 Y132.196 E4.55826
G1 X82.297 Y132.211 E4.59658
G1 X82.245 Y132.211 E4.59779
G1 X81.503 Y132.207 E4.61507
G1 X81.088 Y132.181 E4.62475
G1 X80.783 Y132.144 E4.6319
G1 X80.257 Y132.04 E4.64439
G1 X79.853 Y131.902 E4.65433
G1 X79.66 Y131.823 E4.65918
G1 X79.18 Y131.583 E4.67168
G1 X78.866 Y131.372 E4.68048
G1 X78.603 Y131.175 E4.68814
G1 X78.199 Y130.823 E4.70061
G1 X77.892 Y130.469 E4.71152
G1 X77.754 Y130.287 E4.71684
G1 X77.463 Y129.837 E4.72931
G1 X77.318 Y129.539 E4.73703
G1 X77.22 Y129.312 E4.74279
G1 X77.045 Y128.805 E4.75527
G1 X76.946 Y128.274 E4.76785
G1 X76.921 Y128.044 E4.77324
G1 X76.907 Y127.881 E4.77705
G1 X76.894 Y127.674 E4.78187
G1 X76.887 Y127.507 E4.78577
G1 X76.877 Y126.896 E4.79999
G1 X76.877 Y106.863 E5.2664
G1 X76.887 Y106.174 E5.28245
G1 X76.935 Y105.64 E5.29493
G1 X77.062 Y105.118 E5.30744
G1 X77.264 Y104.622 E5.31991
G1 X77.538 Y104.161 E5.33239
G1 X77.878 Y103.746 E5.34488
G1 X78.275 Y103.386 E5.35736
G0 F3600 X78.661 Y103.598
G1 F1500 X79.097 Y103.343 E5.36912
G1 X79.569 Y103.161 E5.3809
G1 X80.063 Y103.054 E5.39266
G1 X80.397 Y103.027 E5.40047
G1 X80.717 Y103.018 E5.40792
G1 X80.807 Y103.017 E5.41002
G1 X85.375 Y103.017 E5.51637
G1 X86.02 Y103.026 E5.53139
G1 X86.212 Y103.035 E5.53586
G1 X86.508 Y103.057 E5.54277
G1 X86.606 Y103.066 E5.54506
G1 X88.355 Y103.25 E5.58601
G1 X91.153 Y103.496 E5.6514
G1 X93.86 Y103.656 E5.71454
G1 X96.58 Y103.741 E5.7779
G1 X99.333 Y103.748 E5.84199
G1 X102.084 Y103.678 E5.90606
G1 X104.801 Y103.532 E5.96941
G1 X107.541 Y103.306 E6.03342
G1 X110.249 Y103.006 E6.09685
G1 X112.936 Y102.63 E6.16002
G1 X115.689 Y102.167 E6.22502
G1 X118.361 Y101.638 E6.28843
G1 X121.001 Y101.037 E6.35147
G1 X123.693 Y100.344 E6.41619
G1 X126.282 Y99.6 E6.47891
G1 X128.898 Y98.766 E6.54283
G1 X131.512 Y97.852 E6.60731
G1 X134.037 Y96.886 E6.67025
G1 X136.564 Y95.839 E6.73393
G1 X139.088 Y94.706 E6.79835
G1 X141.56 Y93.513 E6.86225
G1 X143.971 Y92.264 E6.92547
G1 X146.651 Y90.772 E6.99688
G1 X149.543 Y89.102 E7.07463
G1 X149.58 Y89.081 E7.07562
G1 X150.157 Y88.758 E7.09102
G1 X150.497 Y88.593 E7.09982
G1 X150.734 Y88.495 E7.10579
G1 X151.215 Y88.339 E7.11756
G1 X151.465 Y88.29 E7.12349
G1 X151.748 Y88.246 E7.13016
G1 X152.253 Y88.208 E7.14195
G1 X152.941 Y88.286 E7.15807
G1 X153.137 Y88.33 E7.16275
G1 X153.281 Y88.365 E7.1662
G1 X153.577 Y88.446 E7.17335
G1 X154.052 Y88.618 E7.18511
G1 X154.599 Y88.934 E7.19981
G1 X154.805 Y89.082 E7.20572
G1 X155.191 Y89.409 E7.2175
G1 X155.453 Y89.703 E7.22667
G1 X155.615 Y89.909 E7.23277
G1 X155.809 Y90.184 E7.2406
G1 X155.924 Y90.367 E7.24564
G1 X155.972 Y90.445 E7.24777
G1 X156.13 Y90.713 E7.25501
G1 X156.144 Y90.737 E7.25566
G1 X161.61 Y100.197 E7.51003
G1 X161.63 Y100.233 E7.51099
G1 X162.074 Y101.025 E7.53213
G1 X162.152 Y101.172 E7.536
G1 X162.323 Y101.518 E7.54499
G1 X162.51 Y101.988 E7.55676
G1 X162.644 Y102.687 E7.57334
G1 X162.672 Y103.046 E7.58172
G1 X162.643 Y103.792 E7.5991
G1 X162.595 Y104.097 E7.60629
G1 X162.477 Y104.589 E7.61807
G1 X162.298 Y105.028 E7.62911
G1 X161.96 Y105.706 E7.64674
G1 X161.936 Y105.752 E7.64795
G1 X161.372 Y106.839 E7.67646
G1 X160.179 Y109.305 E7.74024
G1 X159.049 Y111.826 E7.80456
G1 X158.001 Y114.346 E7.86811
G1 X157.017 Y116.913 E7.93211
G1 X156.115 Y119.493 E7.99574
G1 X155.282 Y122.108 E8.05964
G1 X154.534 Y124.698 E8.12241
G1 X153.844 Y127.377 E8.18682
G1 X153.772 Y127.69 E8.19429
G1 X153.76 Y127.743 E8.19556
G1 X153.539 Y128.638 E8.21702
G1 X153.389 Y129.094 E8.2282
G1 X153.286 Y129.343 E8.23447
G1 X153.056 Y129.794 E8.24626
G1 X152.843 Y130.1 E8.25494
G1 X152.687 Y130.298 E8.26081
G1 X152.343 Y130.67 E8.2726
G1 X152.113 Y130.863 E8.27959
G1 X151.907 Y131.02 E8.28562
G1 X151.482 Y131.294 E8.2974
G1 X151.217 Y131.421 E8.30424
G1 X150.986 Y131.519 E8.31008
G1 X150.506 Y131.679 E8.32186
G1 X150.098 Y131.752 E8.33151
G1 X149.808 Y131.785 E8.33831
G1 X149.493 Y131.806 E8.34566
G1 X148.737 Y131.817 E8.36326
G1 X133.698 Y131.817 E8.7134
G1 X132.958 Y131.807 E8.73063
G1 X132.81 Y131.801 E8.73408
G1 X132.342 Y131.773 E8.74499
G1 X132.039 Y131.741 E8.75209
G1 X131.482 Y131.654 E8.76521
G1 X131.44 Y131.647 E8.7662
G1 X129.814 Y131.37 E8.80461
G1 X127.084 Y130.985 E8.86879
G1 X124.385 Y130.682 E8.93203
G1 X121.638 Y130.451 E8.99621
G1 X118.916 Y130.3 E9.05968
G1 X114.901 Y130.217 E9.15318
G1 X102.241 Y130.217 E9.44793
G1 X99.444 Y130.257 E9.51306
G1 X96.727 Y130.372 E9.57637
G1 X93.981 Y130.567 E9.64046
G1 X91.275 Y130.835 E9.70377
G1 X88.552 Y131.183 E9.76769
G1 X85.858 Y131.607 E9.83118
G1 X85.61 Y131.651 E9.83704
G1 X85.554 Y131.66 E9.83837
G1 X85.07 Y131.738 E9.84978
G1 X84.645 Y131.778 E9.85972
G1 X83.994 Y131.795 E9.87488
G1 X83.939 Y131.796 E9.87616
G1 X82.293 Y131.811 E9.91448
G1 X82.247 Y131.811 E9.91556
G1 X81.505 Y131.807 E9.93283
G1 X81.137 Y131.784 E9.94142
G1 X80.832 Y131.747 E9.94857
G1 X80.336 Y131.646 E9.96035
G1 X80.005 Y131.532 E9.9685
G1 X79.812 Y131.453 E9.97336
G1 X79.36 Y131.225 E9.98515
G1 X79.106 Y131.052 E9.9923
G1 X78.843 Y130.855 E9.99995
G1 X78.463 Y130.521 E10.01173
G1 X78.211 Y130.227 E10.02075
G1 X78.073 Y130.045 E10.02606
G1 X77.8 Y129.62 E10.03782
G1 X77.685 Y129.38 E10.04402
G1 X77.587 Y129.153 E10.04978
G1 X77.424 Y128.675 E10.06153
G1 X77.344 Y128.231 E10.07204
G1 X77.319 Y128.001 E10.07742
G1 X77.306 Y127.856 E10.08081
G1 X77.293 Y127.649 E10.08564
G1 X77.287 Y127.5 E10.08911
G1 X77.277 Y126.889 E10.10334
G1 X77.277 Y106.869 E10.56945
G1 X77.287 Y106.18 E10.58549
G1 X77.335 Y105.676 E10.59728
G1 X77.461 Y105.187 E10.60904
G1 X77.662 Y104.723 E10.62081
G1 X77.934 Y104.297 E10.63258
G1 X78.27 Y103.919 E10.64435
G1 X78.661 Y103.598 E10.65613
G1 F1500 E4.15613
;MESH:case.stl
G0 F3600 X145.612 Y103.598
G0 X146.697 Y103.598
G0 X148.33 Y106.406
;TYPE:WALL-INNER
G1 F1500 E10.65613
G1 X147.78 Y106.371 E10.66896
G1 X147.241 Y106.532 E10.68206
G1 X147.181 Y106.549 E10.68351
G1 X146.877 Y106.814 E10.6929
G1 X146.877 Y106.549 E10.69467
G1 X146.877 Y106.486 E10.696
G1 X146.877 Y95.447 E10.95301
G1 X146.904 Y95.139 E10.96021
G1 X146.938 Y95.058 E10.96226
G1 X146.993 Y94.987 E10.96435
G1 X147.153 Y94.87 E10.96896
G1 X151.983 Y92.08 E11.09883
G1 X152.134 Y92.018 E11.10263
G1 X152.248 Y92.002 E11.10531
G1 X152.355 Y92.015 E11.10782
G1 X152.454 Y92.056 E11.11031
G1 X152.529 Y92.112 E11.11249
G1 X152.616 Y92.225 E11.11581
G1 X158.679 Y102.719 E11.39798
G1 X158.892 Y103.133 E11.40882
G1 X158.899 Y103.17 E11.4097
G1 X158.867 Y103.399 E11.41508
G1 X158.044 Y104.739 E11.45169
G1 X149.877 Y117.612 E11.80663
G1 X149.877 Y125.629 E11.99328
G1 X149.877 Y125.806 E11.9974
G1 X149.877 Y126.022 E12.00243
G1 X149.689 Y125.806 E12.0049
G1 X149.534 Y125.722 E12.00807
G1 X149.136 Y125.506 E12.01862
G1 X148.587 Y125.471 E12.03143
G1 X147.988 Y125.649 E12.04597
G1 X147.573 Y126.011 E12.0588
G1 X147.273 Y126.564 E12.07344
G1 X147.238 Y127.114 E12.08627
G1 X147.398 Y127.653 E12.09936
G1 X147.416 Y127.714 E12.10085
G1 X147.682 Y128.017 E12.11023
G1 X147.416 Y128.017 E12.11201
G1 X147.352 Y128.017 E12.11335
G1 X133.049 Y128.017 E12.44636
G1 X132.652 Y127.995 E12.45561
G1 X132.62 Y127.983 E12.45641
G1 X132.431 Y127.828 E12.4621
G1 X132.4 Y127.777 E12.46349
G1 X132.258 Y127.342 E12.47414
G1 X132.065 Y127.028 E12.48273
G1 X131.808 Y126.768 E12.49124
G1 X131.501 Y126.574 E12.49969
G1 X131.165 Y126.455 E12.50799
G1 X130.836 Y126.417 E12.5157
G1 X86.244 Y126.417 E13.5539
G1 X85.909 Y126.457 E13.56175
G1 X85.564 Y126.582 E13.57029
G1 X85.259 Y126.782 E13.57879
G1 X85.007 Y127.041 E13.5872
G1 X84.822 Y127.348 E13.59554
G1 X84.676 Y127.788 E13.60634
G1 X84.633 Y127.859 E13.60827
G1 X84.569 Y127.924 E13.61039
G1 X84.49 Y127.974 E13.61257
G1 X84.44 Y127.992 E13.61381
G1 X83.754 Y127.998 E13.62978
G1 X83.482 Y128 E13.63611
G1 X83.391 Y128.001 E13.63823
G1 X83.481 Y127.922 E13.63894
G1 X83.61 Y127.683 E13.64307
G1 X83.781 Y127.37 E13.65137
G1 X83.816 Y126.82 E13.6642
G1 X83.638 Y126.221 E13.67875
G1 X83.276 Y125.806 E13.69157
G1 X82.723 Y125.506 E13.70622
G1 X82.173 Y125.471 E13.71905
G1 X81.573 Y125.649 E13.73362
G1 X81.421 Y125.782 E13.73833
G1 X81.16 Y126.011 E13.74641
G1 X81.077 Y126.164 E13.75046
G1 X81.077 Y126.011 E13.75072
G1 X81.077 Y125.663 E13.7559
G1 X81.077 Y106.817 E14.19468
G1 X82.642 Y106.817 E14.23111
G1 X82.934 Y106.817 E14.23791
G1 X83.024 Y106.817 E14.24001
G1 X82.934 Y106.896 E14.24073
G1 X82.777 Y107.142 E14.24513
G1 X82.707 Y107.251 E14.24815
G1 X82.563 Y107.855 E14.2626
G1 X82.666 Y108.373 E14.2749
G1 X82.859 Y108.745 E14.28466
G1 X83.31 Y109.172 E14.29912
G1 X83.809 Y109.341 E14.31138
G1 X84.229 Y109.361 E14.32117
G1 X84.824 Y109.183 E14.33563
G1 X85.237 Y108.822 E14.3484
G1 X85.536 Y108.271 E14.363
G1 X85.573 Y107.721 E14.37583
G1 X85.411 Y107.181 E14.38896
G1 X85.393 Y107.12 E14.39044
G1 X85.129 Y106.817 E14.39979
G1 X85.393 Y106.817 E14.40155
G1 X85.457 Y106.817 E14.4029
G1 X86.016 Y106.817 E14.41591
G1 X86.22 Y106.835 E14.42068
G1 X86.291 Y106.861 E14.42244
G1 X86.367 Y106.911 E14.42456
G1 X86.435 Y106.981 E14.42683
G1 X86.475 Y107.048 E14.42865
G1 X86.623 Y107.492 E14.43954
G1 X86.814 Y107.805 E14.44808
G1 X87.071 Y108.065 E14.45659
G1 X87.378 Y108.259 E14.46505
G1 X87.74 Y108.388 E14.47399
G1 X89.033 Y108.417 E14.50411
G1 X145.264 Y108.417 E15.81328
G1 X145.697 Y108.366 E15.82343
G1 X146.08 Y108.205 E15.83311
G1 X146.09 Y108.201 E15.83336
G1 X146.392 Y107.964 E15.84229
G1 X146.42 Y107.942 E15.84312
G1 X146.437 Y107.919 E15.84379
G1 X146.436 Y107.942
G1 X146.431 Y108.012
G1 X146.454 Y108.092
G1 X146.457 Y108.102 E15.84403
G1 X146.609 Y108.613 E15.85644
G1 X146.971 Y109.027 E15.86924
G1 X147.523 Y109.326 E15.88386
G1 X148.073 Y109.363 E15.89669
G1 X148.674 Y109.183 E15.9113
G1 X149.087 Y108.822 E15.92407
G1 X149.386 Y108.271 E15.93867
G1 X149.423 Y107.721 E15.9515
G1 X149.243 Y107.12 E15.96611
G1 X148.882 Y106.706 E15.9789
G1 X148.33 Y106.406 E15.99352
G0 F3600 X148.217 Y106.8
;TYPE:WALL-OUTER
G1 F1500 X147.826 Y106.775 E16.00264
G1 X147.378 Y106.908 E16.01353
G1 X147.083 Y107.165 E16.02263
G1 X146.861 Y107.577 E16.03353
G1 X146.835 Y107.967 E16.04263
G1 X146.968 Y108.416 E16.05353
G1 X147.225 Y108.71 E16.06262
G1 X147.637 Y108.933 E16.07353
G1 X148.028 Y108.959 E16.08266
G1 X148.476 Y108.825 E16.09354
G1 X148.77 Y108.568 E16.10263
G1 X148.993 Y108.157 E16.11352
G1 X149.019 Y107.766 E16.12264
G1 X148.885 Y107.318 E16.13353
G1 X148.628 Y107.023 E16.14264
G1 X148.217 Y106.8 E16.15353
G0 F3600 X148.017 Y106.788
G0 X148.045 Y106.348
G0 X146.704 Y106.911
G0 X146.302 Y107.829
G0 X145.256 Y108.256
G0 X83.838 Y109.181
G0 X83.521 Y108.821
G1 F1500 X83.884 Y108.944 E16.16245
G1 X84.18 Y108.958 E16.16935
G1 X84.626 Y108.825 E16.18018
G1 X84.92 Y108.568 E16.18928
G1 X85.143 Y108.157 E16.20016
G1 X85.169 Y107.766 E16.20929
G1 X85.035 Y107.318 E16.22017
G1 X84.778 Y107.023 E16.22928
G1 X84.396 Y106.815 E16.23941
G1 X84.367 Y106.8 E16.24017
G1 X83.976 Y106.775 E16.24929
G1 X83.838 Y106.816 E16.25264
G1 X83.528 Y106.908 E16.26017
G1 X83.24 Y107.16 E16.26908
G1 X83.08 Y107.41 E16.27599
G1 X82.972 Y107.863 E16.28683
G1 X83.047 Y108.239 E16.29576
G1 X83.183 Y108.501 E16.30263
G1 X83.521 Y108.821 E16.31347
G0 F3600 X83.71 Y108.885
G0 X83.568 Y109.301
G0 X83.287 Y118.854
G0 X83.287 Y124.21
G0 X83.687 Y127.276
G0 X83.387 Y127.257
G1 F1500 X83.412 Y126.866 E16.32259
G1 X83.279 Y126.418 E16.33347
G1 X83.022 Y126.123 E16.34258
G1 X82.61 Y125.9 E16.35349
G1 X82.219 Y125.875 E16.36261
G1 X81.771 Y126.008 E16.37349
G1 X81.477 Y126.265 E16.38258
G1 X81.254 Y126.677 E16.39349
G1 X81.228 Y127.068 E16.40261
G1 X81.362 Y127.516 E16.4135
G1 X81.619 Y127.81 E16.42259
G1 X81.995 Y128.014 E16.43255
G1 X82.03 Y128.033 E16.43348
G1 X82.421 Y128.059 E16.4426
G1 X82.592 Y128.008 E16.44676
G1 X82.869 Y127.925 E16.45349
G1 X83.164 Y127.668 E16.4626
G1 X83.387 Y127.257 E16.47348
G0 F3600 X83.399 Y127.057
G0 X83.839 Y127.085
