;FLAVOR:Marlin
;TIME:1090
;Filament used: 0m, 1.13528m
;Layer height: 0.3
;MINX:111.15
;MINY:72.9
;MINZ:0.3
;MAXX:127.65
;MAXY:147.1
;MAXZ:16.8
;Generated with Cura_SteamEngine 4.4.1
T1
M140 S65
M105
M190 S65
M104 S200
M105
M109 S200
M82 ;absolute extrusion mode
G28 ;Home
G1 Z15.0 F6000 ;Move the platform down 15mm
;Prime the extruder
G92 E0
G1 F200 E3
G92 E0
G92 E0
t1
G92 E0
G1 F1500 E-6.5
;LAYER_COUNT:56
;LAYER:0
M106 S255
G0 F3600 X111.808 Y74.447 Z0.3
;TYPE:SKIRT
G1 F1500 E0
G1 X112.147 Y74.031 E0.01874
G1 X112.544 Y73.671 E0.03746
G1 X112.991 Y73.373 E0.05622
G1 X113.476 Y73.145 E0.07493
G1 X113.99 Y72.992 E0.09366
G1 X114.658 Y72.91 E0.11717
G1 X114.979 Y72.901 E0.12838
G1 X115.08 Y72.9 E0.13191
G1 X123.395 Y72.9 E0.4223
G1 X124.093 Y72.91 E0.44667
G1 X124.627 Y72.958 E0.4654
G1 X125.148 Y73.084 E0.48412
G1 X125.645 Y73.287 E0.50287
G1 X126.106 Y73.561 E0.5216
G1 X126.521 Y73.9 E0.54031
G1 X126.881 Y74.298 E0.55905
G1 X127.178 Y74.744 E0.57776
G1 X127.406 Y75.23 E0.59651
G1 X127.558 Y75.744 E0.61523
G1 X127.64 Y76.409 E0.63863
G1 X127.649 Y76.729 E0.64981
G1 X127.65 Y76.83 E0.65334
G1 X127.65 Y142.809 E2.95753
G1 X127.641 Y143.536 E2.98292
G1 X127.594 Y144.07 E3.00164
G1 X127.469 Y144.591 E3.02036
G1 X127.267 Y145.088 E3.03909
G1 X126.994 Y145.55 E3.05783
G1 X126.656 Y145.966 E3.07655
G1 X126.259 Y146.327 E3.09529
G1 X125.813 Y146.625 E3.11402
G1 X125.328 Y146.853 E3.13274
G1 X124.814 Y147.007 E3.15148
G1 X124.142 Y147.09 E3.17512
G1 X123.821 Y147.099 E3.18634
G1 X123.72 Y147.1 E3.18987
G1 X115.411 Y147.1 E3.48004
G1 X114.713 Y147.091 E3.50442
G1 X114.178 Y147.044 E3.52318
G1 X113.657 Y146.918 E3.5419
G1 X113.16 Y146.716 E3.56063
G1 X112.699 Y146.443 E3.57934
G1 X112.283 Y146.104 E3.59808
G1 X111.922 Y145.708 E3.6168
G1 X111.624 Y145.262 E3.63553
G1 X111.396 Y144.776 E3.65428
G1 X111.243 Y144.262 E3.67301
G1 X111.16 Y143.588 E3.69672
G1 X111.151 Y143.255 E3.70836
G1 X111.15 Y143.158 E3.71174
G1 X111.15 Y77.125 E6.01782
G1 X111.159 Y76.46 E6.04105
G1 X111.207 Y75.926 E6.05977
G1 X111.333 Y75.405 E6.07849
G1 X111.535 Y74.908 E6.09723
G1 X111.808 Y74.447 E6.11594
G0 F3600 X112.204 Y74.582
G1 F1500 X112.539 Y74.204 E6.13358
G1 X112.93 Y73.883 E6.15125
G1 X113.367 Y73.628 E6.16892
G1 X113.838 Y73.444 E6.18658
G1 X114.332 Y73.338 E6.20422
G1 X114.669 Y73.31 E6.21603
G1 X114.99 Y73.301 E6.22724
G1 X115.08 Y73.3 E6.23039
G1 X123.389 Y73.3 E6.52056
G1 X124.087 Y73.31 E6.54494
G1 X124.59 Y73.357 E6.56259
G1 X125.08 Y73.483 E6.58025
G1 X125.544 Y73.685 E6.59793
G1 X125.97 Y73.957 E6.61558
G1 X126.348 Y74.292 E6.63322
G1 X126.668 Y74.683 E6.65086
G1 X126.923 Y75.12 E6.66853
G1 X127.106 Y75.591 E6.68618
G1 X127.213 Y76.085 E6.70383
G1 X127.24 Y76.42 E6.71557
G1 X127.249 Y76.74 E6.72675
G1 X127.25 Y76.83 E6.72989
G1 X127.25 Y142.804 E9.03391
G1 X127.241 Y143.531 E9.0593
G1 X127.195 Y144.034 E9.07694
G1 X127.07 Y144.524 E9.0946
G1 X126.869 Y144.988 E9.11226
G1 X126.598 Y145.415 E9.12992
G1 X126.263 Y145.794 E9.14759
G1 X125.873 Y146.115 E9.16523
G1 X125.437 Y146.371 E9.18289
G1 X124.966 Y146.554 E9.20053
G1 X124.472 Y146.662 E9.21819
G1 X124.131 Y146.69 E9.23014
G1 X123.81 Y146.699 E9.24136
G1 X123.72 Y146.7 E9.2445
G1 X115.416 Y146.7 E9.5345
G1 X114.718 Y146.691 E9.55888
G1 X114.214 Y146.644 E9.57656
G1 X113.724 Y146.519 E9.59422
G1 X113.26 Y146.318 E9.61188
G1 X112.834 Y146.047 E9.62951
G1 X112.455 Y145.712 E9.64717
G1 X112.134 Y145.321 E9.66484
G1 X111.879 Y144.885 E9.68248
G1 X111.695 Y144.414 E9.70014
G1 X111.588 Y143.92 E9.71779
G1 X111.56 Y143.577 E9.72981
G1 X111.551 Y143.244 E9.74145
G1 X111.55 Y143.158 E9.74445
G1 X111.55 Y77.131 E12.05032
G1 X111.559 Y76.466 E12.07354
G1 X111.606 Y75.962 E12.09122
G1 X111.732 Y75.473 E12.10886
G1 X111.933 Y75.009 E12.12652
G1 X112.204 Y74.582 E12.14418
G1 F1500 E5.64418
;MESH:Body45.stl
G0 F3600 X114.085 Y77.114
G0 X115.364 Y77.114
G0 X118.224 Y87.453
G0 X120.073 Y89.381
G0 X120.111 Y89.289
;TYPE:WALL-INNER
G1 F1500 E12.14418
G1 X122.797 Y89.289 E12.23798
G1 X122.797 Y79.711 E12.57248
G1 X120.111 Y79.711 E12.66628
G1 X118.26 Y81.562 E12.7577
G1 X118.26 Y87.438 E12.96291
G1 X120.111 Y89.289 E13.05433
G0 F3600 X120.277 Y88.889
;TYPE:WALL-OUTER
G1 F1500 X122.397 Y88.889 E13.12836
G1 X122.397 Y80.111 E13.43492
G1 X120.277 Y80.111 E13.50896
G1 X118.66 Y81.728 E13.58882
G1 X118.66 Y87.272 E13.78243
G1 X120.277 Y88.889 E13.86229
G0 F3600 X120.477 Y88.889
G0 X120.477 Y89.329
G0 X120.477 Y89.389
G0 X115.42 Y142.83
G0 X115.35 Y142.9
;TYPE:WALL-INNER
G1 F1500 X115.35 Y77.1 E16.16024
G1 X123.45 Y77.1 E16.44311
G1 X123.45 Y142.9 E18.74106
G1 X115.35 Y142.9 E19.02393
G0 F3600 X114.95 Y143.3
;TYPE:WALL-OUTER
G1 F1500 X114.95 Y76.7 E21.34981
G1 X123.85 Y76.7 E21.66063
G1 X123.85 Y143.3 E23.98651
G1 X114.95 Y143.3 E24.29733
G0 F3600 X114.95 Y143.1
G0 X115.39 Y142.86
G0 X115.74 Y142.51
;TYPE:SKIN
G1 F1500 X115.74 Y77.49 E26.56803
G1 X123.06 Y77.49 E26.82367
G1 X123.06 Y79.321 E26.88761
G1 X119.949 Y79.321 E26.99626
G1 X117.87 Y81.4 E27.09894
G1 X117.87 Y87.6 E27.31546
G1 X119.949 Y89.679 E27.41814
G1 X123.06 Y89.679 E27.52679
G1 X123.06 Y142.51 E29.37181
G1 X115.74 Y142.51 E29.62745
G0 F3600 X116.307 Y142.329
G1 F1500 X115.919 Y141.941 E29.64661
G0 F3600 X115.919 Y141.375
G1 F1500 X116.873 Y142.329 E29.69373
G0 F3600 X117.439 Y142.329
G1 F1500 X115.919 Y140.809 E29.7688
G0 F3600 X115.919 Y140.244
G1 F1500 X118.004 Y142.329 E29.87177
G0 F3600 X118.57 Y142.329
G1 F1500 X115.919 Y139.678 E30.0027
G0 F3600 X115.919 Y139.112
G1 F1500 X119.136 Y142.329 E30.16159
G0 F3600 X119.701 Y142.329
G1 F1500 X115.919 Y138.546 E30.3484
G0 F3600 X115.919 Y137.981
G1 F1500 X120.267 Y142.329 E30.56314
G0 F3600 X120.833 Y142.329
G1 F1500 X115.919 Y137.415 E30.80584
G0 F3600 X115.919 Y136.849
G1 F1500 X121.398 Y142.329 E31.07646
G0 F3600 X121.964 Y142.329
G1 F1500 X115.919 Y136.284 E31.37502
G0 F3600 X115.919 Y135.718
G1 F1500 X122.53 Y142.329 E31.70153
G0 F3600 X122.879 Y142.112
G1 F1500 X115.919 Y135.152 E32.04528
G0 F3600 X115.919 Y134.587
G1 F1500 X122.879 Y141.547 E32.38902
G0 F3600 X122.879 Y140.981
G1 F1500 X115.919 Y134.021 E32.73277
G0 F3600 X115.919 Y133.455
G1 F1500 X122.879 Y140.415 E33.07651
G0 F3600 X122.879 Y139.85
G1 F1500 X115.919 Y132.89 E33.42026
G0 F3600 X115.919 Y132.324
G1 F1500 X122.879 Y139.284 E33.764
G0 F3600 X122.879 Y138.718
G1 F1500 X115.919 Y131.758 E34.10775
G0 F3600 X115.919 Y131.193
G1 F1500 X122.879 Y138.153 E34.4515
G0 F3600 X122.879 Y137.587
G1 F1500 X115.919 Y130.627 E34.79524
G0 F3600 X115.919 Y130.061
G1 F1500 X122.879 Y137.021 E35.13899
G0 F3600 X122.879 Y136.456
G1 F1500 X115.919 Y129.496 E35.48273
G0 F3600 X115.919 Y128.93
G1 F1500 X122.879 Y135.89 E35.82648
G0 F3600 X122.879 Y135.324
G1 F1500 X115.919 Y128.364 E36.17023
G0 F3600 X115.919 Y127.798
G1 F1500 X122.879 Y134.758 E36.51397
G0 F3600 X122.879 Y134.193
G1 F1500 X115.919 Y127.233 E36.85772
G0 F3600 X115.919 Y126.667
G1 F1500 X122.879 Y133.627 E37.20146
G0 F3600 X122.879 Y133.061
G1 F1500 X115.919 Y126.101 E37.54521
G0 F3600 X115.919 Y125.536
G1 F1500 X122.879 Y132.496 E37.88896
G0 F3600 X122.879 Y131.93
G1 F1500 X115.919 Y124.97 E38.2327
G0 F3600 X115.919 Y124.404
G1 F1500 X122.879 Y131.364 E38.57645
G0 F3600 X122.879 Y130.799
G1 F1500 X115.919 Y123.839 E38.92019
G0 F3600 X115.919 Y123.273
G1 F1500 X122.879 Y130.233 E39.26394
G0 F3600 X122.879 Y129.667
G1 F1500 X115.919 Y122.707 E39.60769
G0 F3600 X115.919 Y122.142
G1 F1500 X122.879 Y129.102 E39.95143
G0 F3600 X122.879 Y128.536
G1 F1500 X115.919 Y121.576 E40.29518
G0 F3600 X115.919 Y121.01
G1 F1500 X122.879 Y127.97 E40.63892
G0 F3600 X122.879 Y127.405
G1 F1500 X115.919 Y120.445 E40.98267
G0 F3600 X115.919 Y119.879
G1 F1500 X122.879 Y126.839 E41.32641
G0 F3600 X122.879 Y126.273
G1 F1500 X115.919 Y119.313 E41.67016
G0 F3600 X115.919 Y118.747
G1 F1500 X122.879 Y125.708 E42.01393
G0 F3600 X122.879 Y125.142
G1 F1500 X115.919 Y118.182 E42.35768
G0 F3600 X115.919 Y117.616
G1 F1500 X122.879 Y124.576 E42.70142
G0 F3600 X122.879 Y124.01
G1 F1500 X115.919 Y117.05 E43.04517
G0 F3600 X115.919 Y116.485
G1 F1500 X122.879 Y123.445 E43.38891
G0 F3600 X122.879 Y122.879
G1 F1500 X115.919 Y115.919 E43.73266
G0 F3600 X115.919 Y115.353
G1 F1500 X122.879 Y122.313 E44.07641
G0 F3600 X122.879 Y121.748
G1 F1500 X115.919 Y114.788 E44.42015
G0 F3600 X115.919 Y114.222
G1 F1500 X122.879 Y121.182 E44.7639
G0 F3600 X122.879 Y120.616
G1 F1500 X115.919 Y113.656 E45.10764
G0 F3600 X115.919 Y113.091
G1 F1500 X122.879 Y120.051 E45.45139
G0 F3600 X122.879 Y119.485
G1 F1500 X115.919 Y112.525 E45.79514
G0 F3600 X115.919 Y111.959
G1 F1500 X122.879 Y118.919 E46.13888
G0 F3600 X122.879 Y118.354
G1 F1500 X115.919 Y111.394 E46.48263
G0 F3600 X115.919 Y110.828
G1 F1500 X122.879 Y117.788 E46.82637
G0 F3600 X122.879 Y117.222
G1 F1500 X115.919 Y110.262 E47.17012
G0 F3600 X115.918 Y109.696
G1 F1500 X122.879 Y116.657 E47.51392
G0 F3600 X122.879 Y116.091
G1 F1500 X115.918 Y109.13 E47.85771
G0 F3600 X115.918 Y108.564
G1 F1500 X122.879 Y115.525 E48.20151
G0 F3600 X122.879 Y114.96
G1 F1500 X115.918 Y107.999 E48.5453
G0 F3600 X115.918 Y107.433
G1 F1500 X122.879 Y114.394 E48.8891
G0 F3600 X122.879 Y113.828
G1 F1500 X115.918 Y106.867 E49.23289
G0 F3600 X115.918 Y106.302
G1 F1500 X122.879 Y113.262 E49.57666
G0 F3600 X122.879 Y112.697
G1 F1500 X115.918 Y105.736 E49.92046
G0 F3600 X115.918 Y105.17
G1 F1500 X122.879 Y112.131 E50.26425
G0 F3600 X122.879 Y111.565
G1 F1500 X115.918 Y104.605 E50.60802
G0 F3600 X115.918 Y104.039
G1 F1500 X122.879 Y111 E50.95182
G0 F3600 X122.879 Y110.434
G1 F1500 X115.918 Y103.473 E51.29561
G0 F3600 X115.918 Y102.908
G1 F1500 X122.879 Y109.868 E51.63938
G0 F3600 X122.879 Y109.303
G1 F1500 X115.918 Y102.342 E51.98318
G0 F3600 X115.918 Y101.776
G1 F1500 X122.879 Y108.737 E52.32698
G0 F3600 X122.879 Y108.171
G1 F1500 X115.918 Y101.211 E52.67075
G0 F3600 X115.918 Y100.645
G1 F1500 X122.879 Y107.606 E53.01454
G0 F3600 X122.879 Y107.04
G1 F1500 X115.918 Y100.079 E53.35834
G0 F3600 X115.918 Y99.513
G1 F1500 X122.879 Y106.474 E53.70213
G0 F3600 X122.879 Y105.909
G1 F1500 X115.918 Y98.948 E54.04593
G0 F3600 X115.918 Y98.382
G1 F1500 X122.879 Y105.343 E54.38972
G0 F3600 X122.879 Y104.777
G1 F1500 X115.918 Y97.816 E54.73352
G0 F3600 X115.918 Y97.251
G1 F1500 X122.879 Y104.211 E55.07729
G0 F3600 X122.879 Y103.646
G1 F1500 X115.918 Y96.685 E55.42108
G0 F3600 X115.918 Y96.119
G1 F1500 X122.879 Y103.08 E55.76488
G0 F3600 X122.879 Y102.514
G1 F1500 X115.918 Y95.554 E56.10865
G0 F3600 X115.918 Y94.988
G1 F1500 X122.879 Y101.949 E56.45244
G0 F3600 X122.879 Y101.383
G1 F1500 X115.918 Y94.422 E56.79624
G0 F3600 X115.918 Y93.857
G1 F1500 X122.879 Y100.817 E57.14001
G0 F3600 X122.879 Y100.252
G1 F1500 X115.918 Y93.291 E57.48381
G0 F3600 X115.918 Y92.725
G1 F1500 X122.879 Y99.686 E57.8276
G0 F3600 X122.879 Y99.12
G1 F1500 X115.918 Y92.16 E58.17137
G0 F3600 X115.918 Y91.594
G1 F1500 X122.879 Y98.555 E58.51517
G0 F3600 X122.879 Y97.989
G1 F1500 X115.918 Y91.028 E58.85896
G0 F3600 X115.918 Y90.462
G1 F1500 X122.879 Y97.423 E59.20276
G0 F3600 X122.879 Y96.858
G1 F1500 X115.918 Y89.897 E59.54655
G0 F3600 X115.918 Y89.331
G1 F1500 X122.879 Y96.292 E59.89035
G0 F3600 X122.879 Y95.726
G1 F1500 X115.918 Y88.765 E60.23414
G0 F3600 X115.918 Y88.2
G1 F1500 X122.879 Y95.161 E60.57794
G0 F3600 X122.879 Y94.595
G1 F1500 X115.918 Y87.634 E60.92173
G0 F3600 X115.918 Y87.068
G1 F1500 X122.879 Y94.029 E61.26553
G0 F3600 X122.879 Y93.463
G1 F1500 X115.918 Y86.503 E61.6093
G0 F3600 X115.918 Y85.937
G1 F1500 X122.879 Y92.898 E61.9531
G0 F3600 X122.879 Y92.332
G1 F1500 X120.406 Y89.859 E62.07523
G0 F3600 X120.971 Y89.859
G1 F1500 X122.879 Y91.766 E62.16944
G0 F3600 X122.879 Y91.201
G1 F1500 X121.537 Y89.859 E62.23572
G0 F3600 X122.103 Y89.859
G1 F1500 X122.879 Y90.635 E62.27405
G0 F3600 X122.879 Y90.069
G1 F1500 X122.668 Y89.859 E62.28445
G0 F3600 X120.096 Y89.325
G0 X117.688 Y87.141
G1 F1500 X115.918 Y85.371 E62.37186
G0 F3600 X115.918 Y84.806
G1 F1500 X117.688 Y86.576 E62.45928
G0 F3600 X117.688 Y86.01
G1 F1500 X115.918 Y84.24 E62.5467
G0 F3600 X115.918 Y83.674
G1 F1500 X117.688 Y85.444 E62.63412
G0 F3600 X117.688 Y84.878
G1 F1500 X115.918 Y83.109 E62.72151
G0 F3600 X115.918 Y82.543
G1 F1500 X117.688 Y84.313 E62.80893
G0 F3600 X117.688 Y83.747
G1 F1500 X115.918 Y81.977 E62.89635
G0 F3600 X115.918 Y81.412
G1 F1500 X117.688 Y83.181 E62.98374
G0 F3600 X117.688 Y82.616
G1 F1500 X115.918 Y80.846 E63.07116
G0 F3600 X115.918 Y80.28
G1 F1500 X117.688 Y82.05 E63.15858
G0 F3600 X117.688 Y81.484
G1 F1500 X115.918 Y79.714 E63.246
G0 F3600 X115.918 Y79.149
G1 F1500 X117.891 Y81.122 E63.34344
G0 F3600 X118.174 Y80.839
G1 F1500 X115.918 Y78.583 E63.45486
G0 F3600 X115.918 Y78.017
G1 F1500 X118.457 Y80.556 E63.58026
G0 F3600 X118.74 Y80.273
G1 F1500 X116.136 Y77.67 E63.70884
G0 F3600 X116.702 Y77.67
G1 F1500 X119.023 Y79.99 E63.82345
G0 F3600 X119.305 Y79.707
G1 F1500 X117.268 Y77.67 E63.92405
G0 F3600 X117.833 Y77.67
G1 F1500 X119.588 Y79.425 E64.01073
G0 F3600 X119.871 Y79.142
G1 F1500 X118.399 Y77.67 E64.08343
G0 F3600 X118.965 Y77.67
G1 F1500 X120.435 Y79.14 E64.15603
G0 F3600 X121.001 Y79.14
G1 F1500 X119.53 Y77.67 E64.22866
G0 F3600 X120.096 Y77.67
G1 F1500 X121.567 Y79.14 E64.30129
G0 F3600 X122.132 Y79.14
G1 F1500 X120.662 Y77.67 E64.37389
G0 F3600 X121.227 Y77.67
G1 F1500 X122.698 Y79.14 E64.44651
G0 F3600 X122.879 Y78.756
G1 F1500 X121.793 Y77.67 E64.50015
G0 F3600 X122.359 Y77.67
G1 F1500 X122.879 Y78.19 E64.52583
G0 F3600 X123.074 Y79.516
;TYPE:SKIN
G1 F1500 X123.269 Y79.711 E64.53065
G0 F3600 X123.269 Y79.994
G1 F1500 X122.976 Y79.701 E64.53788
G0 F3600 X122.976 Y79.984
G1 F1500 X123.269 Y80.277 E64.54512
G0 F3600 X123.269 Y80.559
G1 F1500 X122.976 Y80.267 E64.55234
G0 F3600 X122.976 Y80.55
G1 F1500 X123.269 Y80.842 E64.55956
G0 F3600 X123.269 Y81.125
G1 F1500 X122.976 Y80.832 E64.5668
G0 F3600 X122.976 Y81.115
G1 F1500 X123.269 Y81.408 E64.57403
G0 F3600 X123.269 Y81.691
G1 F1500 X122.976 Y81.398 E64.58127
G0 F3600 X122.976 Y81.681
G1 F1500 X123.269 Y81.974 E64.58851
G0 F3600 X123.269 Y82.257
G1 F1500 X122.976 Y81.964 E64.59574
G0 F3600 X122.976 Y82.247
G1 F1500 X123.269 Y82.539 E64.60296
G0 F3600 X123.269 Y82.822
G1 F1500 X122.976 Y82.529 E64.6102
G0 F3600 X122.976 Y82.812
G1 F1500 X123.269 Y83.105 E64.61744
G0 F3600 X123.269 Y83.388
G1 F1500 X122.976 Y83.095 E64.62467
G0 F3600 X122.976 Y83.378
G1 F1500 X123.269 Y83.671 E64.63191
G0 F3600 X123.269 Y83.954
G1 F1500 X122.976 Y83.661 E64.63914
G0 F3600 X122.976 Y83.944
G1 F1500 X123.269 Y84.236 E64.64636
G0 F3600 X123.269 Y84.519
G1 F1500 X122.976 Y84.227 E64.65359
G0 F3600 X122.976 Y84.509
G1 F1500 X123.269 Y84.802 E64.66082
G0 F3600 X123.269 Y85.085
G1 F1500 X122.976 Y84.792 E64.66806
G0 F3600 X122.976 Y85.075
G1 F1500 X123.269 Y85.368 E64.67529
G0 F3600 X123.269 Y85.651
G1 F1500 X122.976 Y85.358 E64.68253
G0 F3600 X122.976 Y85.641
G1 F1500 X123.269 Y85.933 E64.68975
G0 F3600 X123.269 Y86.216
G1 F1500 X122.976 Y85.924 E64.69698
G0 F3600 X122.976 Y86.206
G1 F1500 X123.269 Y86.499 E64.70421
G0 F3600 X123.269 Y86.782
G1 F1500 X122.976 Y86.489 E64.71145
G0 F3600 X122.976 Y86.772
G1 F1500 X123.269 Y87.065 E64.71868
G0 F3600 X123.269 Y87.348
G1 F1500 X122.976 Y87.055 E64.72592
G0 F3600 X122.976 Y87.338
G1 F1500 X123.269 Y87.631 E64.73315
G0 F3600 X123.269 Y87.913
G1 F1500 X122.976 Y87.621 E64.74038
G0 F3600 X122.976 Y87.903
G1 F1500 X123.269 Y88.196 E64.74761
G0 F3600 X123.269 Y88.479
G1 F1500 X122.976 Y88.186 E64.75485
G0 F3600 X122.976 Y88.469
G1 F1500 X123.269 Y88.762 E64.76208
G0 F3600 X123.269 Y89.045
G1 F1500 X122.976 Y88.752 E64.76932
G0 F3600 X122.976 Y89.035
G1 F1500 X123.269 Y89.328 E64.77655
G0 F3600 X123.141 Y89.483
G1 F1500 X122.976 Y89.318 E64.78063
G0 F3600 X123.05 Y89.571
;MESH:NONMESH
G0 F600 X123.05 Y89.571 Z0.6
G0 F3600 X120.073 Y89.381
G0 X120.111 Y89.289
;TIME_ELAPSED:83.493813
;LAYER:1
M140 S65
;TYPE:WALL-INNER
;MESH:Body45.stl
G1 F2250 X122.797 Y89.289 E64.91463
G1 X122.797 Y79.711 E65.39248
G1 X120.111 Y79.711 E65.52649
G1 X118.26 Y81.562 E65.65708
G1 X118.26 Y87.438 E65.95024
G1 X120.111 Y89.289 E66.08084
G0 F5400 X120.277 Y88.889
;TYPE:WALL-OUTER
