;FLAVOR:Marlin
;TIME:1103
;Filament used: 0m, 1.1817m
;Layer height: 0.3
;MINX:111.15
;MINY:72.65
;MINZ:0.3
;MAXX:127.75
;MAXY:147.35
;MAXZ:16.8
;Generated with Cura_SteamEngine 4.4.1
T1
M140 S65
M105
M190 S65
M104 S200
M105
M109 S200
M82 ;absolute extrusion mode
G28 ;Home
G1 Z15.0 F6000 ;Move the platform down 15mm
;Prime the extruder
G92 E0
G1 F200 E3
G92 E0
G92 E0
t1
G92 E0
G1 F1500 E-6.5
;LAYER_COUNT:56
;LAYER:0
M106 S255
G0 F3600 X111.808 Y74.197 Z0.3
;TYPE:SKIRT
G1 F1500 E0
G1 X112.147 Y73.781 E0.01874
G1 X112.544 Y73.421 E0.03746
G1 X112.991 Y73.123 E0.05622
G1 X113.476 Y72.895 E0.07493
G1 X113.99 Y72.742 E0.09366
G1 X114.658 Y72.66 E0.11717
G1 X114.979 Y72.651 E0.12838
G1 X115.08 Y72.65 E0.13191
G1 X123.495 Y72.65 E0.42579
G1 X124.193 Y72.66 E0.45017
G1 X124.727 Y72.708 E0.46889
G1 X125.248 Y72.834 E0.48761
G1 X125.745 Y73.037 E0.50636
G1 X126.206 Y73.311 E0.52509
G1 X126.621 Y73.65 E0.5438
G1 X126.981 Y74.048 E0.56254
G1 X127.278 Y74.494 E0.58126
G1 X127.506 Y74.98 E0.6
G1 X127.658 Y75.494 E0.61872
G1 X127.74 Y76.159 E0.64212
G1 X127.749 Y76.479 E0.6533
G1 X127.75 Y76.58 E0.65683
G1 X127.75 Y143.059 E2.97849
G1 X127.741 Y143.786 E3.00388
G1 X127.694 Y144.32 E3.0226
G1 X127.569 Y144.841 E3.04131
G1 X127.367 Y145.338 E3.06004
G1 X127.094 Y145.8 E3.07879
G1 X126.756 Y146.216 E3.0975
G1 X126.359 Y146.577 E3.11624
G1 X125.913 Y146.875 E3.13498
G1 X125.428 Y147.103 E3.15369
G1 X124.914 Y147.257 E3.17243
G1 X124.242 Y147.34 E3.19608
G1 X123.921 Y147.349 E3.20729
G1 X123.82 Y147.35 E3.21082
G1 X115.411 Y147.35 E3.50449
G1 X114.713 Y147.341 E3.52887
G1 X114.178 Y147.294 E3.54762
G1 X113.657 Y147.168 E3.56634
G1 X113.16 Y146.966 E3.58508
G1 X112.699 Y146.693 E3.60379
G1 X112.283 Y146.354 E3.62253
G1 X111.922 Y145.958 E3.64124
G1 X111.624 Y145.512 E3.65998
G1 X111.396 Y145.026 E3.67872
G1 X111.243 Y144.512 E3.69745
G1 X111.16 Y143.838 E3.72117
G1 X111.151 Y143.505 E3.7328
G1 X111.15 Y143.408 E3.73619
G1 X111.15 Y76.875 E6.05973
G1 X111.159 Y76.21 E6.08296
G1 X111.207 Y75.676 E6.10168
G1 X111.333 Y75.155 E6.1204
G1 X111.535 Y74.658 E6.13914
G1 X111.808 Y74.197 E6.15785
G0 F3600 X112.204 Y74.332
G1 F1500 X112.539 Y73.954 E6.17549
G1 X112.93 Y73.633 E6.19315
G1 X113.367 Y73.378 E6.21082
G1 X113.838 Y73.194 E6.22848
G1 X114.332 Y73.088 E6.24613
G1 X114.669 Y73.06 E6.25794
G1 X114.99 Y73.051 E6.26915
G1 X115.08 Y73.05 E6.2723
G1 X123.489 Y73.05 E6.56596
G1 X124.187 Y73.06 E6.59034
G1 X124.69 Y73.107 E6.60799
G1 X125.18 Y73.233 E6.62565
G1 X125.644 Y73.435 E6.64333
G1 X126.07 Y73.707 E6.66098
G1 X126.448 Y74.042 E6.67862
G1 X126.768 Y74.433 E6.69626
G1 X127.023 Y74.87 E6.71393
G1 X127.206 Y75.341 E6.73158
G1 X127.313 Y75.835 E6.74923
G1 X127.34 Y76.17 E6.76097
G1 X127.349 Y76.49 E6.77215
G1 X127.35 Y76.58 E6.77529
G1 X127.35 Y143.054 E9.09677
G1 X127.341 Y143.781 E9.12216
G1 X127.295 Y144.284 E9.1398
G1 X127.17 Y144.774 E9.15746
G1 X126.969 Y145.238 E9.17512
G1 X126.698 Y145.665 E9.19279
G1 X126.363 Y146.044 E9.21045
G1 X125.973 Y146.365 E9.22809
G1 X125.537 Y146.621 E9.24575
G1 X125.066 Y146.804 E9.26339
G1 X124.572 Y146.912 E9.28105
G1 X124.231 Y146.94 E9.293
G1 X123.91 Y146.949 E9.30422
G1 X123.82 Y146.95 E9.30736
G1 X115.416 Y146.95 E9.60086
G1 X114.718 Y146.941 E9.62523
G1 X114.214 Y146.894 E9.64291
G1 X113.724 Y146.769 E9.66057
G1 X113.26 Y146.568 E9.67823
G1 X112.834 Y146.297 E9.69586
G1 X112.455 Y145.962 E9.71353
G1 X112.134 Y145.571 E9.7312
G1 X111.879 Y145.135 E9.74884
G1 X111.695 Y144.664 E9.76649
G1 X111.588 Y144.17 E9.78415
G1 X111.56 Y143.827 E9.79617
G1 X111.551 Y143.494 E9.8078
G1 X111.55 Y143.408 E9.8108
G1 X111.55 Y76.881 E12.13413
G1 X111.559 Y76.216 E12.15736
G1 X111.606 Y75.712 E12.17504
G1 X111.732 Y75.223 E12.19267
G1 X111.933 Y74.759 E12.21033
G1 X112.204 Y74.332 E12.22799
G1 F1500 E5.72799
;MESH:Body45.stl
G0 F3600 X114.085 Y76.864
G0 X115.364 Y76.864
G0 X118.224 Y87.703
G0 X120.073 Y89.631
G0 X120.111 Y89.539
;TYPE:WALL-INNER
G1 F1500 E12.22799
G1 X122.797 Y89.539 E12.3218
G1 X122.797 Y79.961 E12.65629
G1 X120.111 Y79.961 E12.7501
G1 X118.26 Y81.812 E12.84151
G1 X118.26 Y87.688 E13.04672
G1 X120.111 Y89.539 E13.13814
G0 F3600 X120.277 Y89.139
;TYPE:WALL-OUTER
G1 F1500 X122.397 Y89.139 E13.21218
G1 X122.397 Y80.361 E13.51873
G1 X120.277 Y80.361 E13.59277
G1 X118.66 Y81.978 E13.67263
G1 X118.66 Y87.522 E13.86625
G1 X120.277 Y89.139 E13.94611
G0 F3600 X120.477 Y89.139
G0 X120.477 Y89.579
G0 X120.477 Y89.639
G0 X115.42 Y143.08
G0 X115.35 Y143.15
;TYPE:WALL-INNER
G1 F1500 X115.35 Y76.85 E16.26151
G1 X123.55 Y76.85 E16.54788
G1 X123.55 Y143.15 E18.86329
G1 X115.35 Y143.15 E19.14966
G0 F3600 X114.95 Y143.55
;TYPE:WALL-OUTER
G1 F1500 X114.95 Y76.45 E21.493
G1 X123.95 Y76.45 E21.80731
G1 X123.95 Y143.55 E24.15065
G1 X114.95 Y143.55 E24.46496
G0 F3600 X114.95 Y143.35
G0 X115.39 Y143.11
G0 X115.74 Y142.76
;TYPE:SKIN
G1 F1500 X115.74 Y77.24 E26.75312
G1 X123.16 Y77.24 E27.01225
G1 X123.16 Y79.571 E27.09366
G1 X119.949 Y79.571 E27.2058
G1 X117.87 Y81.65 E27.30848
G1 X117.87 Y87.85 E27.525
G1 X119.949 Y89.929 E27.62768
G1 X123.16 Y89.929 E27.73982
G1 X123.16 Y142.76 E29.58484
G1 X115.74 Y142.76 E29.84397
G0 F3600 X115.992 Y142.579
G1 F1500 X115.919 Y142.506 E29.84758
G0 F3600 X115.919 Y141.941
G1 F1500 X116.558 Y142.579 E29.87911
G0 F3600 X117.123 Y142.579
G1 F1500 X115.919 Y141.375 E29.93857
G0 F3600 X115.919 Y140.809
G1 F1500 X117.689 Y142.579 E30.02599
G0 F3600 X118.255 Y142.579
G1 F1500 X115.919 Y140.244 E30.14134
G0 F3600 X115.919 Y139.678
G1 F1500 X118.82 Y142.579 E30.28462
G0 F3600 X119.386 Y142.579
G1 F1500 X115.919 Y139.112 E30.45585
G0 F3600 X115.919 Y138.546
G1 F1500 X119.952 Y142.579 E30.65503
G0 F3600 X120.517 Y142.579
G1 F1500 X115.919 Y137.981 E30.88212
G0 F3600 X115.919 Y137.415
G1 F1500 X121.083 Y142.579 E31.13717
G0 F3600 X121.649 Y142.579
G1 F1500 X115.919 Y136.849 E31.42016
G0 F3600 X115.919 Y136.284
G1 F1500 X122.214 Y142.579 E31.73107
G0 F3600 X122.78 Y142.579
G1 F1500 X115.919 Y135.718 E32.06992
G0 F3600 X115.919 Y135.152
G1 F1500 X122.98 Y142.213 E32.41866
G0 F3600 X122.98 Y141.647
G1 F1500 X115.919 Y134.587 E32.76737
G0 F3600 X115.919 Y134.021
G1 F1500 X122.98 Y141.081 E33.11608
G0 F3600 X122.98 Y140.516
G1 F1500 X115.919 Y133.455 E33.46481
G0 F3600 X115.919 Y132.89
G1 F1500 X122.98 Y139.95 E33.81352
G0 F3600 X122.98 Y139.384
G1 F1500 X115.919 Y132.324 E34.16223
G0 F3600 X115.919 Y131.758
G1 F1500 X122.98 Y138.819 E34.51096
G0 F3600 X122.98 Y138.253
G1 F1500 X115.919 Y131.193 E34.85967
G0 F3600 X115.919 Y130.627
G1 F1500 X122.98 Y137.687 E35.20838
G0 F3600 X122.98 Y137.122
G1 F1500 X115.919 Y130.061 E35.55712
G0 F3600 X115.919 Y129.496
G1 F1500 X122.98 Y136.556 E35.90583
G0 F3600 X122.98 Y135.99
G1 F1500 X115.919 Y128.93 E36.25454
G0 F3600 X115.919 Y128.364
G1 F1500 X122.98 Y135.425 E36.60327
G0 F3600 X122.98 Y134.859
G1 F1500 X115.919 Y127.798 E36.952
G0 F3600 X115.919 Y127.233
G1 F1500 X122.98 Y134.293 E37.30071
G0 F3600 X122.98 Y133.728
G1 F1500 X115.919 Y126.667 E37.64945
G0 F3600 X115.919 Y126.101
G1 F1500 X122.98 Y133.162 E37.99818
G0 F3600 X122.98 Y132.596
G1 F1500 X115.919 Y125.536 E38.34689
G0 F3600 X115.919 Y124.97
G1 F1500 X122.98 Y132.03 E38.6956
G0 F3600 X122.98 Y131.465
G1 F1500 X115.919 Y124.404 E39.04434
G0 F3600 X115.919 Y123.839
G1 F1500 X122.98 Y130.899 E39.39304
G0 F3600 X122.98 Y130.333
G1 F1500 X115.919 Y123.273 E39.74175
G0 F3600 X115.919 Y122.707
G1 F1500 X122.98 Y129.768 E40.09049
G0 F3600 X122.98 Y129.202
G1 F1500 X115.919 Y122.142 E40.4392
G0 F3600 X115.919 Y121.576
G1 F1500 X122.98 Y128.636 E40.78791
G0 F3600 X122.98 Y128.071
G1 F1500 X115.919 Y121.01 E41.13664
G0 F3600 X115.919 Y120.445
G1 F1500 X122.98 Y127.505 E41.48535
G0 F3600 X122.98 Y126.939
G1 F1500 X115.919 Y119.879 E41.83406
G0 F3600 X115.919 Y119.313
G1 F1500 X122.98 Y126.374 E42.18279
G0 F3600 X122.98 Y125.808
G1 F1500 X115.919 Y118.747 E42.53153
G0 F3600 X115.919 Y118.182
G1 F1500 X122.98 Y125.242 E42.88024
G0 F3600 X122.98 Y124.677
G1 F1500 X115.919 Y117.616 E43.22897
G0 F3600 X115.919 Y117.05
G1 F1500 X122.98 Y124.111 E43.57771
G0 F3600 X122.98 Y123.545
G1 F1500 X115.919 Y116.485 E43.92642
G0 F3600 X115.919 Y115.919
G1 F1500 X122.98 Y122.98 E44.27515
G0 F3600 X122.98 Y122.414
G1 F1500 X115.919 Y115.353 E44.62388
G0 F3600 X115.919 Y114.788
G1 F1500 X122.98 Y121.848 E44.97259
G0 F3600 X122.98 Y121.282
G1 F1500 X115.919 Y114.222 E45.3213
G0 F3600 X115.919 Y113.656
G1 F1500 X122.98 Y120.717 E45.67004
G0 F3600 X122.98 Y120.151
G1 F1500 X115.919 Y113.091 E46.01875
G0 F3600 X115.919 Y112.525
G1 F1500 X122.98 Y119.585 E46.36746
G0 F3600 X122.98 Y119.02
G1 F1500 X115.919 Y111.959 E46.71619
G0 F3600 X115.919 Y111.394
G1 F1500 X122.98 Y118.454 E47.0649
G0 F3600 X122.98 Y117.888
G1 F1500 X115.919 Y110.828 E47.41361
G0 F3600 X115.919 Y110.262
G1 F1500 X122.98 Y117.323 E47.76234
G0 F3600 X122.98 Y116.757
G1 F1500 X115.919 Y109.697 E48.11105
G0 F3600 X115.919 Y109.131
G1 F1500 X122.98 Y116.191 E48.45976
G0 F3600 X122.98 Y115.626
G1 F1500 X115.919 Y108.565 E48.8085
G0 F3600 X115.919 Y107.999
G1 F1500 X122.98 Y115.06 E49.15723
G0 F3600 X122.98 Y114.494
G1 F1500 X115.919 Y107.434 E49.50594
G0 F3600 X115.919 Y106.868
G1 F1500 X122.98 Y113.929 E49.85467
G0 F3600 X122.98 Y113.363
G1 F1500 X115.919 Y106.302 E50.20341
G0 F3600 X115.919 Y105.737
G1 F1500 X122.98 Y112.797 E50.55212
G0 F3600 X122.98 Y112.231
G1 F1500 X115.919 Y105.171 E50.90083
G0 F3600 X115.919 Y104.605
G1 F1500 X122.98 Y111.666 E51.24956
G0 F3600 X122.98 Y111.1
G1 F1500 X115.919 Y104.04 E51.59827
G0 F3600 X115.919 Y103.474
G1 F1500 X122.98 Y110.534 E51.94698
G0 F3600 X122.98 Y109.969
G1 F1500 X115.919 Y102.908 E52.29572
G0 F3600 X115.919 Y102.343
G1 F1500 X122.98 Y109.403 E52.64442
G0 F3600 X122.98 Y108.837
G1 F1500 X115.919 Y101.777 E52.99313
G0 F3600 X115.919 Y101.211
G1 F1500 X122.98 Y108.272 E53.34187
G0 F3600 X122.98 Y107.706
G1 F1500 X115.919 Y100.646 E53.69058
G0 F3600 X115.919 Y100.08
G1 F1500 X122.98 Y107.14 E54.03929
G0 F3600 X122.98 Y106.575
G1 F1500 X115.919 Y99.514 E54.38802
G0 F3600 X115.919 Y98.948
G1 F1500 X122.98 Y106.009 E54.73676
G0 F3600 X122.98 Y105.443
G1 F1500 X115.919 Y98.383 E55.08547
G0 F3600 X115.919 Y97.817
G1 F1500 X122.98 Y104.878 E55.4342
G0 F3600 X122.98 Y104.312
G1 F1500 X115.919 Y97.251 E55.78293
G0 F3600 X115.919 Y96.686
G1 F1500 X122.98 Y103.746 E56.13164
G0 F3600 X122.98 Y103.181
G1 F1500 X115.919 Y96.12 E56.48038
G0 F3600 X115.919 Y95.554
G1 F1500 X122.98 Y102.615 E56.82911
G0 F3600 X122.98 Y102.049
G1 F1500 X115.919 Y94.989 E57.17782
G0 F3600 X115.919 Y94.423
G1 F1500 X122.98 Y101.483 E57.52653
G0 F3600 X122.98 Y100.918
G1 F1500 X115.919 Y93.857 E57.87526
G0 F3600 X115.919 Y93.292
G1 F1500 X122.98 Y100.352 E58.22397
G0 F3600 X122.98 Y99.786
G1 F1500 X115.919 Y92.726 E58.57268
G0 F3600 X115.919 Y92.16
G1 F1500 X122.98 Y99.221 E58.92142
G0 F3600 X122.98 Y98.655
G1 F1500 X115.919 Y91.595 E59.27013
G0 F3600 X115.919 Y91.029
G1 F1500 X122.98 Y98.089 E59.61884
G0 F3600 X122.98 Y97.524
G1 F1500 X115.919 Y90.463 E59.96757
G0 F3600 X115.919 Y89.898
G1 F1500 X122.98 Y96.958 E60.31628
G0 F3600 X122.98 Y96.392
G1 F1500 X115.919 Y89.332 E60.66499
G0 F3600 X115.919 Y88.766
G1 F1500 X122.98 Y95.827 E61.01372
G0 F3600 X122.98 Y95.261
G1 F1500 X115.919 Y88.2 E61.36246
G0 F3600 X115.919 Y87.635
G1 F1500 X122.98 Y94.695 E61.71117
G0 F3600 X122.98 Y94.13
G1 F1500 X115.919 Y87.069 E62.0599
G0 F3600 X115.919 Y86.503
G1 F1500 X122.98 Y93.564 E62.40864
G0 F3600 X122.98 Y92.998
G1 F1500 X120.09 Y90.108 E62.55137
G0 F3600 X120.655 Y90.108
G1 F1500 X122.98 Y92.432 E62.66617
G0 F3600 X122.98 Y91.867
G1 F1500 X121.221 Y90.108 E62.75305
G0 F3600 X121.787 Y90.108
G1 F1500 X122.98 Y91.301 E62.81197
G0 F3600 X122.98 Y90.735
G1 F1500 X122.352 Y90.108 E62.84296
G0 F3600 X122.918 Y90.108
G1 F1500 X122.98 Y90.17 E62.84602
G0 F3600 X120.096 Y89.575
G0 X117.689 Y87.708
G1 F1500 X115.919 Y85.938 E62.93344
G0 F3600 X115.919 Y85.372
G1 F1500 X117.689 Y87.142 E63.02086
G0 F3600 X117.689 Y86.576
G1 F1500 X115.919 Y84.806 E63.10828
G0 F3600 X115.919 Y84.241
G1 F1500 X117.689 Y86.011 E63.1957
G0 F3600 X117.689 Y85.445
G1 F1500 X115.919 Y83.675 E63.28311
G0 F3600 X115.919 Y83.109
G1 F1500 X117.689 Y84.879 E63.37053
G0 F3600 X117.689 Y84.313
G1 F1500 X115.919 Y82.544 E63.45793
G0 F3600 X115.919 Y81.978
G1 F1500 X117.689 Y83.748 E63.54534
G0 F3600 X117.689 Y83.182
G1 F1500 X115.919 Y81.412 E63.63276
G0 F3600 X115.919 Y80.847
G1 F1500 X117.689 Y82.616 E63.72016
G0 F3600 X117.689 Y82.051
G1 F1500 X115.919 Y80.281 E63.80757
G0 F3600 X115.919 Y79.715
G1 F1500 X117.733 Y81.53 E63.89719
G0 F3600 X118.016 Y81.247
G1 F1500 X115.919 Y79.149 E64.00078
G0 F3600 X115.919 Y78.584
G1 F1500 X118.299 Y80.964 E64.11833
G0 F3600 X118.582 Y80.681
G1 F1500 X115.919 Y78.018 E64.24985
G0 F3600 X115.919 Y77.452
G1 F1500 X118.865 Y80.398 E64.39535
G0 F3600 X119.148 Y80.115
G1 F1500 X116.452 Y77.42 E64.52848
G0 F3600 X117.018 Y77.42
G1 F1500 X119.431 Y79.833 E64.64765
G0 F3600 X119.713 Y79.55
G1 F1500 X117.584 Y77.42 E64.75283
G0 F3600 X118.149 Y77.42
G1 F1500 X120.119 Y79.39 E64.85012
G0 F3600 X120.685 Y79.39
G1 F1500 X118.715 Y77.42 E64.94742
G0 F3600 X119.281 Y77.42
G1 F1500 X121.251 Y79.39 E65.04471
G0 F3600 X121.816 Y79.39
G1 F1500 X119.846 Y77.42 E65.14201
G0 F3600 X120.412 Y77.42
G1 F1500 X122.382 Y79.39 E65.2393
G0 F3600 X122.948 Y79.39
G1 F1500 X120.978 Y77.42 E65.3366
G0 F3600 X121.543 Y77.42
G1 F1500 X122.979 Y78.855 E65.4075
G0 F3600 X122.979 Y78.29
G1 F1500 X122.109 Y77.42 E65.45047
G0 F3600 X122.675 Y77.42
G1 F1500 X122.979 Y77.724 E65.46548
G0 F3600 X123.04 Y79.765
;TYPE:SKIN
G1 F1500 X123.369 Y80.094 E65.47361
G0 F3600 X123.369 Y79.811
G1 F1500 X123.323 Y79.765 E65.47474
G0 F3600 X122.975 Y79.983
G1 F1500 X123.369 Y80.377 E65.48447
G0 F3600 X123.369 Y80.66
G1 F1500 X122.975 Y80.266 E65.4942
G0 F3600 X122.975 Y80.549
G1 F1500 X123.369 Y80.943 E65.50393
G0 F3600 X123.369 Y81.226
G1 F1500 X122.975 Y80.832 E65.51366
G0 F3600 X122.975 Y81.115
G1 F1500 X123.369 Y81.508 E65.52338
G0 F3600 X123.369 Y81.791
G1 F1500 X122.975 Y81.397 E65.53311
G0 F3600 X122.975 Y81.68
G1 F1500 X123.369 Y82.074 E65.54284
G0 F3600 X123.369 Y82.357
G1 F1500 X122.975 Y81.963 E65.55257
G0 F3600 X122.975 Y82.246
G1 F1500 X123.369 Y82.64 E65.5623
G0 F3600 X123.369 Y82.923
G1 F1500 X122.975 Y82.529 E65.57202
G0 F3600 X122.975 Y82.812
G1 F1500 X123.369 Y83.205 E65.58174
G0 F3600 X123.369 Y83.488
G1 F1500 X122.975 Y83.094 E65.59147
G0 F3600 X122.975 Y83.377
G1 F1500 X123.369 Y83.771 E65.6012
G0 F3600 X123.369 Y84.054
G1 F1500 X122.975 Y83.66 E65.61093
G0 F3600 X122.975 Y83.943
G1 F1500 X123.369 Y84.337 E65.62066
G0 F3600 X123.369 Y84.62
G1 F1500 X122.975 Y84.226 E65.63039
G0 F3600 X122.975 Y84.509
G1 F1500 X123.369 Y84.903 E65.64012
G0 F3600 X123.369 Y85.185
G1 F1500 X122.975 Y84.792 E65.64984
G0 F3600 X122.975 Y85.074
G1 F1500 X123.369 Y85.468 E65.65957
G0 F3600 X123.369 Y85.751
G1 F1500 X122.975 Y85.357 E65.6693
G0 F3600 X122.975 Y85.64
G1 F1500 X123.369 Y86.034 E65.67903
G0 F3600 X123.369 Y86.317
G1 F1500 X122.975 Y85.923 E65.68876
G0 F3600 X122.975 Y86.206
G1 F1500 X123.369 Y86.6 E65.69848
G0 F3600 X123.369 Y86.882
G1 F1500 X122.975 Y86.489 E65.7082
G0 F3600 X122.975 Y86.771
G1 F1500 X123.369 Y87.165 E65.71793
G0 F3600 X123.369 Y87.448
G1 F1500 X122.975 Y87.054 E65.72766
G0 F3600 X122.975 Y87.337
G1 F1500 X123.369 Y87.731 E65.73739
G0 F3600 X123.369 Y88.014
G1 F1500 X122.975 Y87.62 E65.74712
G0 F3600 X122.975 Y87.903
G1 F1500 X123.369 Y88.297 E65.75685
G0 F3600 X123.369 Y88.579
G1 F1500 X122.975 Y88.186 E65.76657
G0 F3600 X122.975 Y88.468
G1 F1500 X123.369 Y88.862 E65.7763
G0 F3600 X123.369 Y89.145
G1 F1500 X122.975 Y88.751 E65.78603
G0 F3600 X122.975 Y89.034
G1 F1500 X123.369 Y89.428 E65.79576
G0 F3600 X123.369 Y89.711
G1 F1500 X122.975 Y89.317 E65.80549
G0 F3600 X122.975 Y89.6
G1 F1500 X123.109 Y89.733 E65.80878
G0 F3600 X123.079 Y89.821
;MESH:NONMESH
G0 F600 X123.079 Y89.821 Z0.6
G0 F3600 X120.073 Y89.631
G0 X120.111 Y89.539
;TIME_ELAPSED:84.862935
;LAYER:1
M140 S65
;TYPE:WALL-INNER
;MESH:Body45.stl
G1 F2250 X122.797 Y89.539 E65.94279
G1 X122.797 Y79.961 E66.42064
