;FLAVOR:Marlin
;TIME:693
;Filament used: 0m, 0.612957m
;Layer height: 0.3
;MINX:76.419
;MINY:96.9
;MINZ:0.2
;MAXX:166.289
;MAXY:123.1
;MAXZ:6.2
;Generated with Cura_SteamEngine 4.4.1
T1
M140 S65
M105
M190 S65
M104 S200
M105
M109 S200
M82 ;absolute extrusion mode
G28 ;Home
G1 Z15.0 F6000 ;Move the platform down 15mm
;Prime the extruder
G92 E0
G1 F200 E3
G92 E0
G92 E0
t1
G92 E0
G1 F1500 E-6.5
;LAYER_COUNT:21
;LAYER:0
M106 S255
G0 F3600 X77.812 Y97.672 Z0.2
;TYPE:SKIRT
G1 F1500 E0
G1 X78.258 Y97.374 E0.01249
G1 X78.743 Y97.146 E0.02497
G1 X79.257 Y96.992 E0.03746
G1 X79.927 Y96.91 E0.05317
G1 X80.248 Y96.901 E0.06065
G1 X80.349 Y96.9 E0.063
G1 X94.212 Y96.9 E0.38576
G1 X94.91 Y96.91 E0.40201
G1 X95.312 Y96.939 E0.4114
G1 X96.99 Y97.153 E0.45078
G1 X99.722 Y97.455 E0.51478
G1 X102.439 Y97.677 E0.57824
G1 X105.172 Y97.824 E0.64197
G1 X108.995 Y97.9 E0.73099
G1 X162.034 Y97.9 E1.96585
G1 X162.732 Y97.91 E1.9821
G1 X163.266 Y97.958 E1.99459
G1 X163.787 Y98.084 E2.00706
G1 X164.284 Y98.287 E2.01956
G1 X164.745 Y98.561 E2.03205
G1 X165.16 Y98.9 E2.04453
G1 X165.52 Y99.298 E2.05702
G1 X165.817 Y99.744 E2.0695
G1 X166.045 Y100.23 E2.08199
G1 X166.197 Y100.744 E2.09447
G1 X166.278 Y101.403 E2.10993
G1 X166.287 Y101.707 E2.11701
G1 X166.289 Y101.814 E2.1195
G1 X166.289 Y118.809 E2.51518
G1 X166.28 Y119.536 E2.53211
G1 X166.233 Y120.07 E2.54459
G1 X166.108 Y120.591 E2.55707
G1 X165.906 Y121.088 E2.56956
G1 X165.633 Y121.55 E2.58205
G1 X165.295 Y121.966 E2.59453
G1 X164.898 Y122.327 E2.60702
G1 X164.452 Y122.625 E2.61951
G1 X163.967 Y122.853 E2.63199
G1 X163.453 Y123.007 E2.64448
G1 X162.781 Y123.09 E2.66025
G1 X162.46 Y123.099 E2.66772
G1 X162.359 Y123.1 E2.67007
G1 X93.345 Y123.1 E4.27686
G1 X92.642 Y123.09 E4.29323
G1 X92.108 Y123.042 E4.30572
G1 X91.586 Y122.916 E4.31822
G1 X91.09 Y122.713 E4.3307
G1 X90.473 Y122.324 E4.34768
G1 X90.324 Y122.207 E4.35209
G1 X88.1 Y120.515 E4.41715
G1 X85.904 Y118.939 E4.48008
G1 X83.631 Y117.404 E4.54394
G1 X81.35 Y115.956 E4.60684
G1 X78.964 Y114.536 E4.67149
G1 X78.227 Y114.11 E4.6913
G1 X77.784 Y113.808 E4.70379
G1 X77.391 Y113.444 E4.71626
G1 X77.056 Y113.025 E4.72875
G1 X76.787 Y112.561 E4.74124
G1 X76.59 Y112.062 E4.75373
G1 X76.47 Y111.539 E4.76622
G1 X76.429 Y111.093 E4.77665
G1 X76.42 Y110.77 E4.78417
G1 X76.419 Y110.67 E4.7865
G1 X76.419 Y101.151 E5.00812
G1 X76.428 Y100.462 E5.02416
G1 X76.475 Y99.928 E5.03664
G1 X76.601 Y99.406 E5.04915
G1 X76.803 Y98.91 E5.06161
G1 X77.076 Y98.448 E5.07411
G1 X77.415 Y98.033 E5.08658
G1 X77.812 Y97.672 E5.09908
G0 F3600 X78.198 Y97.884
G1 F1500 X78.634 Y97.628 E5.11085
G1 X79.105 Y97.445 E5.12261
G1 X79.599 Y97.338 E5.13438
G1 X79.938 Y97.31 E5.1423
G1 X80.259 Y97.301 E5.14978
G1 X80.349 Y97.3 E5.15187
G1 X94.206 Y97.3 E5.47449
G1 X94.904 Y97.31 E5.49075
G1 X95.262 Y97.336 E5.4991
G1 X96.923 Y97.547 E5.53808
G1 X99.716 Y97.856 E5.60351
G1 X102.419 Y98.077 E5.66665
G1 X105.144 Y98.224 E5.73019
G1 X108.987 Y98.3 E5.81968
G1 X162.028 Y98.3 E7.05458
G1 X162.726 Y98.31 E7.07083
G1 X163.229 Y98.357 E7.0826
G1 X163.719 Y98.483 E7.09438
G1 X164.183 Y98.685 E7.10616
G1 X164.609 Y98.957 E7.11793
G1 X164.987 Y99.292 E7.12969
G1 X165.307 Y99.683 E7.14145
G1 X165.562 Y100.12 E7.15323
G1 X165.745 Y100.591 E7.16499
G1 X165.852 Y101.085 E7.17676
G1 X165.879 Y101.415 E7.18447
G1 X165.888 Y101.719 E7.19155
G1 X165.889 Y101.814 E7.19376
G1 X165.889 Y118.804 E7.58933
G1 X165.88 Y119.531 E7.60625
G1 X165.834 Y120.034 E7.61801
G1 X165.709 Y120.524 E7.62979
G1 X165.508 Y120.988 E7.64156
G1 X165.237 Y121.415 E7.65333
G1 X164.902 Y121.794 E7.66511
G1 X164.512 Y122.115 E7.67687
G1 X164.076 Y122.371 E7.68864
G1 X163.605 Y122.554 E7.70041
G1 X163.111 Y122.662 E7.71218
G1 X162.77 Y122.69 E7.72015
G1 X162.449 Y122.699 E7.72762
G1 X162.359 Y122.7 E7.72972
G1 X93.35 Y122.7 E9.33639
G1 X92.647 Y122.69 E9.35276
G1 X92.144 Y122.643 E9.36452
G1 X91.654 Y122.517 E9.3763
G1 X91.191 Y122.315 E9.38806
G1 X90.72 Y122.009 E9.40114
G1 X90.531 Y121.861 E9.40673
G1 X88.353 Y120.204 E9.47044
G1 X86.138 Y118.616 E9.5339
G1 X83.863 Y117.079 E9.59782
G1 X81.522 Y115.593 E9.66238
G1 X79.187 Y114.203 E9.72564
G1 X78.427 Y113.764 E9.74608
G1 X78.011 Y113.477 E9.75784
G1 X77.645 Y113.129 E9.7696
G1 X77.338 Y112.727 E9.78138
G1 X77.099 Y112.281 E9.79316
G1 X76.932 Y111.804 E9.80493
G1 X76.829 Y111.082 E9.82191
G1 X76.82 Y110.759 E9.82943
G1 X76.819 Y110.67 E9.8315
G1 X76.819 Y101.156 E10.05301
G1 X76.828 Y100.467 E10.06905
G1 X76.875 Y99.964 E10.08081
G1 X77 Y99.474 E10.09259
G1 X77.201 Y99.01 E10.10436
G1 X77.472 Y98.583 E10.11613
G1 X77.807 Y98.205 E10.12789
G1 X78.198 Y97.884 E10.13967
G1 F1500 E3.63967
;MESH:Body42.stl
G0 F3600 X80.633 Y99.835
G0 X80.633 Y101.114
G0 X93.359 Y110.33
G0 X93.289 Y110.4
;TYPE:WALL-INNER
G1 F1500 E10.13967
G1 X80.619 Y110.4 E10.43465
G1 X80.619 Y101.1 E10.65118
G1 X94.828 Y101.1 E10.98199
G1 X95.056 Y101.125 E10.98733
G1 X95.238 Y101.185 E10.99179
G1 X95.401 Y101.28 E10.99619
G1 X95.863 Y101.699 E11.01071
G1 X96.251 Y101.923 E11.02114
G1 X96.67 Y102.059 E11.0314
G1 X97.072 Y102.1 E11.0408
G1 X162.089 Y102.1 E12.55454
G1 X162.089 Y118.9 E12.94567
G1 X93.289 Y118.9 E14.54748
G1 X93.289 Y110.4 E14.74538
G0 F3600 X92.889 Y110.8
;TYPE:WALL-OUTER
G1 F1500 X80.219 Y110.8 E15.04036
G1 X80.219 Y100.7 E15.27551
G1 X94.854 Y100.7 E15.61625
G1 X95.142 Y100.732 E15.62299
G1 X95.402 Y100.818 E15.62937
G1 X95.638 Y100.955 E15.63572
G1 X96.1 Y101.374 E15.65024
G1 X96.414 Y101.555 E15.65868
G1 X96.753 Y101.665 E15.66698
G1 X97.093 Y101.7 E15.67494
G1 X162.489 Y101.7 E17.19749
G1 X162.489 Y119.3 E17.60726
G1 X92.889 Y119.3 E19.22769
G1 X92.889 Y110.8 E19.42559
G0 F3600 X92.689 Y110.8
G0 X92.689 Y110.36
G0 X92.689 Y110.3
G0 X93.679 Y110.01
;TYPE:SKIN
G1 F1500 X81.009 Y110.01 E19.72057
G1 X81.009 Y101.49 E19.91894
G1 X94.803 Y101.49 E20.24009
G1 X94.972 Y101.509 E20.24405
G1 X95.078 Y101.543 E20.24664
G1 X95.173 Y101.599 E20.24921
G1 X95.631 Y102.016 E20.26363
G1 X96.091 Y102.282 E20.276
G1 X96.59 Y102.443 E20.28821
G1 X97.052 Y102.49 E20.29902
G1 X161.699 Y102.49 E21.80414
G1 X161.699 Y118.51 E22.17712
G1 X93.679 Y118.51 E23.76077
G1 X93.679 Y110.01 E23.95866
G0 F3600 X81.544 Y109.829
G1 F1500 X81.188 Y109.472 E23.9704
G0 F3600 X81.188 Y108.907
G1 F1500 X82.11 Y109.829 E24.00076
G0 F3600 X82.676 Y109.829
G1 F1500 X81.188 Y108.341 E24.04975
G0 F3600 X81.188 Y107.775
G1 F1500 X83.242 Y109.829 E24.11738
G0 F3600 X83.807 Y109.829
G1 F1500 X81.188 Y107.21 E24.20362
G0 F3600 X81.188 Y106.644
G1 F1500 X84.373 Y109.829 E24.30848
G0 F3600 X84.939 Y109.829
G1 F1500 X81.188 Y106.078 E24.43199
G0 F3600 X81.188 Y105.513
G1 F1500 X85.504 Y109.829 E24.5741
G0 F3600 X86.07 Y109.829
G1 F1500 X81.188 Y104.947 E24.73484
G0 F3600 X81.188 Y104.381
G1 F1500 X86.636 Y109.829 E24.91422
G0 F3600 X87.201 Y109.829
G1 F1500 X81.188 Y103.816 E25.1122
G0 F3600 X81.188 Y103.25
G1 F1500 X87.767 Y109.829 E25.32882
G0 F3600 X88.333 Y109.829
G1 F1500 X81.188 Y102.684 E25.56408
G0 F3600 X81.188 Y102.118
G1 F1500 X88.898 Y109.829 E25.81795
G0 F3600 X89.464 Y109.829
G1 F1500 X81.304 Y101.669 E26.08663
G0 F3600 X81.87 Y101.669
G1 F1500 X90.03 Y109.829 E26.3553
G0 F3600 X90.595 Y109.829
G1 F1500 X82.435 Y101.669 E26.62398
G0 F3600 X83.001 Y101.669
G1 F1500 X91.161 Y109.829 E26.89265
G0 F3600 X91.727 Y109.829
G1 F1500 X83.567 Y101.669 E27.16133
G0 F3600 X84.132 Y101.669
G1 F1500 X92.292 Y109.829 E27.43
G0 F3600 X92.858 Y109.829
G1 F1500 X84.698 Y101.669 E27.69868
G0 F3600 X85.264 Y101.669
G1 F1500 X93.424 Y109.829 E27.96735
G0 F3600 X93.858 Y110.263
G1 F1500 X101.924 Y118.329 E28.23293
G0 F3600 X101.358 Y118.329
G1 F1500 X93.858 Y110.829 E28.47988
G0 F3600 X93.858 Y111.394
G1 F1500 X100.793 Y118.329 E28.70822
G0 F3600 X100.227 Y118.329
G1 F1500 X93.858 Y111.96 E28.91792
G0 F3600 X93.858 Y112.526
G1 F1500 X99.661 Y118.329 E29.10899
G0 F3600 X99.096 Y118.329
G1 F1500 X93.858 Y113.091 E29.28146
G0 F3600 X93.858 Y113.657
G1 F1500 X98.53 Y118.329 E29.43529
G0 F3600 X97.964 Y118.329
G1 F1500 X93.858 Y114.223 E29.57048
G0 F3600 X93.858 Y114.788
G1 F1500 X97.399 Y118.329 E29.68707
G0 F3600 X96.833 Y118.329
G1 F1500 X93.858 Y115.354 E29.78503
G0 F3600 X93.858 Y115.92
G1 F1500 X96.267 Y118.329 E29.86434
G0 F3600 X95.701 Y118.329
G1 F1500 X93.858 Y116.485 E29.92504
G0 F3600 X93.858 Y117.051
G1 F1500 X95.136 Y118.329 E29.96712
G0 F3600 X94.57 Y118.329
G1 F1500 X93.858 Y117.617 E29.99056
G0 F3600 X93.858 Y118.182
G1 F1500 X94.004 Y118.329 E29.99539
G0 F3600 X102.49 Y118.329
G1 F1500 X85.83 Y101.669 E30.54393
G0 F3600 X86.395 Y101.669
G1 F1500 X103.055 Y118.329 E31.09248
G0 F3600 X103.621 Y118.329
G1 F1500 X86.961 Y101.669 E31.64102
G0 F3600 X87.527 Y101.669
G1 F1500 X104.187 Y118.329 E32.18957
G0 F3600 X104.752 Y118.329
G1 F1500 X88.092 Y101.669 E32.73811
G0 F3600 X88.658 Y101.669
G1 F1500 X105.318 Y118.329 E33.28666
G0 F3600 X105.884 Y118.329
G1 F1500 X89.224 Y101.669 E33.8352
G0 F3600 X89.789 Y101.669
G1 F1500 X106.449 Y118.329 E34.38375
G0 F3600 X107.015 Y118.329
G1 F1500 X90.355 Y101.669 E34.93229
G0 F3600 X90.921 Y101.669
G1 F1500 X107.581 Y118.329 E35.48084
G0 F3600 X108.147 Y118.329
G1 F1500 X91.486 Y101.669 E36.0294
G0 F3600 X92.052 Y101.669
G1 F1500 X108.712 Y118.329 E36.57794
G0 F3600 X109.278 Y118.329
G1 F1500 X92.618 Y101.669 E37.12649
G0 F3600 X93.183 Y101.669
G1 F1500 X109.844 Y118.329 E37.67505
G0 F3600 X110.409 Y118.329
G1 F1500 X93.749 Y101.669 E38.22359
G0 F3600 X94.315 Y101.669
G1 F1500 X110.975 Y118.329 E38.77214
G0 F3600 X111.541 Y118.329
G1 F1500 X94.892 Y101.68 E39.32032
G1 X94.822 Y101.61
G0 F3600 X96.322 Y102.545
G1 F1500 X112.106 Y118.329 E39.84002
G0 F3600 X112.672 Y118.329
G1 F1500 X97.009 Y102.666 E40.35574
G0 F3600 X97.578 Y102.669
G1 F1500 X113.238 Y118.329 E40.87136
G0 F3600 X113.803 Y118.329
G1 F1500 X98.144 Y102.669 E41.38696
G0 F3600 X98.709 Y102.669
G1 F1500 X114.369 Y118.329 E41.90258
G0 F3600 X114.935 Y118.329
G1 F1500 X99.275 Y102.669 E42.4182
G0 F3600 X99.841 Y102.669
G1 F1500 X115.5 Y118.329 E42.9338
G0 F3600 X116.066 Y118.329
G1 F1500 X100.407 Y102.669 E43.4494
G0 F3600 X100.972 Y102.669
G1 F1500 X116.632 Y118.329 E43.96502
G0 F3600 X117.197 Y118.329
G1 F1500 X101.538 Y102.669 E44.48062
G0 F3600 X102.104 Y102.669
G1 F1500 X117.763 Y118.329 E44.99623
G0 F3600 X118.329 Y118.329
G1 F1500 X102.669 Y102.669 E45.51185
G0 F3600 X103.235 Y102.669
G1 F1500 X118.895 Y118.329 E46.02746
G0 F3600 X119.46 Y118.329
G1 F1500 X103.801 Y102.669 E46.54307
G0 F3600 X104.366 Y102.669
G1 F1500 X120.026 Y118.329 E47.05869
G0 F3600 X120.592 Y118.329
G1 F1500 X104.932 Y102.669 E47.5743
G0 F3600 X105.498 Y102.669
G1 F1500 X121.157 Y118.329 E48.08991
G0 F3600 X121.723 Y118.329
G1 F1500 X106.063 Y102.669 E48.60553
G0 F3600 X106.629 Y102.669
G1 F1500 X122.289 Y118.329 E49.12114
G0 F3600 X122.854 Y118.329
G1 F1500 X107.195 Y102.669 E49.63675
G0 F3600 X107.76 Y102.669
G1 F1500 X123.42 Y118.329 E50.15237
G0 F3600 X123.986 Y118.329
G1 F1500 X108.326 Y102.669 E50.66798
G0 F3600 X108.892 Y102.669
G1 F1500 X124.551 Y118.329 E51.18359
G0 F3600 X125.117 Y118.329
G1 F1500 X109.458 Y102.669 E51.69919
G0 F3600 X110.023 Y102.669
G1 F1500 X125.683 Y118.329 E52.21481
G0 F3600 X126.248 Y118.329
G1 F1500 X110.589 Y102.669 E52.73041
G0 F3600 X111.155 Y102.669
G1 F1500 X126.814 Y118.329 E53.24601
G0 F3600 X127.38 Y118.329
G1 F1500 X111.72 Y102.669 E53.76163
G0 F3600 X112.286 Y102.669
G1 F1500 X127.946 Y118.329 E54.27725
G0 F3600 X128.511 Y118.329
G1 F1500 X112.852 Y102.669 E54.79285
G0 F3600 X113.417 Y102.669
G1 F1500 X129.077 Y118.329 E55.30847
G0 F3600 X129.643 Y118.329
G1 F1500 X113.983 Y102.669 E55.82409
G0 F3600 X114.549 Y102.669
G1 F1500 X130.208 Y118.329 E56.33969
G0 F3600 X130.774 Y118.329
G1 F1500 X115.114 Y102.669 E56.85531
G0 F3600 X115.68 Y102.669
G1 F1500 X131.34 Y118.329 E57.37093
G0 F3600 X131.905 Y118.329
G1 F1500 X116.246 Y102.669 E57.88653
G0 F3600 X116.811 Y102.669
G1 F1500 X132.471 Y118.329 E58.40215
G0 F3600 X133.037 Y118.329
G1 F1500 X117.377 Y102.669 E58.91777
G0 F3600 X117.943 Y102.669
G1 F1500 X133.602 Y118.329 E59.43337
G0 F3600 X134.168 Y118.329
G1 F1500 X118.508 Y102.669 E59.94899
G0 F3600 X119.074 Y102.669
G1 F1500 X134.734 Y118.329 E60.46461
G0 F3600 X135.299 Y118.329
G1 F1500 X119.64 Y102.669 E60.98021
G0 F3600 X120.206 Y102.669
G1 F1500 X135.865 Y118.329 E61.49582
G0 F3600 X136.431 Y118.329
G1 F1500 X120.771 Y102.669 E62.01144
G0 F3600 X121.337 Y102.669
G1 F1500 X136.996 Y118.329 E62.52704
G0 F3600 X137.562 Y118.329
G1 F1500 X121.903 Y102.669 E63.04264
G0 F3600 X122.468 Y102.669
G1 F1500 X138.128 Y118.329 E63.55826
G0 F3600 X138.694 Y118.329
G1 F1500 X123.034 Y102.669 E64.07388
G0 F3600 X123.6 Y102.669
G1 F1500 X139.259 Y118.329 E64.58948
G0 F3600 X139.825 Y118.329
G1 F1500 X124.165 Y102.669 E65.1051
G0 F3600 X124.731 Y102.669
G1 F1500 X140.391 Y118.329 E65.62072
G0 F3600 X140.956 Y118.329
G1 F1500 X125.297 Y102.669 E66.13632
G0 F3600 X125.862 Y102.669
G1 F1500 X141.522 Y118.329 E66.65194
G0 F3600 X142.088 Y118.329
G1 F1500 X126.428 Y102.669 E67.16756
G0 F3600 X126.994 Y102.669
G1 F1500 X142.653 Y118.329 E67.68316
G0 F3600 X143.219 Y118.329
G1 F1500 X127.559 Y102.669 E68.19878
G0 F3600 X128.125 Y102.669
G1 F1500 X143.785 Y118.329 E68.7144
G0 F3600 X144.35 Y118.329
G1 F1500 X128.691 Y102.669 E69.23
G0 F3600 X129.256 Y102.669
G1 F1500 X144.916 Y118.329 E69.74562
G0 F3600 X145.482 Y118.329
G1 F1500 X129.822 Y102.669 E70.26124
G0 F3600 X130.388 Y102.669
G1 F1500 X146.047 Y118.329 E70.77684
G0 F3600 X146.613 Y118.329
G1 F1500 X130.954 Y102.669 E71.29244
G0 F3600 X131.519 Y102.669
G1 F1500 X147.179 Y118.329 E71.80806
G0 F3600 X147.745 Y118.329
G1 F1500 X132.085 Y102.669 E72.32368
G0 F3600 X132.651 Y102.669
G1 F1500 X148.31 Y118.329 E72.83928
G0 F3600 X148.876 Y118.329
G1 F1500 X133.216 Y102.669 E73.3549
G0 F3600 X133.782 Y102.669
G1 F1500 X149.442 Y118.329 E73.87052
G0 F3600 X150.007 Y118.329
G1 F1500 X134.348 Y102.669 E74.38612
G0 F3600 X134.913 Y102.669
G1 F1500 X150.573 Y118.329 E74.90174
G0 F3600 X151.139 Y118.329
G1 F1500 X135.479 Y102.669 E75.41736
G0 F3600 X136.045 Y102.669
G1 F1500 X151.704 Y118.329 E75.93296
G0 F3600 X152.27 Y118.329
G1 F1500 X136.61 Y102.669 E76.44858
G0 F3600 X137.176 Y102.669
G1 F1500 X152.836 Y118.329 E76.9642
G0 F3600 X153.401 Y118.329
G1 F1500 X137.742 Y102.669 E77.4798
G0 F3600 X138.307 Y102.669
G1 F1500 X153.967 Y118.329 E77.99542
G0 F3600 X154.533 Y118.329
G1 F1500 X138.873 Y102.669 E78.51104
G0 F3600 X139.439 Y102.669
G1 F1500 X155.098 Y118.329 E79.02664
G0 F3600 X155.664 Y118.329
G1 F1500 X140.005 Y102.669 E79.54225
G0 F3600 X140.57 Y102.669
G1 F1500 X156.23 Y118.329 E80.05787
G0 F3600 X156.795 Y118.329
G1 F1500 X141.136 Y102.669 E80.57347
G0 F3600 X141.702 Y102.669
G1 F1500 X157.361 Y118.329 E81.08907
G0 F3600 X157.927 Y118.329
G1 F1500 X142.267 Y102.669 E81.60469
G0 F3600 X142.833 Y102.669
G1 F1500 X158.493 Y118.329 E82.12031
G0 F3600 X159.058 Y118.329
G1 F1500 X143.399 Y102.669 E82.63591
G0 F3600 X143.964 Y102.669
G1 F1500 X159.624 Y118.329 E83.15153
G0 F3600 X160.19 Y118.329
G1 F1500 X144.53 Y102.669 E83.66715
G0 F3600 X145.096 Y102.669
G1 F1500 X160.755 Y118.329 E84.18275
G0 F3600 X161.321 Y118.329
G1 F1500 X145.661 Y102.669 E84.69837
G0 F3600 X146.227 Y102.669
G1 F1500 X161.518 Y117.96 E85.20184
G0 F3600 X161.518 Y117.395
G1 F1500 X146.793 Y102.669 E85.68669
G0 F3600 X147.358 Y102.669
G1 F1500 X161.518 Y116.829 E86.15292
G0 F3600 X161.518 Y116.263
G1 F1500 X147.924 Y102.669 E86.60051
G0 F3600 X148.49 Y102.669
G1 F1500 X161.518 Y115.698 E87.02949
G0 F3600 X161.518 Y115.132
G1 F1500 X149.055 Y102.669 E87.43984
G0 F3600 X149.621 Y102.669
G1 F1500 X161.518 Y114.566 E87.83156
G0 F3600 X161.518 Y114.001
G1 F1500 X150.187 Y102.669 E88.20466
G0 F3600 X150.753 Y102.669
G1 F1500 X161.518 Y113.435 E88.55912
G0 F3600 X161.518 Y112.869
G1 F1500 X151.318 Y102.669 E88.89497
G0 F3600 X151.884 Y102.669
G1 F1500 X161.518 Y112.304 E89.21219
G0 F3600 X161.518 Y111.738
G1 F1500 X152.45 Y102.669 E89.51078
G0 F3600 X153.015 Y102.669
G1 F1500 X161.518 Y111.172 E89.79075
G0 F3600 X161.518 Y110.607
G1 F1500 X153.581 Y102.669 E90.0521
G0 F3600 X154.147 Y102.669
