;FLAVOR:Marlin
;TIME:470
;Filament used: 0m, 0.451506m
;Layer height: 0.3
;MINX:69.721
;MINY:88.458
;MINZ:0.2
;MAXX:170.259
;MAXY:131.566
;MAXZ:0.8
;Generated with Cura_SteamEngine 4.4.1
T1
M140 S65
M105
M190 S65
M104 S200
M105
M109 S200
M82 ;absolute extrusion mode
G28 ;Home
G1 Z15.0 F6000 ;Move the platform down 15mm
;Prime the extruder
G92 E0
G1 F200 E3
G92 E0
G92 E0
t1
G92 E0
G1 F1500 E-6.5
;LAYER_COUNT:3
;LAYER:0
M106 S255
G0 F3600 X71.101 Y103.35 Z0.2
;TYPE:SKIRT
G1 F1500 E0
G1 X71.537 Y103.094 E0.01177
G1 X72.008 Y102.911 E0.02354
G1 X72.502 Y102.804 E0.0353
G1 X72.84 Y102.776 E0.0432
G1 X73.161 Y102.767 E0.05068
G1 X73.251 Y102.766 E0.05277
G1 X93.678 Y102.766 E0.52836
G1 X94.375 Y102.776 E0.54458
G1 X94.642 Y102.791 E0.55081
G1 X95.681 Y102.893 E0.57512
G1 X95.722 Y102.898 E0.57608
G1 X96.716 Y103.009 E0.59937
G1 X99.465 Y103.237 E0.66359
G1 X102.18 Y103.386 E0.72689
G1 X104.933 Y103.459 E0.79101
G1 X107.651 Y103.453 E0.85429
G1 X110.435 Y103.369 E0.91914
G1 X113.119 Y103.212 E0.98174
G1 X115.86 Y102.973 E1.04579
G1 X118.595 Y102.658 E1.10989
G1 X121.289 Y102.269 E1.17326
G1 X124.001 Y101.799 E1.23735
G1 X126.64 Y101.264 E1.30004
G1 X129.358 Y100.633 E1.365
G1 X131.975 Y99.947 E1.42799
G1 X134.622 Y99.172 E1.4922
G1 X137.193 Y98.34 E1.55512
G1 X139.816 Y97.408 E1.61993
G1 X142.344 Y96.429 E1.68304
G1 X144.858 Y95.373 E1.74653
G1 X147.381 Y94.228 E1.81104
G1 X149.831 Y93.031 E1.87452
G1 X152.265 Y91.755 E1.9385
G1 X154.524 Y90.491 E1.99877
G1 X156.491 Y89.355 E2.05166
G1 X156.527 Y89.334 E2.05263
G1 X157.059 Y89.036 E2.06682
G1 X157.409 Y88.867 E2.07587
G1 X157.743 Y88.73 E2.08428
G1 X158.224 Y88.576 E2.09604
G1 X158.557 Y88.516 E2.10391
G1 X158.835 Y88.481 E2.11044
G1 X159.34 Y88.458 E2.12221
G1 X159.843 Y88.514 E2.13399
G1 X160.122 Y88.581 E2.14067
G1 X160.604 Y88.72 E2.15235
G1 X161.077 Y88.898 E2.16412
G1 X161.516 Y89.149 E2.17589
G1 X161.725 Y89.304 E2.18195
G1 X161.921 Y89.462 E2.18781
G1 X162.289 Y89.809 E2.19959
G1 X162.627 Y90.258 E2.21267
G1 X163.289 Y91.318 E2.24177
G1 X163.346 Y91.413 E2.24435
G1 X169.387 Y101.874 E2.52559
G1 X169.412 Y101.917 E2.52675
G1 X169.715 Y102.461 E2.54125
G1 X169.968 Y103.048 E2.55613
G1 X170.108 Y103.488 E2.56688
G1 X170.223 Y103.98 E2.57865
G1 X170.259 Y104.484 E2.59041
G1 X170.23 Y104.886 E2.59979
G1 X170.177 Y105.279 E2.60903
G1 X170.07 Y105.773 E2.62079
G1 X169.892 Y106.234 E2.6323
G1 X169.638 Y106.764 E2.64598
G1 X169.629 Y106.783 E2.64647
G1 X168.408 Y109.287 E2.71133
G1 X167.276 Y111.787 E2.77523
G1 X166.218 Y114.308 E2.83888
G1 X165.221 Y116.884 E2.90319
G1 X164.313 Y119.449 E2.96654
G1 X163.482 Y122.026 E3.02958
G1 X162.708 Y124.674 E3.09381
G1 X162.01 Y127.341 E3.15799
G1 X161.81 Y128.182 E3.17812
G1 X161.701 Y128.543 E3.1869
G1 X161.544 Y128.971 E3.19751
G1 X161.333 Y129.43 E3.20928
G1 X161.066 Y129.834 E3.22055
G1 X160.905 Y130.041 E3.22666
G1 X160.564 Y130.414 E3.23842
G1 X160.315 Y130.624 E3.24601
G1 X160.136 Y130.76 E3.25124
G1 X159.71 Y131.033 E3.26302
G1 X159.388 Y131.183 E3.27129
G1 X159.123 Y131.289 E3.27794
G1 X158.426 Y131.48 E3.29476
G1 X158.175 Y131.519 E3.30068
G1 X157.741 Y131.556 E3.31082
G1 X157.239 Y131.565 E3.32251
G1 X157.182 Y131.566 E3.32383
G1 X141.644 Y131.566 E3.68559
G1 X140.947 Y131.556 E3.70182
G1 X140.551 Y131.525 E3.71107
G1 X140.071 Y131.458 E3.72235
G1 X139.986 Y131.445 E3.72435
G1 X137.756 Y131.073 E3.77699
G1 X135.02 Y130.695 E3.84129
G1 X132.322 Y130.401 E3.90448
G1 X129.579 Y130.18 E3.96855
G1 X126.828 Y130.036 E4.03269
G1 X123.154 Y129.966 E4.11824
G1 X110.348 Y129.966 E4.41639
G1 X107.551 Y130.006 E4.48152
G1 X104.834 Y130.121 E4.54483
G1 X102.088 Y130.316 E4.60893
G1 X99.382 Y130.584 E4.67224
G1 X96.662 Y130.932 E4.73608
G1 X93.106 Y131.505 E4.81994
G1 X92.851 Y131.536 E4.82592
G1 X92.65 Y131.552 E4.83061
G1 X92.429 Y131.562 E4.83576
G1 X92.041 Y131.566 E4.8448
G1 X90.643 Y131.566 E4.87735
G1 X90.094 Y131.558 E4.89013
G1 X89.997 Y131.555 E4.89239
G1 X89.421 Y131.529 E4.90581
G1 X88.919 Y131.466 E4.91759
G1 X88.54 Y131.364 E4.92673
G1 X88.179 Y131.242 E4.9356
G1 X87.715 Y131.042 E4.94737
G1 X87.24 Y130.736 E4.96052
G1 X86.408 Y130.089 E4.98506
G1 X84.248 Y128.456 E5.0481
G1 X81.971 Y126.832 E5.11322
G1 X79.733 Y125.33 E5.17597
G1 X77.391 Y123.853 E5.24044
G1 X75.052 Y122.468 E5.30372
G1 X72.66 Y121.143 E5.36739
G1 X72.235 Y120.921 E5.37855
G1 X72.196 Y120.9 E5.37958
G1 X71.431 Y120.487 E5.39982
G1 X71.006 Y120.212 E5.41161
G1 X70.63 Y119.874 E5.42338
G1 X70.312 Y119.481 E5.43515
G1 X70.06 Y119.043 E5.44692
G1 X69.88 Y118.571 E5.45868
G1 X69.764 Y117.956 E5.47325
G1 X69.734 Y117.621 E5.48108
G1 X69.721 Y117.336 E5.48772
G1 X69.721 Y106.611 E5.73742
G1 X69.73 Y105.933 E5.75321
G1 X69.777 Y105.429 E5.76499
G1 X69.902 Y104.939 E5.77677
G1 X70.103 Y104.475 E5.78854
G1 X70.375 Y104.049 E5.80031
G1 X70.71 Y103.67 E5.81208
G1 X71.101 Y103.35 E5.82385
G1 F1500 E-0.67615
;MESH:cover.stl
G0 F3600 X73.335 Y105.301
G0 X73.335 Y106.38
G0 X89.126 Y117.238
G0 X89.298 Y127.217
;TYPE:WALL-INNER
G1 F1500 E5.82385
G1 X89.34 Y127.308 E5.82618
G1 X89.387 Y127.41 E5.82879
G1 X89.418 Y127.476 E5.83049
G1 X89.497 Y127.553 E5.83306
G1 X89.566 Y127.62 E5.8353
G1 X89.635 Y127.687 E5.83754
G1 X89.697 Y127.747 E5.83955
G1 X89.585 Y127.74 E5.84019
G1 X89.492 Y127.698 E5.8408
G1 X89.416 Y127.637 E5.84144
G1 X89.354 Y127.552 E5.84229
G1 X89.337 Y127.508
G1 X89.313 Y127.445 E5.84253
G1 X89.298 Y127.328 E5.84326
G1 X89.298 Y127.217 E5.84358
G0 F3600 X89.962 Y127.76
G0 X91.169 Y127.723
G0 X94.123 Y126.374
G0 X139.073 Y126.327
G0 X139.952 Y126.659
G0 X140.48 Y127.555
G0 X157.814 Y127.737
G1 F1500 X157.861 Y127.688 E5.84516
G1 X157.932 Y127.614 E5.84755
G1 X158.001 Y127.542 E5.84987
G1 X158.075 Y127.465 E5.85236
G1 X158.074 Y127.476
G1 X158.032 Y127.57 E5.85249
G1 X157.969 Y127.648 E5.85277
G1 X157.884 Y127.71 E5.85314
G1 X157.814 Y127.737 E5.85333
G0 F3600 X156.373 Y127.759
G0 X155.63 Y126.366
G1 F1500 X155.63 Y127.042 E5.86907
G1 X155.796 Y127.399 E5.87824
G1 X155.831 Y127.476 E5.88021
G1 X156.13 Y127.766 E5.88991
G1 X155.831 Y127.766 E5.89195
G1 X155.746 Y127.766 E5.8937
G1 X141.02 Y127.766 E6.23655
G1 X140.916 Y127.752 E6.23899
G1 X140.716 Y127.652 E6.2442
G1 X140.686 Y127.62 E6.24522
G1 X140.56 Y127.34 E6.25237
G1 X140.455 Y127.038 E6.25981
G1 X140.062 Y126.537 E6.27464
G1 X139.673 Y126.297 E6.28528
G1 X139.091 Y126.166 E6.29917
G1 X94.46 Y126.166 E7.33827
G1 X94.074 Y126.219 E7.34734
G1 X93.504 Y126.503 E7.36217
G1 X93.191 Y126.839 E7.37286
G1 X92.964 Y127.343 E7.38573
G1 X92.905 Y127.512 E7.3899
G1 X92.769 Y127.686 E7.39504
G1 X92.732 Y127.709 E7.39606
G1 X92.477 Y127.766 E7.40214
G1 X91.745 Y127.766 E7.41918
G1 X91.71 Y127.766 E7.42
G1 X91.372 Y127.766 E7.42787
G1 X91.71 Y127.416 E7.43421
G1 X91.722 Y127.384 E7.43497
G1 X91.873 Y126.973 E7.44516
G1 X91.864 Y126.384 E7.45888
G1 X91.665 Y125.956 E7.46987
G1 X91.252 Y125.556 E7.48325
G1 X90.881 Y125.403 E7.4926
G1 X90.446 Y125.363 E7.50277
G1 X89.88 Y125.525 E7.51648
G1 X89.664 Y125.705 E7.52302
G1 X89.517 Y125.828 E7.52748
G1 X89.298 Y126.221 E7.53796
G1 X89.298 Y125.828 E7.54022
G1 X89.298 Y125.636 E7.54378
G1 X89.298 Y117.066 E7.74331
G1 X73.521 Y117.066 E8.11063
G1 X73.521 Y106.566 E8.35509
G1 X91.072 Y106.566 E8.76372
G1 X91.273 Y106.566 E8.7684
G1 X91.467 Y106.566 E8.77292
G1 X91.273 Y106.728 E8.77489
G1 X91.176 Y106.903 E8.77836
G1 X90.988 Y107.241 E8.78736
G1 X90.945 Y107.712 E8.79837
G1 X91.107 Y108.279 E8.8121
G1 X91.41 Y108.64 E8.82308
G1 X91.948 Y108.941 E8.83743
G1 X92.624 Y108.941 E8.85317
G1 X93.058 Y108.74 E8.8643
G1 X93.467 Y108.318 E8.87798
G1 X93.63 Y107.873 E8.88902
G1 X93.621 Y107.284 E8.90273
G1 X93.457 Y106.933 E8.91175
G1 X93.421 Y106.856 E8.91373
G1 X93.122 Y106.566 E8.92343
G1 X93.421 Y106.566 E8.92547
G1 X93.506 Y106.566 E8.92722
G1 X94.303 Y106.566 E8.94578
G1 X94.406 Y106.58 E8.9482
G1 X94.604 Y106.679 E8.95335
G1 X94.638 Y106.715 E8.9545
G1 X94.759 Y106.982 E8.96133
G1 X94.867 Y107.294 E8.96902
G1 X95.26 Y107.796 E8.98386
G1 X95.651 Y108.036 E8.99454
G1 X96.232 Y108.166 E9.0084
G1 X153.544 Y108.166 E10.34275
G1 X153.952 Y108.103 E10.35236
G1 X154.336 Y107.932 E10.36214
G1 X154.509 Y107.791 E10.36734
G1 X154.66 Y107.668 E10.37187
G1 X154.685 Y107.633 E10.37288
G1 X154.819 Y107.45 E10.37816
G1 X154.798 Y107.68 E10.37917
G1 X154.795 Y107.712
G1 X154.848 Y107.899 E10.38247
G1 X154.957 Y108.279 E10.39167
G1 X155.26 Y108.64 E10.40264
G1 X155.798 Y108.941 E10.417
G1 X156.474 Y108.941 E10.43274
G1 X156.908 Y108.74 E10.44387
G1 X157.317 Y108.318 E10.45755
G1 X157.48 Y107.873 E10.46859
G1 X157.471 Y107.284 E10.4823
G1 X157.271 Y106.856 E10.4933
G1 X156.858 Y106.456 E10.50669
G1 X156.487 Y106.303 E10.51603
G1 X156.052 Y106.263 E10.5262
G1 X155.491 Y106.424 E10.53979
G1 X155.485 Y106.425 E10.53993
G1 X155.169 Y106.69 E10.54953
G1 X155.123 Y106.728 E10.55092
G1 X155.068 Y106.826 E10.55354
G1 X155.082 Y106.723 E10.5536
G1 X155.098 Y106.606 E10.55477
G1 X155.098 Y106.425 E10.55658
G1 X155.098 Y106.418 E10.55674
G1 X155.098 Y94.826 E10.82663
G1 X155.123 Y94.666 E10.8304
G1 X155.165 Y94.571 E10.83282
G1 X155.215 Y94.509 E10.83467
G1 X155.675 Y94.214 E10.8474
G1 X158.956 Y92.319 E10.93561
G1 X159.107 Y92.26 E10.93939
G1 X159.213 Y92.249 E10.94187
G1 X159.319 Y92.265 E10.94436
G1 X159.41 Y92.305 E10.94668
G1 X159.496 Y92.376 E10.94927
G1 X159.569 Y92.472 E10.95208
G1 X166.387 Y104.276 E11.26945
G1 X166.458 Y104.506 E11.27506
G1 X166.432 Y104.683 E11.27922
G1 X158.098 Y117.379 E11.63281
G1 X158.098 Y125.509 E11.82209
G1 X158.098 Y125.956 E11.8325
G1 X158.098 Y125.999 E11.8335
G1 X158.078 Y125.956 E11.83359
G1 X157.757 Y125.645 E11.83944
G1 X157.665 Y125.556 E11.84242
G1 X157.294 Y125.403 E11.85176
G1 X156.859 Y125.363 E11.86193
G1 X156.292 Y125.525 E11.87566
G1 X155.931 Y125.828 E11.88664
G1 X155.63 Y126.366 E11.90099
G0 F3600 X156.03 Y126.47
;TYPE:WALL-OUTER
G1 F1500 X156.03 Y126.954 E11.91226
G1 X156.163 Y127.24 E11.9196
G1 X156.471 Y127.539 E11.9296
G1 X156.766 Y127.647 E11.93691
G1 X157.195 Y127.64 E11.9469
G1 X157.479 Y127.508 E11.95419
G1 X157.777 Y127.199 E11.96418
G1 X157.885 Y126.905 E11.97148
G1 X157.878 Y126.476 E11.98147
G1 X157.746 Y126.192 E11.98876
G1 X157.442 Y125.897 E11.99862
G1 X157.197 Y125.796 E12.00479
G1 X156.897 Y125.768 E12.0118
G1 X156.484 Y125.886 E12.02181
G1 X156.244 Y126.087 E12.02909
G1 X156.03 Y126.47 E12.03931
G0 F3600 X156.03 Y126.67
G0 X155.59 Y126.67
G0 X155.756 Y108.802
G0 X155.902 Y108.541
G1 F1500 X156.386 Y108.541 E12.05058
G1 X156.672 Y108.408 E12.05792
G1 X156.971 Y108.1 E12.06791
G1 X157.079 Y107.805 E12.07523
G1 X157.072 Y107.376 E12.08522
G1 X156.94 Y107.092 E12.09251
G1 X156.635 Y106.797 E12.10239
G1 X156.39 Y106.696 E12.10856
G1 X156.09 Y106.668 E12.11557
G1 X155.677 Y106.786 E12.12557
G1 X155.437 Y106.987 E12.13286
G1 X155.229 Y107.362 E12.14285
G1 X155.2 Y107.674 E12.15014
G1 X155.318 Y108.087 E12.16014
G1 X155.519 Y108.327 E12.16743
G1 X155.902 Y108.541 E12.17764
G0 F3600 X156.102 Y108.541
G0 X156.102 Y108.981
G0 X91.906 Y108.802
G0 X92.052 Y108.541
G1 F1500 X92.536 Y108.541 E12.18891
G1 X92.822 Y108.408 E12.19626
G1 X93.121 Y108.1 E12.20625
G1 X93.229 Y107.805 E12.21356
G1 X93.222 Y107.376 E12.22355
G1 X93.09 Y107.092 E12.23085
G1 X92.785 Y106.797 E12.24072
G1 X92.54 Y106.696 E12.24689
G1 X92.24 Y106.668 E12.25391
G1 X91.827 Y106.786 E12.26391
G1 X91.587 Y106.987 E12.2712
G1 X91.379 Y107.362 E12.28118
G1 X91.35 Y107.674 E12.28848
G1 X91.468 Y108.087 E12.29848
G1 X91.669 Y108.327 E12.30577
G1 X92.052 Y108.541 E12.31598
G0 F3600 X92.252 Y108.541
G0 X92.252 Y108.981
G0 X99.698 Y124.766
;TYPE:WALL-INNER
G1 F1500 X122.398 Y124.766 E12.84448
G1 X122.398 Y109.566 E13.19837
G1 X99.698 Y109.566 E13.72688
G1 X99.698 Y124.766 E14.08076
G0 F3600 X100.098 Y124.366
;TYPE:WALL-OUTER
G1 F1500 X121.998 Y124.366 E14.59064
G1 X121.998 Y109.966 E14.9259
G1 X100.098 Y109.966 E15.43578
G1 X100.098 Y124.366 E15.77104
G0 F3600 X100.298 Y124.366
G0 X100.298 Y124.806
G0 X90.464 Y125.526
G0 X89.643 Y125.932
G0 X89.617 Y126.47
G1 F1500 X89.617 Y126.954 E15.78231
G1 X89.75 Y127.24 E15.78966
G1 X90.058 Y127.539 E15.79965
G1 X90.353 Y127.647 E15.80696
G1 X90.782 Y127.64 E15.81695
G1 X91.066 Y127.508 E15.82424
G1 X91.364 Y127.199 E15.83424
G1 X91.472 Y126.905 E15.84153
G1 X91.465 Y126.476 E15.85152
G1 X91.333 Y126.192 E15.85881
G1 X91.029 Y125.897 E15.86867
G1 X90.784 Y125.796 E15.87484
G1 X90.484 Y125.768 E15.88186
G1 X90.071 Y125.886 E15.89186
G1 X89.83 Y126.087 E15.89917
G1 X89.617 Y126.47 E15.90937
G0 F3600 X89.617 Y126.67
G0 X89.517 Y126.67
G0 X89.126 Y117.238
G0 X88.898 Y117.466
G1 F1500 X73.121 Y117.466 E16.27669
G1 X73.121 Y106.166 E16.53978
G1 X94.327 Y106.166 E17.0335
G1 X94.527 Y106.193 E17.0382
G1 X94.849 Y106.354 E17.04658
G1 X94.974 Y106.489 E17.05086
G1 X95.132 Y106.838 E17.05978
G1 X95.223 Y107.1 E17.06624
G1 X95.531 Y107.493 E17.07786
G1 X95.803 Y107.66 E17.08529
G1 X96.276 Y107.766 E17.09658
G1 X153.513 Y107.766 E18.42918
G1 X153.838 Y107.716 E18.43683
G1 X154.125 Y107.588 E18.44415
G1 X154.367 Y107.391 E18.45141
G1 X154.551 Y107.138 E18.4587
G1 X154.662 Y106.849 E18.46591
G1 X154.698 Y106.579 E18.47225
G1 X154.698 Y94.796 E18.74658
G1 X154.736 Y94.552 E18.75233
G1 X154.821 Y94.361 E18.7572
G1 X154.947 Y94.206 E18.76185
G1 X155.459 Y93.877 E18.77602
G1 X158.786 Y91.956 E18.86546
G1 X159.012 Y91.868 E18.87111
G1 X159.223 Y91.846 E18.87605
G1 X159.431 Y91.877 E18.88094
G1 X159.618 Y91.96 E18.88571
G1 X159.785 Y92.095 E18.89071
G1 X159.903 Y92.25 E18.89524
G1 X166.756 Y104.116 E19.21427
G1 X166.867 Y104.475 E19.22302
G1 X166.816 Y104.826 E19.23128
G1 X158.498 Y117.499 E19.58421
G1 X158.498 Y127.348 E19.81352
G1 X158.46 Y127.593 E19.81929
G1 X158.375 Y127.783 E19.82413
G1 X158.247 Y127.941 E19.82887
G1 X158.076 Y128.065 E19.83379
G1 X157.88 Y128.14 E19.83867
G1 X157.687 Y128.166 E19.84321
G1 X140.995 Y128.166 E20.23183
G1 X140.796 Y128.139 E20.23651
G1 X140.473 Y127.978 E20.24491
G1 X140.348 Y127.844 E20.24917
G1 X140.19 Y127.492 E20.25816
G1 X140.099 Y127.233 E20.26455
G1 X139.791 Y126.84 E20.27617
G1 X139.52 Y126.673 E20.28359
G1 X139.046 Y126.566 E20.2949
G1 X94.487 Y126.566 E21.33233
G1 X94.194 Y126.606 E21.33921
G1 X93.747 Y126.829 E21.35084
G1 X93.529 Y127.063 E21.35829
G1 X93.336 Y127.492 E21.36924
G1 X93.26 Y127.708 E21.37457
G1 X93.04 Y127.989 E21.38288
G1 X92.885 Y128.084 E21.38711
G1 X92.52 Y128.166 E21.39582
G1 X89.995 Y128.166 E21.45461
G1 X89.487 Y128.134 E21.46646
G1 X89.281 Y128.043 E21.4717
G1 X89.123 Y127.915 E21.47644
G1 X88.999 Y127.744 E21.48135
G1 X88.924 Y127.548 E21.48624
G1 X88.898 Y127.355 E21.49077
G1 X88.898 Y117.466 E21.72101
G0 F3600 X88.698 Y117.466
G0 X88.698 Y117.026
G0 X89.688 Y116.676
;TYPE:SKIN
G1 F1500 X73.911 Y116.676 E22.08833
G1 X73.911 Y106.956 E22.31464
G1 X90.7 Y106.956 E22.70552
G1 X90.607 Y107.124 E22.70999
G1 X90.55 Y107.749 E22.7246
G1 X90.754 Y108.466 E22.74196
G1 X91.157 Y108.946 E22.75655
G1 X91.847 Y109.331 E22.77494
G1 X92.71 Y109.331 E22.79504
G1 X93.288 Y109.064 E22.80986
G1 X93.804 Y108.53 E22.82715
G1 X94.022 Y107.939 E22.84181
G1 X94.009 Y107.194 E22.85916
G1 X93.898 Y106.956 E22.86528
G1 X94.29 Y106.958 E22.8744
G1 X94.329 Y106.977 E22.87541
G1 X94.394 Y107.12 E22.87907
G1 X94.52 Y107.483 E22.88802
G1 X94.996 Y108.092 E22.90601
G1 X95.503 Y108.403 E22.91986
G1 X96.189 Y108.556 E22.93622
G1 X153.573 Y108.556 E24.27224
G1 X154.063 Y108.481 E24.28379
G1 X154.543 Y108.267 E24.29602
G1 X154.546 Y108.264 E24.29612
G1 X154.604 Y108.466 E24.30101
G1 X155.007 Y108.946 E24.3156
G1 X155.697 Y109.331 E24.334
G1 X156.56 Y109.331 E24.35409
G1 X157.138 Y109.064 E24.36892
G1 X157.654 Y108.53 E24.38621
G1 X157.872 Y107.939 E24.40087
G1 X157.859 Y107.194 E24.41822
G1 X157.594 Y106.626 E24.43281
G1 X157.076 Y106.124 E24.44961
G1 X156.581 Y105.92 E24.46207
G1 X156.015 Y105.867 E24.47531
G1 X155.488 Y106.018 E24.48807
G1 X155.488 Y94.86 E24.74785
G1 X155.499 Y94.789 E24.74952
G1 X155.87 Y94.552 E24.75977
G1 X159.126 Y92.672 E24.84731
G1 X159.2 Y92.642 E24.84917
G1 X159.212 Y92.647 E24.84947
G1 X159.241 Y92.685 E24.85058
G1 X166.028 Y104.433 E25.16647
G1 X166.059 Y104.536 E25.16897
