;FLAVOR:Marlin
;TIME:807
;Filament used: 0m, 0.685037m
;Layer height: 0.3
;MINX:75.4
;MINY:97.4
;MINZ:0.1
;MAXX:164.6
;MAXY:122.6
;MAXZ:6.1
;Generated with Cura_SteamEngine 4.4.1
T1
M140 S65
M105
M190 S65
M104 S200
M105
M109 S200
M82 ;absolute extrusion mode
G28 ;Home
G1 Z15.0 F6000 ;Move the platform down 15mm
;Prime the extruder
G92 E0
G1 F200 E3
G92 E0
G92 E0
t1
G92 E0
G1 F1500 E-6.5
;LAYER_COUNT:21
;LAYER:0
M106 S255
G0 F3600 X76.794 Y98.171 Z0.1
;TYPE:SKIRT
G1 F1500 E0
G1 X77.241 Y97.873 E0.00625
G1 X77.726 Y97.645 E0.01249
G1 X78.24 Y97.492 E0.01874
G1 X78.908 Y97.41 E0.02657
G1 X79.229 Y97.401 E0.03031
G1 X79.33 Y97.4 E0.03148
G1 X160.345 Y97.4 E0.97458
G1 X161.043 Y97.41 E0.98271
G1 X161.577 Y97.458 E0.98895
G1 X162.098 Y97.584 E0.99519
G1 X162.595 Y97.787 E1.00144
G1 X163.056 Y98.061 E1.00768
G1 X163.471 Y98.4 E1.01392
G1 X163.831 Y98.798 E1.02017
G1 X164.128 Y99.244 E1.02641
G1 X164.356 Y99.73 E1.03266
G1 X164.508 Y100.244 E1.0389
G1 X164.59 Y100.909 E1.0467
G1 X164.599 Y101.229 E1.05042
G1 X164.6 Y101.33 E1.0516
G1 X164.6 Y118.309 E1.24925
G1 X164.591 Y119.036 E1.25771
G1 X164.544 Y119.57 E1.26396
G1 X164.419 Y120.091 E1.27019
G1 X164.217 Y120.588 E1.27644
G1 X163.944 Y121.05 E1.28268
G1 X163.606 Y121.466 E1.28892
G1 X163.209 Y121.827 E1.29517
G1 X162.763 Y122.125 E1.30141
G1 X162.278 Y122.353 E1.30765
G1 X161.764 Y122.507 E1.3139
G1 X161.092 Y122.59 E1.32178
G1 X160.771 Y122.599 E1.32552
G1 X160.67 Y122.6 E1.3267
G1 X91.655 Y122.6 E2.1301
G1 X90.957 Y122.59 E2.13823
G1 X90.423 Y122.542 E2.14447
G1 X89.902 Y122.416 E2.15071
G1 X89.405 Y122.213 E2.15696
G1 X88.809 Y121.84 E2.16514
G1 X88.502 Y121.603 E2.16966
G1 X88.441 Y121.555 E2.17056
G1 X86.839 Y120.262 E2.19453
G1 X84.682 Y118.621 E2.22608
G1 X82.452 Y117.02 E2.25804
G1 X80.213 Y115.508 E2.28949
G1 X77.886 Y114.03 E2.32158
G1 X77.12 Y113.558 E2.33205
G1 X76.686 Y113.243 E2.33829
G1 X76.303 Y112.868 E2.34453
G1 X75.981 Y112.439 E2.35078
G1 X75.725 Y111.968 E2.35702
G1 X75.542 Y111.464 E2.36326
G1 X75.437 Y110.938 E2.3695
G1 X75.41 Y110.593 E2.37353
G1 X75.401 Y110.27 E2.37729
G1 X75.4 Y110.17 E2.37846
G1 X75.4 Y101.625 E2.47793
G1 X75.409 Y100.96 E2.48567
G1 X75.457 Y100.426 E2.49191
G1 X75.583 Y99.905 E2.49815
G1 X75.785 Y99.408 E2.5044
G1 X76.058 Y98.947 E2.51064
G1 X76.397 Y98.531 E2.51688
G1 X76.794 Y98.171 E2.52312
G0 F3600 X77.18 Y98.383
G1 F1500 X77.617 Y98.128 E2.52901
G1 X78.088 Y97.944 E2.5349
G1 X78.582 Y97.838 E2.54078
G1 X78.919 Y97.81 E2.54472
G1 X79.24 Y97.801 E2.54846
G1 X79.33 Y97.8 E2.5495
G1 X160.339 Y97.8 E3.49253
G1 X161.037 Y97.81 E3.50066
G1 X161.54 Y97.857 E3.50654
G1 X162.03 Y97.983 E3.51243
G1 X162.494 Y98.185 E3.51832
G1 X162.92 Y98.457 E3.5242
G1 X163.298 Y98.792 E3.53008
G1 X163.618 Y99.183 E3.53597
G1 X163.873 Y99.62 E3.54186
G1 X164.056 Y100.091 E3.54774
G1 X164.163 Y100.585 E3.55362
G1 X164.19 Y100.92 E3.55753
G1 X164.199 Y101.24 E3.56126
G1 X164.2 Y101.33 E3.56231
G1 X164.2 Y118.304 E3.7599
G1 X164.191 Y119.031 E3.76837
G1 X164.145 Y119.534 E3.77425
G1 X164.02 Y120.024 E3.78013
G1 X163.819 Y120.488 E3.78602
G1 X163.548 Y120.915 E3.79191
G1 X163.213 Y121.294 E3.7978
G1 X162.823 Y121.615 E3.80368
G1 X162.387 Y121.871 E3.80956
G1 X161.916 Y122.054 E3.81544
G1 X161.422 Y122.162 E3.82133
G1 X161.081 Y122.19 E3.82531
G1 X160.76 Y122.199 E3.82905
G1 X160.67 Y122.2 E3.8301
G1 X91.661 Y122.2 E4.63344
G1 X90.963 Y122.19 E4.64156
G1 X90.46 Y122.143 E4.64744
G1 X89.97 Y122.017 E4.65333
G1 X89.506 Y121.815 E4.65922
G1 X89.054 Y121.523 E4.66549
G1 X88.747 Y121.286 E4.67
G1 X88.692 Y121.243 E4.67082
G1 X87.086 Y119.947 E4.69484
G1 X84.927 Y118.304 E4.72642
G1 X82.687 Y116.697 E4.75852
G1 X80.405 Y115.155 E4.79058
G1 X78.096 Y113.689 E4.82242
G1 X77.33 Y113.217 E4.83289
G1 X76.922 Y112.919 E4.83877
G1 X76.566 Y112.56 E4.84466
G1 X76.271 Y112.149 E4.85055
G1 X76.044 Y111.698 E4.85642
G1 X75.892 Y111.216 E4.86231
G1 X75.81 Y110.582 E4.86975
G1 X75.801 Y110.259 E4.87351
G1 X75.8 Y110.17 E4.87455
G1 X75.8 Y101.631 E4.97395
G1 X75.809 Y100.966 E4.98169
G1 X75.856 Y100.462 E4.98758
G1 X75.982 Y99.973 E4.99346
G1 X76.183 Y99.509 E4.99935
G1 X76.454 Y99.082 E5.00524
G1 X76.789 Y98.704 E5.01112
G1 X77.18 Y98.383 E5.017
G1 F1500 E-1.483
;MESH:Body42.stl
G0 F3600 X79.614 Y100.335
G0 X79.614 Y101.614
G0 X91.67 Y109.83
G0 X91.6 Y109.9
;TYPE:WALL-INNER
G1 F1500 E5.017
G1 X79.6 Y109.9 E5.1567
G1 X79.6 Y101.6 E5.25332
G1 X160.4 Y101.6 E6.19391
G1 X160.4 Y118.4 E6.38948
G1 X91.6 Y118.4 E7.19039
G1 X91.6 Y109.9 E7.28934
G0 F3600 X91.2 Y110.3
;TYPE:WALL-OUTER
G1 F1500 X79.2 Y110.3 E7.42903
G1 X79.2 Y101.2 E7.53496
G1 X160.8 Y101.2 E8.48487
G1 X160.8 Y118.8 E8.68976
G1 X91.2 Y118.8 E9.49997
G1 X91.2 Y110.3 E9.59892
G0 F3600 X91 Y110.3
G0 X91 Y109.86
G0 X91 Y109.8
G0 X91.99 Y109.51
;TYPE:SKIN
G1 F1500 X79.99 Y109.51 E9.73861
G1 X79.99 Y101.99 E9.82615
G1 X160.01 Y101.99 E10.75767
G1 X160.01 Y118.01 E10.94416
G1 X91.99 Y118.01 E11.73598
G1 X91.99 Y109.51 E11.83493
G0 F3600 X80.479 Y109.329
G1 F1500 X80.169 Y109.019 E11.84004
G0 F3600 X80.169 Y108.453
G1 F1500 X81.045 Y109.329 E11.85446
G0 F3600 X81.61 Y109.329
G1 F1500 X80.169 Y107.888 E11.87818
G0 F3600 X80.169 Y107.322
G1 F1500 X82.176 Y109.329 E11.91122
G0 F3600 X82.742 Y109.329
G1 F1500 X80.169 Y106.756 E11.95358
G0 F3600 X80.169 Y106.191
G1 F1500 X83.307 Y109.329 E12.00524
G0 F3600 X83.873 Y109.329
G1 F1500 X80.169 Y105.625 E12.06622
G0 F3600 X80.169 Y105.059
G1 F1500 X84.439 Y109.329 E12.13652
G0 F3600 X85.004 Y109.329
G1 F1500 X80.169 Y104.494 E12.21612
G0 F3600 X80.169 Y103.928
G1 F1500 X85.57 Y109.329 E12.30503
G0 F3600 X86.136 Y109.329
G1 F1500 X80.169 Y103.362 E12.40327
G0 F3600 X80.169 Y102.797
G1 F1500 X86.701 Y109.329 E12.5108
G0 F3600 X87.267 Y109.329
G1 F1500 X80.169 Y102.231 E12.62766
G0 F3600 X80.673 Y102.169
G1 F1500 X87.833 Y109.329 E12.74553
G0 F3600 X88.398 Y109.329
G1 F1500 X81.239 Y102.169 E12.8634
G0 F3600 X81.805 Y102.169
G1 F1500 X88.964 Y109.329 E12.98126
G0 F3600 X89.53 Y109.329
G1 F1500 X82.37 Y102.169 E13.09914
G0 F3600 X82.936 Y102.169
G1 F1500 X90.096 Y109.329 E13.21701
G0 F3600 X90.661 Y109.329
G1 F1500 X83.502 Y102.169 E13.33488
G0 F3600 X84.067 Y102.169
G1 F1500 X91.227 Y109.329 E13.45275
G0 F3600 X91.793 Y109.329
G1 F1500 X84.633 Y102.169 E13.57063
G0 F3600 X85.199 Y102.169
G1 F1500 X100.858 Y117.829 E13.82843
G0 F3600 X100.293 Y117.829
G1 F1500 X92.169 Y109.706 E13.96217
G0 F3600 X92.169 Y110.271
G1 F1500 X99.727 Y117.829 E14.08659
G0 F3600 X99.161 Y117.829
G1 F1500 X92.169 Y110.837 E14.2017
G0 F3600 X92.169 Y111.403
G1 F1500 X98.596 Y117.829 E14.3075
G0 F3600 X98.03 Y117.829
G1 F1500 X92.169 Y111.968 E14.40399
G0 F3600 X92.169 Y112.534
G1 F1500 X97.464 Y117.829 E14.49116
G0 F3600 X96.899 Y117.829
G1 F1500 X92.169 Y113.1 E14.56902
G0 F3600 X92.169 Y113.666
G1 F1500 X96.333 Y117.829 E14.63757
G0 F3600 X95.767 Y117.829
G1 F1500 X92.169 Y114.231 E14.6968
G0 F3600 X92.169 Y114.797
G1 F1500 X95.202 Y117.829 E14.74672
G0 F3600 X94.636 Y117.829
G1 F1500 X92.169 Y115.363 E14.78733
G0 F3600 X92.169 Y115.928
G1 F1500 X94.07 Y117.829 E14.81863
G0 F3600 X93.504 Y117.829
G1 F1500 X92.169 Y116.494 E14.8406
G0 F3600 X92.169 Y117.06
G1 F1500 X92.939 Y117.829 E14.85327
G0 F3600 X92.373 Y117.829
G1 F1500 X92.169 Y117.625 E14.85663
G0 F3600 X101.424 Y117.829
G1 F1500 X85.764 Y102.169 E15.11444
G0 F3600 X86.33 Y102.169
G1 F1500 X101.99 Y117.829 E15.37225
G0 F3600 X102.555 Y117.829
G1 F1500 X86.896 Y102.169 E15.63005
G0 F3600 X87.462 Y102.169
G1 F1500 X103.121 Y117.829 E15.88785
G0 F3600 X103.687 Y117.829
G1 F1500 X88.027 Y102.169 E16.14566
G0 F3600 X88.593 Y102.169
G1 F1500 X104.252 Y117.829 E16.40346
G0 F3600 X104.818 Y117.829
G1 F1500 X89.159 Y102.169 E16.66126
G0 F3600 X89.724 Y102.169
G1 F1500 X105.384 Y117.829 E16.91907
G0 F3600 X105.95 Y117.829
G1 F1500 X90.29 Y102.169 E17.17688
G0 F3600 X90.856 Y102.169
G1 F1500 X106.515 Y117.829 E17.43468
G0 F3600 X107.081 Y117.829
G1 F1500 X91.421 Y102.169 E17.69249
G0 F3600 X91.987 Y102.169
G1 F1500 X107.647 Y117.829 E17.9503
G0 F3600 X108.212 Y117.829
G1 F1500 X92.553 Y102.169 E18.2081
G0 F3600 X93.118 Y102.169
G1 F1500 X108.778 Y117.829 E18.46591
G0 F3600 X109.344 Y117.829
G1 F1500 X93.684 Y102.169 E18.72372
G0 F3600 X94.25 Y102.169
G1 F1500 X109.909 Y117.829 E18.98152
G0 F3600 X110.475 Y117.829
G1 F1500 X94.815 Y102.169 E19.23933
G0 F3600 X95.381 Y102.169
G1 F1500 X111.041 Y117.829 E19.49714
G0 F3600 X111.606 Y117.829
G1 F1500 X95.947 Y102.169 E19.75494
G0 F3600 X96.513 Y102.169
G1 F1500 X112.172 Y117.829 E20.01274
G0 F3600 X112.738 Y117.829
G1 F1500 X97.078 Y102.169 E20.27055
G0 F3600 X97.644 Y102.169
G1 F1500 X113.303 Y117.829 E20.52835
G0 F3600 X113.869 Y117.829
G1 F1500 X98.21 Y102.169 E20.78616
G0 F3600 X98.775 Y102.169
G1 F1500 X114.435 Y117.829 E21.04397
G0 F3600 X115.001 Y117.829
G1 F1500 X99.341 Y102.169 E21.30178
G0 F3600 X99.907 Y102.169
G1 F1500 X115.566 Y117.829 E21.55958
G0 F3600 X116.132 Y117.829
G1 F1500 X100.472 Y102.169 E21.81739
G0 F3600 X101.038 Y102.169
G1 F1500 X116.698 Y117.829 E22.0752
G0 F3600 X117.263 Y117.829
G1 F1500 X101.604 Y102.169 E22.333
G0 F3600 X102.169 Y102.169
G1 F1500 X117.829 Y117.829 E22.59081
G0 F3600 X118.395 Y117.829
G1 F1500 X102.735 Y102.169 E22.84862
G0 F3600 X103.301 Y102.169
G1 F1500 X118.96 Y117.829 E23.10642
G0 F3600 X119.526 Y117.829
G1 F1500 X103.866 Y102.169 E23.36423
G0 F3600 X104.432 Y102.169
G1 F1500 X120.092 Y117.829 E23.62204
G0 F3600 X120.657 Y117.829
G1 F1500 X104.998 Y102.169 E23.87984
G0 F3600 X105.563 Y102.169
G1 F1500 X121.223 Y117.829 E24.13765
G0 F3600 X121.789 Y117.829
G1 F1500 X106.129 Y102.169 E24.39546
G0 F3600 X106.695 Y102.169
G1 F1500 X122.354 Y117.829 E24.65326
G0 F3600 X122.92 Y117.829
G1 F1500 X107.261 Y102.169 E24.91106
G0 F3600 X107.826 Y102.169
G1 F1500 X123.486 Y117.829 E25.16887
G0 F3600 X124.051 Y117.829
G1 F1500 X108.392 Y102.169 E25.42667
G0 F3600 X108.958 Y102.169
G1 F1500 X124.617 Y117.829 E25.68447
G0 F3600 X125.183 Y117.829
G1 F1500 X109.523 Y102.169 E25.94228
G0 F3600 X110.089 Y102.169
G1 F1500 X125.749 Y117.829 E26.20009
G0 F3600 X126.314 Y117.829
G1 F1500 X110.655 Y102.169 E26.45789
G0 F3600 X111.22 Y102.169
G1 F1500 X126.88 Y117.829 E26.7157
G0 F3600 X127.446 Y117.829
G1 F1500 X111.786 Y102.169 E26.97351
G0 F3600 X112.352 Y102.169
G1 F1500 X128.011 Y117.829 E27.23131
G0 F3600 X128.577 Y117.829
G1 F1500 X112.917 Y102.169 E27.48912
G0 F3600 X113.483 Y102.169
G1 F1500 X129.143 Y117.829 E27.74693
G0 F3600 X129.708 Y117.829
G1 F1500 X114.049 Y102.169 E28.00473
G0 F3600 X114.614 Y102.169
G1 F1500 X130.274 Y117.829 E28.26254
G0 F3600 X130.84 Y117.829
G1 F1500 X115.18 Y102.169 E28.52035
G0 F3600 X115.746 Y102.169
G1 F1500 X131.405 Y117.829 E28.77815
G0 F3600 X131.971 Y117.829
G1 F1500 X116.311 Y102.169 E29.03596
G0 F3600 X116.877 Y102.169
G1 F1500 X132.537 Y117.829 E29.29377
G0 F3600 X133.102 Y117.829
G1 F1500 X117.443 Y102.169 E29.55157
G0 F3600 X118.009 Y102.169
G1 F1500 X133.668 Y117.829 E29.80937
G0 F3600 X134.234 Y117.829
G1 F1500 X118.574 Y102.169 E30.06718
G0 F3600 X119.14 Y102.169
G1 F1500 X134.8 Y117.829 E30.32499
G0 F3600 X135.365 Y117.829
G1 F1500 X119.706 Y102.169 E30.58279
G0 F3600 X120.271 Y102.169
G1 F1500 X135.931 Y117.829 E30.8406
G0 F3600 X136.497 Y117.829
G1 F1500 X120.837 Y102.169 E31.09841
G0 F3600 X121.403 Y102.169
G1 F1500 X137.062 Y117.829 E31.35621
G0 F3600 X137.628 Y117.829
G1 F1500 X121.968 Y102.169 E31.61402
G0 F3600 X122.534 Y102.169
G1 F1500 X138.194 Y117.829 E31.87183
G0 F3600 X138.759 Y117.829
G1 F1500 X123.1 Y102.169 E32.12963
G0 F3600 X123.665 Y102.169
G1 F1500 X139.325 Y117.829 E32.38744
G0 F3600 X139.891 Y117.829
G1 F1500 X124.231 Y102.169 E32.64525
G0 F3600 X124.797 Y102.169
G1 F1500 X140.456 Y117.829 E32.90305
G0 F3600 X141.022 Y117.829
G1 F1500 X125.362 Y102.169 E33.16086
G0 F3600 X125.928 Y102.169
G1 F1500 X141.588 Y117.829 E33.41867
G0 F3600 X142.153 Y117.829
G1 F1500 X126.494 Y102.169 E33.67647
G0 F3600 X127.06 Y102.169
G1 F1500 X142.719 Y117.829 E33.93427
G0 F3600 X143.285 Y117.829
G1 F1500 X127.625 Y102.169 E34.19208
G0 F3600 X128.191 Y102.169
G1 F1500 X143.85 Y117.829 E34.44988
G0 F3600 X144.416 Y117.829
G1 F1500 X128.757 Y102.169 E34.70768
G0 F3600 X129.322 Y102.169
G1 F1500 X144.982 Y117.829 E34.96549
G0 F3600 X145.548 Y117.829
G1 F1500 X129.888 Y102.169 E35.2233
G0 F3600 X130.454 Y102.169
G1 F1500 X146.113 Y117.829 E35.4811
G0 F3600 X146.679 Y117.829
G1 F1500 X131.019 Y102.169 E35.73891
G0 F3600 X131.585 Y102.169
G1 F1500 X147.245 Y117.829 E35.99672
G0 F3600 X147.81 Y117.829
G1 F1500 X132.151 Y102.169 E36.25452
G0 F3600 X132.716 Y102.169
G1 F1500 X148.376 Y117.829 E36.51233
G0 F3600 X148.942 Y117.829
G1 F1500 X133.282 Y102.169 E36.77014
G0 F3600 X133.848 Y102.169
G1 F1500 X149.507 Y117.829 E37.02794
G0 F3600 X150.073 Y117.829
G1 F1500 X134.413 Y102.169 E37.28575
G0 F3600 X134.979 Y102.169
G1 F1500 X150.639 Y117.829 E37.54356
G0 F3600 X151.204 Y117.829
G1 F1500 X135.545 Y102.169 E37.80136
G0 F3600 X136.11 Y102.169
G1 F1500 X151.77 Y117.829 E38.05917
G0 F3600 X152.336 Y117.829
G1 F1500 X136.676 Y102.169 E38.31698
G0 F3600 X137.242 Y102.169
G1 F1500 X152.901 Y117.829 E38.57478
G0 F3600 X153.467 Y117.829
G1 F1500 X137.808 Y102.169 E38.83259
G0 F3600 X138.373 Y102.169
G1 F1500 X154.033 Y117.829 E39.0904
G0 F3600 X154.598 Y117.829
G1 F1500 X138.939 Y102.169 E39.3482
G0 F3600 X139.505 Y102.169
G1 F1500 X155.164 Y117.829 E39.606
G0 F3600 X155.73 Y117.829
G1 F1500 X140.07 Y102.169 E39.86381
G0 F3600 X140.636 Y102.169
G1 F1500 X156.296 Y117.829 E40.12162
G0 F3600 X156.861 Y117.829
G1 F1500 X141.202 Y102.169 E40.37942
G0 F3600 X141.767 Y102.169
G1 F1500 X157.427 Y117.829 E40.63723
G0 F3600 X157.993 Y117.829
G1 F1500 X142.333 Y102.169 E40.89504
G0 F3600 X142.899 Y102.169
G1 F1500 X158.558 Y117.829 E41.15284
G0 F3600 X159.124 Y117.829
G1 F1500 X143.464 Y102.169 E41.41065
G0 F3600 X144.03 Y102.169
G1 F1500 X159.69 Y117.829 E41.66846
G0 F3600 X159.829 Y117.403
G1 F1500 X144.596 Y102.169 E41.91925
G0 F3600 X145.161 Y102.169
G1 F1500 X159.829 Y116.837 E42.16072
G0 F3600 X159.829 Y116.271
G1 F1500 X145.727 Y102.169 E42.39288
G0 F3600 X146.293 Y102.169
G1 F1500 X159.829 Y115.706 E42.61573
G0 F3600 X159.829 Y115.14
G1 F1500 X146.859 Y102.169 E42.82927
G0 F3600 X147.424 Y102.169
G1 F1500 X159.829 Y114.574 E43.03349
G0 F3600 X159.829 Y114.008
G1 F1500 X147.99 Y102.169 E43.22839
G0 F3600 X148.556 Y102.169
G1 F1500 X159.829 Y113.443 E43.41399
G0 F3600 X159.829 Y112.877
G1 F1500 X149.121 Y102.169 E43.59027
G0 F3600 X149.687 Y102.169
G1 F1500 X159.829 Y112.311 E43.75724
G0 F3600 X159.829 Y111.746
G1 F1500 X150.253 Y102.169 E43.9149
G0 F3600 X150.818 Y102.169
G1 F1500 X159.829 Y111.18 E44.06324
G0 F3600 X159.829 Y110.614
G1 F1500 X151.384 Y102.169 E44.20227
G0 F3600 X151.95 Y102.169
G1 F1500 X159.829 Y110.049 E44.33199
G0 F3600 X159.829 Y109.483
G1 F1500 X152.515 Y102.169 E44.4524
G0 F3600 X153.081 Y102.169
G1 F1500 X159.829 Y108.917 E44.5635
G0 F3600 X159.829 Y108.352
G1 F1500 X153.647 Y102.169 E44.66528
G0 F3600 X154.212 Y102.169
G1 F1500 X159.829 Y107.786 E44.75775
G0 F3600 X159.829 Y107.22
G1 F1500 X154.778 Y102.169 E44.8409
G0 F3600 X155.344 Y102.169
G1 F1500 X159.829 Y106.655 E44.91475
G0 F3600 X159.829 Y106.089
G1 F1500 X155.909 Y102.169 E44.97928
G0 F3600 X156.475 Y102.169
G1 F1500 X159.829 Y105.523 E45.0345
G0 F3600 X159.829 Y104.957
G1 F1500 X157.041 Y102.169 E45.0804
G0 F3600 X157.607 Y102.169
G1 F1500 X159.829 Y104.392 E45.11699
G0 F3600 X159.829 Y103.826
G1 F1500 X158.172 Y102.169 E45.14427
G0 F3600 X158.738 Y102.169
G1 F1500 X159.829 Y103.26 E45.16223
G0 F3600 X159.829 Y102.695
G1 F1500 X159.304 Y102.169 E45.17088
;MESH:NONMESH
G0 F600 X159.304 Y102.169 Z0.4
G0 F3600 X91.67 Y118.33
G0 X91.6 Y118.4
;TIME_ELAPSED:164.743397
;LAYER:1
M140 S65
;TYPE:WALL-INNER
;MESH:Body42.stl
G1 F2250 X91.6 Y110.1 E45.58497
G1 X92.4 Y110.1 E45.62488
G1 X93.6 Y110.1 E45.68475
G1 X93.6 Y101.6 E46.10881
G1 X160.4 Y101.6 E49.44148
G1 X160.4 Y118.4 E50.27964
G1 X158.6 Y118.4 E50.36944
G1 X158.6 Y110.4 E50.76856
G1 X93.6 Y110.4 E54.01142
G1 X92.4 Y110.4 E54.05644
G1 X92.4 Y118.4 E54.45556
G1 X91.6 Y118.4 E54.49547
