;FLAVOR:Marlin
;TIME:2176
;Filament used: 0m, 1.14543m
;Layer height: 0.1
;MINX:71.4
;MINY:94.8
;MINZ:0.3
;MAXX:148.6
;MAXY:125.2
;MAXZ:5.2
;Generated with Cura_SteamEngine 4.4.1
T1
M140 S65
M105
M190 S65
M104 S200
M105
M109 S200
M82 ;absolute extrusion mode
G28 ;Home
G1 Z15.0 F6000 ;Move the platform down 15mm
;Prime the extruder
G92 E0
G1 F200 E3
G92 E0
G92 E0
t1
G92 E0
G1 F1500 E-6.5
;LAYER_COUNT:50
;LAYER:0
M107
G0 F3600 X72.798 Y109.069 Z0.3
;TYPE:SKIRT
G1 F1500 E0
G1 F1800 X73.425 Y108.677 E0.03689
G1 X74.255 Y108.27 E0.08301
G1 X76.731 Y107.018 E0.22143
G1 X79.125 Y105.723 E0.35723
G1 X81.504 Y104.347 E0.49434
G1 X83.819 Y102.919 E0.63004
G1 X86.078 Y101.436 E0.76486
G1 X88.34 Y99.856 E0.90251
G1 X90.513 Y98.249 E1.03735
G1 X92.972 Y96.309 E1.19361
G1 X93.815 Y95.622 E1.24787
G1 X94.255 Y95.315 E1.27463
G1 X94.736 Y95.077 E1.30141
G1 X95.246 Y94.913 E1.32813
G1 X95.925 Y94.817 E1.36235
G1 X96.166 Y94.806 E1.37438
G1 X96.299 Y94.802 E1.38102
G1 X96.535 Y94.8 E1.3928
G1 X144.345 Y94.8 E3.77805
G1 X145.043 Y94.81 E3.81287
G1 X145.577 Y94.858 E3.83962
G1 X146.098 Y94.984 E3.86636
G1 X146.595 Y95.187 E3.89315
G1 X147.056 Y95.461 E3.9199
G1 X147.471 Y95.8 E3.94664
G1 X147.831 Y96.198 E3.97341
G1 X148.128 Y96.644 E4.00014
G1 X148.356 Y97.13 E4.02693
G1 X148.508 Y97.644 E4.05367
G1 X148.59 Y98.309 E4.0871
G1 X148.599 Y98.629 E4.10307
G1 X148.6 Y98.73 E4.10811
G1 X148.6 Y120.909 E5.21462
G1 X148.591 Y121.636 E5.25089
G1 X148.544 Y122.17 E5.27764
G1 X148.419 Y122.691 E5.30437
G1 X148.217 Y123.188 E5.33113
G1 X147.944 Y123.65 E5.35791
G1 X147.606 Y124.066 E5.38465
G1 X147.209 Y124.427 E5.41142
G1 X146.763 Y124.725 E5.43818
G1 X146.278 Y124.953 E5.46492
G1 X145.764 Y125.107 E5.49169
G1 X145.092 Y125.19 E5.52547
G1 X144.771 Y125.199 E5.54149
G1 X144.67 Y125.2 E5.54653
G1 X85.155 Y125.2 E8.51574
G1 X84.457 Y125.19 E8.55057
G1 X83.923 Y125.142 E8.57732
G1 X83.402 Y125.016 E8.60406
G1 X82.905 Y124.813 E8.63085
G1 X82.545 Y124.607 E8.65154
G1 X81.43 Y123.881 E8.71792
G1 X81.384 Y123.85 E8.72069
G1 X81.074 Y123.641 E8.73934
G1 X78.768 Y122.181 E8.87551
G1 X76.423 Y120.788 E9.01158
G1 X74.154 Y119.523 E9.14119
G1 X73.31 Y119.067 E9.18905
G1 X72.858 Y118.778 E9.21581
G1 X72.455 Y118.425 E9.24254
G1 X72.108 Y118.015 E9.26934
G1 X71.826 Y117.559 E9.29609
G1 X71.615 Y117.066 E9.32284
G1 X71.48 Y116.547 E9.3496
G1 X71.428 Y116.129 E9.37061
G1 X71.407 Y115.799 E9.38711
G1 X71.4 Y115.57 E9.39854
G1 X71.4 Y112.546 E9.54941
G1 X71.41 Y111.857 E9.58378
G1 X71.458 Y111.323 E9.61053
G1 X71.585 Y110.801 E9.63734
G1 X71.787 Y110.305 E9.66406
G1 X72.061 Y109.844 E9.69081
G1 X72.401 Y109.429 E9.71758
G1 X72.798 Y109.069 E9.74431
G0 F3600 X73.184 Y109.281
G1 F1800 X73.601 Y109.036 E9.76844
G1 X74.435 Y108.627 E9.81478
G1 X76.938 Y107.362 E9.9547
G1 X79.322 Y106.072 E10.08994
G1 X81.708 Y104.692 E10.22745
G1 X84.018 Y103.267 E10.36286
G1 X86.304 Y101.766 E10.4993
G1 X88.585 Y100.173 E10.6381
G1 X90.732 Y98.584 E10.77136
G1 X93.244 Y96.603 E10.93097
G1 X94.068 Y95.932 E10.98398
G1 X94.484 Y95.645 E11.0092
G1 X94.94 Y95.426 E11.03443
G1 X95.425 Y95.283 E11.05966
G1 X95.943 Y95.216 E11.08572
G1 X96.184 Y95.205 E11.09776
G1 X96.303 Y95.202 E11.10369
G1 X96.539 Y95.2 E11.11547
G1 X144.339 Y95.2 E13.50022
G1 X145.037 Y95.21 E13.53505
G1 X145.54 Y95.257 E13.56025
G1 X146.03 Y95.383 E13.58549
G1 X146.494 Y95.585 E13.61074
G1 X146.92 Y95.857 E13.63596
G1 X147.298 Y96.192 E13.66116
G1 X147.618 Y96.583 E13.68636
G1 X147.873 Y97.02 E13.71161
G1 X148.056 Y97.491 E13.73681
G1 X148.163 Y97.985 E13.76203
G1 X148.19 Y98.32 E13.7788
G1 X148.199 Y98.64 E13.79477
G1 X148.2 Y98.73 E13.79926
G1 X148.2 Y120.904 E14.90553
G1 X148.191 Y121.631 E14.9418
G1 X148.145 Y122.134 E14.967
G1 X148.02 Y122.624 E14.99223
G1 X147.819 Y123.088 E15.01746
G1 X147.548 Y123.515 E15.04269
G1 X147.213 Y123.894 E15.06792
G1 X146.823 Y124.215 E15.09312
G1 X146.387 Y124.471 E15.11835
G1 X145.916 Y124.654 E15.14356
G1 X145.422 Y124.762 E15.16879
G1 X145.081 Y124.79 E15.18586
G1 X144.76 Y124.799 E15.20188
G1 X144.67 Y124.8 E15.20637
G1 X85.161 Y124.8 E18.17528
G1 X84.463 Y124.79 E18.21011
G1 X83.96 Y124.743 E18.23531
G1 X83.47 Y124.617 E18.26056
G1 X83.006 Y124.415 E18.2858
G1 X82.763 Y124.272 E18.29987
G1 X81.648 Y123.546 E18.36625
G1 X81.607 Y123.518 E18.36873
G1 X81.29 Y123.304 E18.38781
G1 X78.98 Y121.842 E18.5242
G1 X76.628 Y120.445 E18.66068
G1 X74.331 Y119.164 E18.79189
G1 X73.5 Y118.715 E18.83901
G1 X73.075 Y118.441 E18.86424
G1 X72.7 Y118.102 E18.88946
G1 X72.382 Y117.709 E18.91468
G1 X72.13 Y117.271 E18.93989
G1 X71.95 Y116.799 E18.9651
G1 X71.827 Y116.103 E19.00036
G1 X71.806 Y115.773 E19.01686
G1 X71.8 Y115.57 E19.02699
G1 X71.8 Y112.552 E19.17756
G1 X71.81 Y111.863 E19.21193
G1 X71.858 Y111.359 E19.23719
G1 X71.984 Y110.87 E19.26239
G1 X72.185 Y110.406 E19.28761
G1 X72.457 Y109.98 E19.31283
G1 X72.793 Y109.602 E19.33806
G1 X73.184 Y109.281 E19.3633
G1 F1500 E12.8633
;MESH:b0002756-2b9e-4ae1-aca8-3129511ff314.stl
G0 F3600 X75.614 Y111.235
G0 X75.614 Y112.514
G0 X81.935 Y115.215
G0 X81.884 Y115.3
;TYPE:WALL-INNER
G1 F1500 E19.3633
G1 F1800 X75.6 Y115.3 E19.67681
G1 X75.6 Y112.5 E19.8165
G1 X80.219 Y112.5 E20.04695
G1 X96.307 Y99 E21.09473
G1 X144.4 Y99 E23.4941
G1 X144.4 Y121 E24.59168
G1 X84.864 Y121 E27.56194
G1 X81.884 Y115.3 E27.88284
G0 F3600 X81.642 Y115.7
;TYPE:WALL-OUTER
G1 F1800 X75.2 Y115.7 E28.20423
G1 X75.2 Y112.1 E28.38384
G1 X80.073 Y112.1 E28.62695
G1 X96.162 Y98.6 E29.67477
G1 X144.8 Y98.6 E32.10133
G1 X144.8 Y121.4 E33.23883
G1 X84.621 Y121.4 E36.24117
G1 X81.642 Y115.7 E36.56204
G0 F3600 X81.442 Y115.7
G0 X81.442 Y115.2
G0 X82.12 Y114.91
;TYPE:SKIN
G1 F1800 X75.99 Y114.91 E36.86787
G1 X75.99 Y112.89 E36.96864
G1 X80.361 Y112.89 E37.18671
G1 X96.45 Y99.39 E38.23453
G1 X144.01 Y99.39 E40.60731
G1 X144.01 Y120.61 E41.66598
G1 X85.1 Y120.61 E44.60501
G1 X82.12 Y114.91 E44.92591
G0 F3600 X76.262 Y114.729
G1 F1800 X76.169 Y114.636 E44.93247
G0 F3600 X76.169 Y114.07
G1 F1800 X76.828 Y114.729 E44.97896
G0 F3600 X77.394 Y114.729
G1 F1800 X76.169 Y113.504 E45.06539
G0 F3600 X76.3 Y113.069
G1 F1800 X77.959 Y114.729 E45.18248
G0 F3600 X78.525 Y114.729
G1 F1800 X76.866 Y113.069 E45.29957
G0 F3600 X77.431 Y113.069
G1 F1800 X79.091 Y114.729 E45.41669
G0 F3600 X79.656 Y114.729
G1 F1800 X77.997 Y113.069 E45.53378
G0 F3600 X78.563 Y113.069
G1 F1800 X80.222 Y114.729 E45.65086
G0 F3600 X80.788 Y114.729
G1 F1800 X79.128 Y113.069 E45.76799
G0 F3600 X79.694 Y113.069
G1 F1800 X81.354 Y114.729 E45.88511
G0 F3600 X81.919 Y114.729
G1 F1800 X80.26 Y113.069 E46.00219
G0 F3600 X80.644 Y112.888
G1 F1800 X88.185 Y120.429 E46.53425
G0 F3600 X87.619 Y120.429
G1 F1800 X82.568 Y115.377 E46.89066
G1 X82.498 Y115.307
G0 F3600 X83.187 Y116.563
G1 F1800 X87.054 Y120.429 E47.16347
G0 F3600 X86.488 Y120.429
G1 F1800 X83.807 Y117.748 E47.35262
G1 X83.737 Y117.678
G0 F3600 X84.426 Y118.933
G1 F1800 X85.922 Y120.429 E47.45818
G0 F3600 X85.356 Y120.429
G1 F1800 X85.045 Y120.118 E47.48012
G0 F3600 X88.751 Y120.429
G1 F1800 X80.951 Y112.63 E48.03042
G0 F3600 X81.259 Y112.371
G1 F1800 X89.316 Y120.429 E48.59892
G0 F3600 X89.882 Y120.429
G1 F1800 X81.566 Y112.113 E49.18565
G0 F3600 X81.874 Y111.855
G1 F1800 X90.448 Y120.429 E49.7906
G0 F3600 X91.013 Y120.429
G1 F1800 X82.182 Y111.597 E50.41371
G0 F3600 X82.489 Y111.339
G1 F1800 X91.579 Y120.429 E51.05505
G0 F3600 X92.145 Y120.429
G1 F1800 X82.797 Y111.081 E51.71461
G0 F3600 X83.104 Y110.823
G1 F1800 X92.71 Y120.429 E52.39236
G0 F3600 X93.276 Y120.429
G1 F1800 X83.412 Y110.565 E53.08832
G0 F3600 X83.72 Y110.307
G1 F1800 X93.842 Y120.429 E53.80248
G0 F3600 X94.407 Y120.429
G1 F1800 X84.027 Y110.049 E54.53485
G0 F3600 X84.335 Y109.791
G1 F1800 X94.973 Y120.429 E55.28542
G0 F3600 X95.539 Y120.429
G1 F1800 X84.642 Y109.532 E56.05426
G0 F3600 X84.95 Y109.274
G1 F1800 X96.105 Y120.429 E56.8413
G0 F3600 X96.67 Y120.429
G1 F1800 X85.257 Y109.016 E57.64655
G0 F3600 X85.565 Y108.758
G1 F1800 X97.236 Y120.429 E58.47
G0 F3600 X97.802 Y120.429
G1 F1800 X85.873 Y108.5 E59.31166
G0 F3600 X86.18 Y108.242
G1 F1800 X98.367 Y120.429 E60.17152
G0 F3600 X98.933 Y120.429
G1 F1800 X86.488 Y107.984 E61.04958
G0 F3600 X86.795 Y107.726
G1 F1800 X99.499 Y120.429 E61.94588
G0 F3600 X100.064 Y120.429
G1 F1800 X87.103 Y107.468 E62.86035
G0 F3600 X87.411 Y107.21
G1 F1800 X100.63 Y120.429 E63.79302
G0 F3600 X101.196 Y120.429
G1 F1800 X87.718 Y106.952 E64.74393
G0 F3600 X88.026 Y106.693
G1 F1800 X101.761 Y120.429 E65.71304
G0 F3600 X102.327 Y120.429
G1 F1800 X88.333 Y106.435 E66.7004
G0 F3600 X88.641 Y106.177
G1 F1800 X102.893 Y120.429 E67.70595
G0 F3600 X103.458 Y120.429
G1 F1800 X88.949 Y105.919 E68.72968
G0 F3600 X89.256 Y105.661
G1 F1800 X104.024 Y120.429 E69.77164
G0 F3600 X104.59 Y120.429
G1 F1800 X89.564 Y105.403 E70.8318
G0 F3600 X89.871 Y105.145
G1 F1800 X105.155 Y120.429 E71.91017
G0 F3600 X105.721 Y120.429
G1 F1800 X90.179 Y104.887 E73.00674
G0 F3600 X90.487 Y104.629
G1 F1800 X106.287 Y120.429 E74.12152
G0 F3600 X106.853 Y120.429
G1 F1800 X90.794 Y104.371 E75.25453
G0 F3600 X91.102 Y104.112
G1 F1800 X107.418 Y120.429 E76.40575
G0 F3600 X107.984 Y120.429
G1 F1800 X91.409 Y103.854 E77.57521
G0 F3600 X91.717 Y103.596
G1 F1800 X108.55 Y120.429 E78.76287
G0 F3600 X109.115 Y120.429
G1 F1800 X92.024 Y103.338 E79.96873
G0 F3600 X92.332 Y103.08
G1 F1800 X109.681 Y120.429 E81.19279
G0 F3600 X110.247 Y120.429
G1 F1800 X92.64 Y102.822 E82.43506
G0 F3600 X92.947 Y102.564
G1 F1800 X110.812 Y120.429 E83.69554
G0 F3600 X111.378 Y120.429
G1 F1800 X93.255 Y102.306 E84.97421
G0 F3600 X93.562 Y102.048
G1 F1800 X111.944 Y120.429 E86.27112
G0 F3600 X112.509 Y120.429
G1 F1800 X93.87 Y101.79 E87.58621
G0 F3600 X94.178 Y101.532
G1 F1800 X113.075 Y120.429 E88.91949
G0 F3600 X113.641 Y120.429
G1 F1800 X94.485 Y101.273 E90.27105
G0 F3600 X94.792 Y101.015
G1 F1800 X114.206 Y120.429 E91.64081
G0 F3600 X114.772 Y120.429
G1 F1800 X95.1 Y100.757 E93.02878
G0 F3600 X95.407 Y100.498
G1 F1800 X115.338 Y120.429 E94.43502
G0 F3600 X115.903 Y120.429
G1 F1800 X95.715 Y100.24 E95.85943
G0 F3600 X96.022 Y99.982
G1 F1800 X116.469 Y120.429 E97.30207
G0 F3600 X117.035 Y120.429
G1 F1800 X96.33 Y99.724 E98.76292
G0 F3600 X96.741 Y99.569
G1 F1800 X117.601 Y120.429 E100.23471
G0 F3600 X118.166 Y120.429
G1 F1800 X97.307 Y99.569 E101.70646
G0 F3600 X97.872 Y99.569
G1 F1800 X118.732 Y120.429 E103.17825
G0 F3600 X119.298 Y120.429
G1 F1800 X98.438 Y99.569 E104.65003
G0 F3600 X99.004 Y99.569
G1 F1800 X119.863 Y120.429 E106.12178
G0 F3600 X120.429 Y120.429
G1 F1800 X99.569 Y99.569 E107.59357
G0 F3600 X100.135 Y99.569
G1 F1800 X120.995 Y120.429 E109.06535
G0 F3600 X121.56 Y120.429
G1 F1800 X100.701 Y99.569 E110.5371
G0 F3600 X101.266 Y99.569
G1 F1800 X122.126 Y120.429 E112.00889
G0 F3600 X122.692 Y120.429
G1 F1800 X101.832 Y99.569 E113.48067
G0 F3600 X102.398 Y99.569
G1 F1800 X123.257 Y120.429 E114.95242
G0 F3600 X123.823 Y120.429
G1 F1800 X102.963 Y99.569 E116.42421
G0 F3600 X103.529 Y99.569
G1 F1800 X124.389 Y120.429 E117.896
G0 F3600 X124.954 Y120.429
G1 F1800 X104.095 Y99.569 E119.36775
G0 F3600 X104.66 Y99.569
G1 F1800 X125.52 Y120.429 E120.83953
G0 F3600 X126.086 Y120.429
G1 F1800 X105.226 Y99.569 E122.31132
G0 F3600 X105.792 Y99.569
G1 F1800 X126.652 Y120.429 E123.7831
G0 F3600 X127.217 Y120.429
G1 F1800 X106.358 Y99.569 E125.25485
G0 F3600 X106.923 Y99.569
G1 F1800 X127.783 Y120.429 E126.72664
G0 F3600 X128.349 Y120.429
G1 F1800 X107.489 Y99.569 E128.19843
G0 F3600 X108.055 Y99.569
G1 F1800 X128.914 Y120.429 E129.67018
G0 F3600 X129.48 Y120.429
G1 F1800 X108.62 Y99.569 E131.14196
G0 F3600 X109.186 Y99.569
G1 F1800 X130.046 Y120.429 E132.61375
G0 F3600 X130.611 Y120.429
G1 F1800 X109.752 Y99.569 E134.0855
G0 F3600 X110.317 Y99.569
G1 F1800 X131.177 Y120.429 E135.55728
G0 F3600 X131.743 Y120.429
G1 F1800 X110.883 Y99.569 E137.02907
G0 F3600 X111.449 Y99.569
G1 F1800 X132.308 Y120.429 E138.50082
G0 F3600 X132.874 Y120.429
G1 F1800 X112.014 Y99.569 E139.9726
G0 F3600 X112.58 Y99.569
G1 F1800 X133.44 Y120.429 E141.44439
G0 F3600 X134.005 Y120.429
G1 F1800 X113.146 Y99.569 E142.91614
G0 F3600 X113.711 Y99.569
G1 F1800 X134.571 Y120.429 E144.38793
G0 F3600 X135.137 Y120.429
G1 F1800 X114.277 Y99.569 E145.85971
G0 F3600 X114.843 Y99.569
G1 F1800 X135.702 Y120.429 E147.33146
G0 F3600 X136.268 Y120.429
G1 F1800 X115.409 Y99.569 E148.80321
G0 F3600 X115.974 Y99.569
G1 F1800 X136.834 Y120.429 E150.275
G0 F3600 X137.4 Y120.429
G1 F1800 X116.54 Y99.569 E151.74678
G0 F3600 X117.106 Y99.569
G1 F1800 X137.965 Y120.429 E153.21853
G0 F3600 X138.531 Y120.429
G1 F1800 X117.671 Y99.569 E154.69032
G0 F3600 X118.237 Y99.569
G1 F1800 X139.097 Y120.429 E156.16211
G0 F3600 X139.662 Y120.429
G1 F1800 X118.803 Y99.569 E157.63386
G0 F3600 X119.368 Y99.569
G1 F1800 X140.228 Y120.429 E159.10564
G0 F3600 X140.794 Y120.429
G1 F1800 X119.934 Y99.569 E160.57743
G0 F3600 X120.5 Y99.569
G1 F1800 X141.359 Y120.429 E162.04918
G0 F3600 X141.925 Y120.429
G1 F1800 X121.065 Y99.569 E163.52096
G0 F3600 X121.631 Y99.569
G1 F1800 X142.491 Y120.429 E164.99275
G0 F3600 X143.056 Y120.429
G1 F1800 X122.197 Y99.569 E166.4645
G0 F3600 X122.762 Y99.569
G1 F1800 X143.622 Y120.429 E167.93629
G0 F3600 X143.829 Y120.07
G1 F1800 X123.328 Y99.569 E169.38274
G0 F3600 X123.894 Y99.569
G1 F1800 X143.829 Y119.505 E170.7893
G0 F3600 X143.829 Y118.939
G1 F1800 X124.459 Y99.569 E172.15596
G0 F3600 X125.025 Y99.569
G1 F1800 X143.829 Y118.373 E173.48268
G0 F3600 X143.829 Y117.808
G1 F1800 X125.591 Y99.569 E174.76951
G0 F3600 X126.157 Y99.569
G1 F1800 X143.829 Y117.242 E176.0164
G0 F3600 X143.829 Y116.676
G1 F1800 X126.722 Y99.569 E177.22339
G0 F3600 X127.288 Y99.569
G1 F1800 X143.829 Y116.111 E178.39048
G0 F3600 X143.829 Y115.545
G1 F1800 X127.854 Y99.569 E179.51764
G0 F3600 X128.419 Y99.569
G1 F1800 X143.829 Y114.979 E180.6049
G0 F3600 X143.829 Y114.414
G1 F1800 X128.985 Y99.569 E181.65226
G0 F3600 X129.551 Y99.569
G1 F1800 X143.829 Y113.848 E182.65968
G0 F3600 X143.829 Y113.282
G1 F1800 X130.116 Y99.569 E183.62721
G0 F3600 X130.682 Y99.569
G1 F1800 X143.829 Y112.717 E184.55483
G0 F3600 X143.829 Y112.151
G1 F1800 X131.248 Y99.569 E185.44253
G0 F3600 X131.813 Y99.569
G1 F1800 X143.829 Y111.585 E186.29032
G0 F3600 X143.829 Y111.02
G1 F1800 X132.379 Y99.569 E187.09822
G0 F3600 X132.945 Y99.569
G1 F1800 X143.829 Y110.454 E187.86618
G0 F3600 X143.829 Y109.888
G1 F1800 X133.51 Y99.569 E188.59424
G0 F3600 X134.076 Y99.569
G1 F1800 X143.829 Y109.322 E189.28236
G0 F3600 X143.829 Y108.757
G1 F1800 X134.642 Y99.569 E189.93059
G0 F3600 X135.208 Y99.569
G1 F1800 X143.829 Y108.191 E190.53888
G0 F3600 X143.829 Y107.625
G1 F1800 X135.773 Y99.569 E191.10728
G0 F3600 X136.339 Y99.569
G1 F1800 X143.829 Y107.06 E191.63577
G0 F3600 X143.829 Y106.494
G1 F1800 X136.905 Y99.569 E192.12433
G0 F3600 X137.47 Y99.569
G1 F1800 X143.829 Y105.928 E192.573
G0 F3600 X143.829 Y105.363
G1 F1800 X138.036 Y99.569 E192.98176
G0 F3600 X138.602 Y99.569
G1 F1800 X143.829 Y104.797 E193.35059
G0 F3600 X143.829 Y104.231
G1 F1800 X139.167 Y99.569 E193.67952
G0 F3600 X139.733 Y99.569
G1 F1800 X143.829 Y103.666 E193.96855
G0 F3600 X143.829 Y103.1
G1 F1800 X140.299 Y99.569 E194.21764
G0 F3600 X140.864 Y99.569
G1 F1800 X143.829 Y102.534 E194.42684
G0 F3600 X143.829 Y101.969
G1 F1800 X141.43 Y99.569 E194.59614
G0 F3600 X141.996 Y99.569
G1 F1800 X143.829 Y101.403 E194.7255
G0 F3600 X143.829 Y100.837
G1 F1800 X142.561 Y99.569 E194.81497
G0 F3600 X143.127 Y99.569
G1 F1800 X143.829 Y100.271 E194.8645
G0 F3600 X143.829 Y99.706
G1 F1800 X143.693 Y99.569 E194.87413
;MESH:NONMESH
G0 F600 X143.693 Y99.569 Z0.4
G0 F3600 X81.935 Y115.215
G0 X81.884 Y115.3
;TIME_ELAPSED:139.061106
;LAYER:1
M140 S65
M106 S255
;TYPE:WALL-INNER
;MESH:b0002756-2b9e-4ae1-aca8-3129511ff314.stl
G1 F2700 X75.6 Y115.3 E194.97863
G1 X75.6 Y112.5 E195.02519
G1 X80.219 Y112.5 E195.10201
G1 X96.307 Y99 E195.45127
G1 X144.4 Y99 E196.25106
G1 X144.4 Y121 E196.61692
G1 X84.864 Y121 E197.60701
G1 X81.884 Y115.3 E197.71397
G0 F5400 X81.642 Y115.7
;TYPE:WALL-OUTER
G1 F1800 X75.2 Y115.7 E197.8211
G1 X75.2 Y112.1 E197.88097
G1 X80.073 Y112.1 E197.96201
