;FLAVOR:Marlin
;TIME:1231
;Filament used: 0m, 1.379m
;Layer height: 0.3
;MINX:61.871
;MINY:94.8
;MINZ:0.3
;MAXX:158.087
;MAXY:125.2
;MAXZ:6.9
;Generated with Cura_SteamEngine 4.4.1
T1
M140 S55
M105
M190 S55
M104 S200
M105
M109 S200
M82 ;absolute extrusion mode
G28 ;Home
G1 Z15.0 F6000 ;Move the platform down 15mm
;Prime the extruder
G92 E0
G1 F200 E3
G92 E0
G92 E0
t1
G92 E0
G1 F1500 E-1
;LAYER_COUNT:23
;LAYER:0
M106 S255
G0 F3600 X63.71 Y95.274 Z0.3
;TYPE:SKIRT
G1 F1500 E0
G1 X64.195 Y95.046 E0.01872
G1 X64.709 Y94.892 E0.03745
G1 X65.379 Y94.81 E0.06103
G1 X65.7 Y94.801 E0.07224
G1 X65.801 Y94.8 E0.07577
G1 X113.707 Y94.8 E1.7488
G1 X114.405 Y94.81 E1.77318
G1 X114.939 Y94.858 E1.7919
G1 X115.46 Y94.984 E1.81062
G1 X115.77 Y95.101 E1.82219
G1 X116.308 Y95.331 E1.84263
G1 X118.864 Y96.401 E1.9394
G1 X121.431 Y97.392 E2.03549
G1 X123.987 Y98.296 E2.13017
G1 X126.584 Y99.131 E2.22544
G1 X129.176 Y99.886 E2.31972
G1 X131.84 Y100.58 E2.41586
G1 X134.524 Y101.2 E2.51207
G1 X137.173 Y101.731 E2.60642
G1 X139.85 Y102.191 E2.70128
G1 X142.547 Y102.575 E2.79642
G1 X145.269 Y102.886 E2.89209
G1 X147.985 Y103.117 E2.98729
G1 X150.689 Y103.271 E3.08187
G1 X154.576 Y103.361 E3.21766
G1 X155.11 Y103.413 E3.23639
G1 X155.63 Y103.544 E3.25512
G1 X156.125 Y103.751 E3.27386
G1 X156.583 Y104.029 E3.29257
G1 X156.995 Y104.372 E3.31129
G1 X157.352 Y104.772 E3.33001
G1 X157.645 Y105.221 E3.34874
G1 X157.869 Y105.709 E3.36749
G1 X158.017 Y106.224 E3.3862
G1 X158.087 Y106.756 E3.40494
G1 X158.078 Y107.292 E3.42366
G1 X157.988 Y107.821 E3.4424
G1 X157.822 Y108.331 E3.46114
G1 X157.581 Y108.81 E3.47986
G1 X157.116 Y109.426 E3.50682
G1 X156.709 Y109.859 E3.52757
G1 X156.617 Y109.953 E3.53216
G1 X156.002 Y110.561 E3.56236
G1 X155.92 Y110.639 E3.56632
G1 X155.028 Y111.467 E3.60882
G1 X154.927 Y111.558 E3.61357
G1 X154.097 Y112.272 E3.6518
G1 X153.998 Y112.354 E3.65629
G1 X153.098 Y113.074 E3.69654
G1 X152.984 Y113.162 E3.70157
G1 X152.062 Y113.841 E3.74156
G1 X151.947 Y113.922 E3.74647
G1 X151.053 Y114.528 E3.78419
G1 X150.928 Y114.609 E3.78939
G1 X149.896 Y115.248 E3.83178
G1 X149.771 Y115.322 E3.83686
G1 X148.611 Y115.977 E3.88338
G1 X148.496 Y116.039 E3.88794
G1 X147.924 Y116.335 E3.91043
G1 X147.835 Y116.38 E3.91392
G1 X147.069 Y116.75 E3.94363
G1 X146.976 Y116.793 E3.9472
G1 X146.218 Y117.133 E3.97622
G1 X146.138 Y117.167 E3.97925
G1 X145.428 Y117.465 E4.00614
G1 X145.347 Y117.499 E4.00921
G1 X144.57 Y117.803 E4.03835
G1 X144.487 Y117.834 E4.04144
G1 X143.865 Y118.06 E4.06456
G1 X143.791 Y118.086 E4.06729
G1 X142.84 Y118.408 E4.10236
G1 X142.809 Y118.418 E4.1035
G1 X141.118 Y118.974 E4.16566
G1 X138.54 Y119.9 E4.26133
G1 X136.035 Y120.88 E4.35526
G1 X133.489 Y121.962 E4.45187
G1 X131.017 Y123.093 E4.54681
G1 X128.212 Y124.484 E4.65615
G1 X127.637 Y124.781 E4.67876
G1 X127.144 Y124.99 E4.69746
G1 X126.624 Y125.125 E4.71622
G1 X126.054 Y125.181 E4.73622
G1 X125.113 Y125.199 E4.76909
G1 X125.044 Y125.2 E4.7715
G1 X66.126 Y125.2 E6.8291
G1 X65.428 Y125.19 E6.85348
G1 X64.894 Y125.142 E6.8722
G1 X64.373 Y125.016 E6.89092
G1 X63.876 Y124.813 E6.90967
G1 X63.415 Y124.539 E6.9284
G1 X63 Y124.2 E6.94711
G1 X62.64 Y123.802 E6.96586
G1 X62.343 Y123.356 E6.98457
G1 X62.115 Y122.87 E7.00332
G1 X61.963 Y122.356 E7.02204
G1 X61.881 Y121.688 E7.04554
G1 X61.872 Y121.356 E7.05714
G1 X61.871 Y121.258 E7.06056
G1 X61.871 Y99.051 E7.8361
G1 X61.88 Y98.362 E7.86016
G1 X61.927 Y97.828 E7.87888
G1 X62.053 Y97.306 E7.89764
G1 X62.255 Y96.81 E7.91634
G1 X62.528 Y96.348 E7.93508
G1 X62.867 Y95.933 E7.9538
G1 X63.264 Y95.572 E7.97254
G1 X63.71 Y95.274 E7.99127
G0 F3600 X64.086 Y95.528
G1 F1500 X64.557 Y95.345 E8.00891
G1 X65.051 Y95.238 E8.02657
G1 X65.39 Y95.21 E8.03845
G1 X65.711 Y95.201 E8.04966
G1 X65.801 Y95.2 E8.0528
G1 X113.701 Y95.2 E9.72562
G1 X114.399 Y95.21 E9.75
G1 X114.902 Y95.257 E9.76764
G1 X115.613 Y95.468 E9.79354
G1 X116.178 Y95.71 E9.81501
G1 X118.745 Y96.785 E9.9122
G1 X121.259 Y97.755 E10.00631
G1 X123.868 Y98.678 E10.10296
G1 X126.465 Y99.513 E10.19822
G1 X129.069 Y100.271 E10.29294
G1 X131.754 Y100.971 E10.38984
G1 X134.42 Y101.587 E10.4854
G1 X137.099 Y102.124 E10.58082
G1 X139.798 Y102.587 E10.67645
G1 X142.517 Y102.975 E10.77237
G1 X145.226 Y103.284 E10.86759
G1 X147.929 Y103.514 E10.96233
G1 X150.686 Y103.671 E11.05877
G1 X154.567 Y103.761 E11.19434
G1 X155.07 Y103.812 E11.212
G1 X155.558 Y103.943 E11.22964
G1 X156.02 Y104.148 E11.2473
G1 X156.444 Y104.424 E11.26496
G1 X156.819 Y104.763 E11.28262
G1 X157.136 Y105.156 E11.30025
G1 X157.387 Y105.595 E11.31791
G1 X157.566 Y106.068 E11.33557
G1 X157.668 Y106.563 E11.35322
G1 X157.691 Y107.068 E11.37088
G1 X157.634 Y107.571 E11.38856
G1 X157.499 Y108.058 E11.40621
G1 X157.288 Y108.517 E11.42385
G1 X157.008 Y108.938 E11.44151
G1 X156.825 Y109.152 E11.45134
G1 X156.418 Y109.585 E11.47209
G1 X156.336 Y109.669 E11.47619
G1 X155.721 Y110.277 E11.50639
G1 X155.648 Y110.346 E11.5099
G1 X154.756 Y111.174 E11.55241
G1 X154.666 Y111.255 E11.55663
G1 X153.836 Y111.969 E11.59487
G1 X153.748 Y112.042 E11.59886
G1 X152.848 Y112.762 E11.63911
G1 X152.747 Y112.84 E11.64357
G1 X151.825 Y113.519 E11.68356
G1 X151.723 Y113.591 E11.68792
G1 X150.829 Y114.197 E11.72564
G1 X150.718 Y114.269 E11.73026
G1 X149.686 Y114.908 E11.77265
G1 X149.574 Y114.973 E11.77717
G1 X148.414 Y115.628 E11.82369
G1 X148.312 Y115.684 E11.82776
G1 X147.74 Y115.98 E11.85025
G1 X147.661 Y116.019 E11.85333
G1 X146.895 Y116.389 E11.88303
G1 X146.813 Y116.428 E11.88621
G1 X146.055 Y116.768 E11.91522
G1 X145.983 Y116.799 E11.91796
G1 X145.273 Y117.097 E11.94485
G1 X145.201 Y117.126 E11.94756
G1 X144.424 Y117.43 E11.9767
G1 X144.351 Y117.458 E11.97943
G1 X143.729 Y117.684 E12.00254
G1 X143.662 Y117.707 E12.00501
G1 X142.711 Y118.029 E12.04008
G1 X142.684 Y118.038 E12.04107
G1 X141.006 Y118.589 E12.10275
G1 X138.395 Y119.527 E12.19964
G1 X135.851 Y120.523 E12.29505
G1 X133.362 Y121.58 E12.38949
G1 X130.839 Y122.735 E12.48639
G1 X128.029 Y124.128 E12.59592
G1 X127.454 Y124.425 E12.61852
G1 X126.987 Y124.621 E12.63621
G1 X126.496 Y124.741 E12.65386
G1 X126.046 Y124.781 E12.66964
G1 X125.105 Y124.799 E12.70251
G1 X125.044 Y124.8 E12.70464
G1 X66.132 Y124.8 E14.76203
G1 X65.434 Y124.79 E14.78641
G1 X64.931 Y124.743 E14.80405
G1 X64.441 Y124.617 E14.82172
G1 X63.977 Y124.415 E14.8394
G1 X63.551 Y124.143 E14.85705
G1 X63.173 Y123.808 E14.87469
G1 X62.853 Y123.417 E14.89233
G1 X62.598 Y122.98 E14.91
G1 X62.415 Y122.509 E14.92765
G1 X62.308 Y122.015 E14.9453
G1 X62.281 Y121.677 E14.95714
G1 X62.272 Y121.345 E14.96874
G1 X62.271 Y121.258 E14.97178
G1 X62.271 Y99.056 E15.74714
G1 X62.28 Y98.367 E15.77121
G1 X62.327 Y97.864 E15.78885
G1 X62.452 Y97.374 E15.80651
G1 X62.653 Y96.91 E15.82417
G1 X62.924 Y96.483 E15.84183
G1 X63.259 Y96.105 E15.85947
G1 X63.65 Y95.784 E15.87714
G1 X64.086 Y95.528 E15.89479
G1 F1500 E14.89479
;MESH:5fe80453-4bc0-414e-97ad-b37a7c42ada9.stl
G0 F3600 X65.885 Y97.735
G0 X65.885 Y98.814
G0 X128.618 Y115.3
;TYPE:WALL-INNER
G1 F1500 E15.89479
G1 X128.121 Y116.19 E15.93039
G1 X125.607 Y121 E16.11993
G1 X66.071 Y121 E18.19912
G1 X66.071 Y99 E18.96743
G1 X114.144 Y99 E20.64629
G1 X126.653 Y109.496 E21.21655
G1 X152.47 Y107.695 E22.12036
G1 X152.568 Y107.689 E22.12378
G1 X152.966 Y107.661 E22.13772
G1 X152.592 Y108.02 E22.147
G1 X152.519 Y108.086 E22.15016
G1 X151.772 Y108.754 E22.18515
G1 X150.903 Y109.474 E22.22457
G1 X150.024 Y110.15 E22.26329
G1 X149.151 Y110.768 E22.30065
G1 X148.219 Y111.371 E22.33941
G1 X147.152 Y112.003 E22.38272
G1 X146.404 Y112.404 E22.41236
G1 X145.644 Y112.784 E22.44203
G1 X144.895 Y113.133 E22.47089
G1 X144.172 Y113.445 E22.49839
G1 X143.461 Y113.734 E22.5252
G1 X142.787 Y113.988 E22.55035
G1 X142.131 Y114.219 E22.57464
G1 X141.515 Y114.422 E22.59729
G1 X140.322 Y114.774 E22.64073
G1 X139.773 Y114.917 E22.66054
G1 X139.256 Y115.039 E22.67909
G1 X138.764 Y115.141 E22.69664
G1 X138.243 Y115.23 E22.7151
G1 X137.891 Y115.273 E22.72748
G1 X136.414 Y115.3 E22.77907
G1 X128.618 Y115.3 E23.05133
G0 F3600 X128.853 Y115.7
;TYPE:WALL-OUTER
G1 F1500 X128.473 Y116.38 E23.07854
G1 X125.85 Y121.4 E23.27634
G1 X65.671 Y121.4 E25.37798
G1 X65.671 Y98.6 E26.17423
G1 X114.289 Y98.6 E27.87212
G1 X126.786 Y109.086 E28.44184
G1 X153.542 Y107.221 E29.37851
G1 X153.672 Y107.212 E29.38306
G1 X154.017 Y107.187 E29.39514
G1 X153.694 Y107.517 E29.40309
G1 X153.6 Y107.607 E29.40713
G1 X152.869 Y108.309 E29.44252
G1 X152.027 Y109.061 E29.48195
G1 X151.159 Y109.782 E29.52135
G1 X150.268 Y110.467 E29.5606
G1 X149.368 Y111.104 E29.59911
G1 X148.431 Y111.711 E29.6381
G1 X147.356 Y112.347 E29.68172
G1 X146.583 Y112.762 E29.71236
G1 X145.813 Y113.147 E29.74242
G1 X145.064 Y113.496 E29.77128
G1 X144.323 Y113.816 E29.79947
G1 X143.612 Y114.105 E29.82627
G1 X142.92 Y114.365 E29.85209
G1 X142.256 Y114.599 E29.87668
G1 X141.628 Y114.806 E29.89977
G1 X140.435 Y115.158 E29.94321
G1 X139.874 Y115.304 E29.96345
G1 X139.337 Y115.431 E29.98272
G1 X138.845 Y115.533 E30.00027
G1 X138.292 Y115.627 E30.01986
G1 X137.919 Y115.673 E30.03299
G1 X136.421 Y115.7 E30.08531
G1 X128.853 Y115.7 E30.34961
G0 F3600 X128.756 Y115.874
G0 X128.372 Y115.659
G0 X127.778 Y116.005
;TYPE:SKIN
G1 F1500 X125.371 Y120.61 E30.53107
G1 X66.461 Y120.61 E32.58839
G1 X66.461 Y99.39 E33.32946
G1 X114.001 Y99.39 E34.98971
G1 X126.523 Y109.896 E35.56055
G1 X151.885 Y108.129 E36.44841
G1 X151.517 Y108.458 E36.46565
G1 X150.665 Y109.165 E36.50432
G1 X149.786 Y109.84 E36.54302
G1 X148.939 Y110.44 E36.57927
G1 X148.007 Y111.043 E36.61804
G1 X146.96 Y111.664 E36.66055
G1 X146.23 Y112.055 E36.68947
G1 X145.47 Y112.435 E36.71915
G1 X144.778 Y112.758 E36.74582
G1 X143.97 Y113.107 E36.77655
G1 X143.323 Y113.369 E36.80093
G1 X142.654 Y113.621 E36.8259
G1 X142.005 Y113.85 E36.84993
G1 X141.404 Y114.048 E36.87203
G1 X140.224 Y114.396 E36.91499
G1 X139.683 Y114.537 E36.93452
G1 X139.164 Y114.659 E36.95314
G1 X138.684 Y114.759 E36.97026
G1 X138.196 Y114.842 E36.98755
G1 X137.856 Y114.883 E36.99951
G1 X136.406 Y114.91 E37.05016
G1 X128.39 Y114.91 E37.3301
G1 X127.778 Y116.005 E37.37391
G0 F3600 X128.622 Y115.52
G0 X151.042 Y108.615
G1 F1500 X150.811 Y108.385 E37.38529
G0 F3600 X150.733 Y108.872
G1 F1500 X150.282 Y108.422 E37.40754
G0 F3600 X149.753 Y108.458
G1 F1500 X150.419 Y109.124 E37.44043
G0 F3600 X150.099 Y109.37
G1 F1500 X149.224 Y108.495 E37.48365
G0 F3600 X148.696 Y108.532
G1 F1500 X149.78 Y109.616 E37.53719
G0 F3600 X149.452 Y109.854
G1 F1500 X148.167 Y108.569 E37.60065
G0 F3600 X147.638 Y108.605
G1 F1500 X149.121 Y110.088 E37.6739
G0 F3600 X148.787 Y110.321
G1 F1500 X147.109 Y108.642 E37.75679
G0 F3600 X146.58 Y108.679
G1 F1500 X148.445 Y110.544 E37.8489
G0 F3600 X148.101 Y110.766
G1 F1500 X146.051 Y108.716 E37.95015
G0 F3600 X145.523 Y108.753
G1 F1500 X147.752 Y110.983 E38.06026
G0 F3600 X147.397 Y111.193
G1 F1500 X144.994 Y108.79 E38.17895
G0 F3600 X144.465 Y108.827
G1 F1500 X147.042 Y111.404 E38.30622
G0 F3600 X146.681 Y111.609
G1 F1500 X143.936 Y108.864 E38.44179
G0 F3600 X143.407 Y108.9
G1 F1500 X146.313 Y111.806 E38.58532
G0 F3600 X145.939 Y111.998
G1 F1500 X142.878 Y108.937 E38.73649
G0 F3600 X142.349 Y108.974
G1 F1500 X145.562 Y112.187 E38.89518
G0 F3600 X145.18 Y112.37
G1 F1500 X141.82 Y109.011 E39.0611
G0 F3600 X141.291 Y109.047
G1 F1500 X144.794 Y112.55 E39.23411
G0 F3600 X144.401 Y112.723
G1 F1500 X140.763 Y109.084 E39.41381
G0 F3600 X140.234 Y109.121
G1 F1500 X144.006 Y112.893 E39.60011
G0 F3600 X143.606 Y113.059
G1 F1500 X139.705 Y109.158 E39.79277
G0 F3600 X139.176 Y109.194
G1 F1500 X143.202 Y113.221 E39.99164
G0 F3600 X142.791 Y113.376
G1 F1500 X138.648 Y109.232 E40.19628
G0 F3600 X138.119 Y109.269
G1 F1500 X142.377 Y113.527 E40.40658
G0 F3600 X141.958 Y113.674
G1 F1500 X137.59 Y109.305 E40.62233
G0 F3600 X137.061 Y109.342
G1 F1500 X141.533 Y113.815 E40.84322
G0 F3600 X141.101 Y113.948
G1 F1500 X136.532 Y109.379 E41.06888
G0 F3600 X136.003 Y109.416
G1 F1500 X140.664 Y114.077 E41.29908
G0 F3600 X140.227 Y114.206
G1 F1500 X135.474 Y109.453 E41.53383
G0 F3600 X134.945 Y109.489
G1 F1500 X139.78 Y114.324 E41.77262
G0 F3600 X139.324 Y114.434
G1 F1500 X134.416 Y109.526 E42.01502
G0 F3600 X133.887 Y109.563
G1 F1500 X138.861 Y114.537 E42.26068
G0 F3600 X138.385 Y114.626
G1 F1500 X133.358 Y109.6 E42.50893
G0 F3600 X132.83 Y109.636
G1 F1500 X137.889 Y114.696 E42.75882
G0 F3600 X137.339 Y114.711
G1 F1500 X132.301 Y109.673 E43.00764
G0 F3600 X131.772 Y109.711
G1 F1500 X136.784 Y114.722 E43.25515
G0 F3600 X136.225 Y114.729
G1 F1500 X131.243 Y109.747 E43.5012
G0 F3600 X130.715 Y109.784
G1 F1500 X135.659 Y114.729 E43.74541
G0 F3600 X135.094 Y114.729
G1 F1500 X130.186 Y109.821 E43.98781
G0 F3600 X129.657 Y109.858
G1 F1500 X134.528 Y114.729 E44.22838
G0 F3600 X133.962 Y114.729
G1 F1500 X129.128 Y109.895 E44.46712
G0 F3600 X128.599 Y109.931
G1 F1500 X133.397 Y114.729 E44.70409
G0 F3600 X132.831 Y114.729
G1 F1500 X128.07 Y109.968 E44.93923
G0 F3600 X127.541 Y110.005
G1 F1500 X132.265 Y114.729 E45.17254
G0 F3600 X131.7 Y114.729
G1 F1500 X127.012 Y110.042 E45.40405
G0 F3600 X126.483 Y110.078
G1 F1500 X131.134 Y114.729 E45.63376
G0 F3600 X130.568 Y114.729
G1 F1500 X123.096 Y107.257 E46.00279
G1 X123.026 Y107.187
G0 F3600 X119.583 Y104.309
G1 F1500 X130.002 Y114.729 E46.5174
G0 F3600 X129.437 Y114.729
G1 F1500 X116.068 Y101.36 E47.17768
G1 X115.998 Y101.29
G0 F3600 X113.711 Y99.569
G1 F1500 X128.871 Y114.729 E47.92641
G0 F3600 X128.305 Y114.729
G1 F1500 X113.146 Y99.569 E48.67512
G0 F3600 X112.58 Y99.569
G1 F1500 X128.088 Y115.078 E49.44107
G0 F3600 X127.886 Y115.441
G1 F1500 X112.014 Y99.569 E50.22497
G0 F3600 X111.449 Y99.569
G1 F1500 X127.683 Y115.804 E51.02677
G0 F3600 X127.487 Y116.173
G1 F1500 X110.883 Y99.569 E51.84682
G0 F3600 X110.317 Y99.569
G1 F1500 X127.292 Y116.544 E52.6852
G0 F3600 X127.098 Y116.915
G1 F1500 X109.752 Y99.569 E53.54189
G0 F3600 X109.186 Y99.569
G1 F1500 X126.904 Y117.287 E54.41696
G0 F3600 X126.709 Y117.659
G1 F1500 X108.62 Y99.569 E55.31038
G0 F3600 X108.055 Y99.569
G1 F1500 X126.516 Y118.03 E56.22215
G0 F3600 X126.321 Y118.402
G1 F1500 X107.489 Y99.569 E57.15226
G0 F3600 X106.923 Y99.569
G1 F1500 X126.127 Y118.773 E58.10072
G0 F3600 X125.933 Y119.145
G1 F1500 X106.358 Y99.569 E59.06753
G0 F3600 X105.792 Y99.569
G1 F1500 X125.739 Y119.516 E60.05269
G0 F3600 X125.544 Y119.887
G1 F1500 X105.226 Y99.569 E61.05617
G0 F3600 X104.66 Y99.569
G1 F1500 X125.35 Y120.259 E62.07803
G0 F3600 X124.954 Y120.429
G1 F1500 X104.095 Y99.569 E63.10825
G0 F3600 X103.529 Y99.569
G1 F1500 X124.389 Y120.429 E64.1385
G0 F3600 X123.823 Y120.429
G1 F1500 X102.963 Y99.569 E65.16875
G0 F3600 X102.398 Y99.569
G1 F1500 X123.257 Y120.429 E66.19898
G0 F3600 X122.692 Y120.429
G1 F1500 X101.832 Y99.569 E67.22923
G0 F3600 X101.266 Y99.569
G1 F1500 X122.126 Y120.429 E68.25948
G0 F3600 X121.56 Y120.429
G1 F1500 X100.701 Y99.569 E69.2897
G0 F3600 X100.135 Y99.569
G1 F1500 X120.995 Y120.429 E70.31995
G0 F3600 X120.429 Y120.429
G1 F1500 X99.569 Y99.569 E71.3502
G0 F3600 X99.004 Y99.569
G1 F1500 X119.863 Y120.429 E72.38043
G0 F3600 X119.298 Y120.429
G1 F1500 X98.438 Y99.569 E73.41068
G0 F3600 X97.872 Y99.569
G1 F1500 X118.732 Y120.429 E74.44093
G0 F3600 X118.166 Y120.429
G1 F1500 X97.307 Y99.569 E75.47115
G0 F3600 X96.741 Y99.569
G1 F1500 X117.601 Y120.429 E76.5014
G0 F3600 X117.035 Y120.429
G1 F1500 X96.175 Y99.569 E77.53165
G0 F3600 X95.61 Y99.569
G1 F1500 X116.469 Y120.429 E78.56188
G0 F3600 X115.903 Y120.429
G1 F1500 X95.044 Y99.569 E79.5921
G0 F3600 X94.478 Y99.569
G1 F1500 X115.338 Y120.429 E80.62235
G0 F3600 X114.772 Y120.429
G1 F1500 X93.912 Y99.569 E81.6526
G0 F3600 X93.347 Y99.569
G1 F1500 X114.206 Y120.429 E82.68283
G0 F3600 X113.641 Y120.429
G1 F1500 X92.781 Y99.569 E83.71308
G0 F3600 X92.215 Y99.569
G1 F1500 X113.075 Y120.429 E84.74333
G0 F3600 X112.509 Y120.429
G1 F1500 X91.65 Y99.569 E85.77355
G0 F3600 X91.084 Y99.569
G1 F1500 X111.944 Y120.429 E86.8038
G0 F3600 X111.378 Y120.429
G1 F1500 X90.518 Y99.569 E87.83405
G0 F3600 X89.953 Y99.569
G1 F1500 X110.812 Y120.429 E88.86428
G0 F3600 X110.247 Y120.429
G1 F1500 X89.387 Y99.569 E89.89453
G0 F3600 X88.821 Y99.569
