;FLAVOR:Marlin
;TIME:1218
;Filament used: 0m, 1.36462m
;Layer height: 0.3
;MINX:60.915
;MINY:92.3
;MINZ:0.3
;MAXX:159.053
;MAXY:127.7
;MAXZ:6.9
;Generated with Cura_SteamEngine 4.4.1
T1
M140 S55
M105
M190 S55
M104 S200
M105
M109 S200
M82 ;absolute extrusion mode
G28 ;Home
G1 Z15.0 F6000 ;Move the platform down 15mm
;Prime the extruder
G92 E0
G1 F200 E3
G92 E0
G92 E0
t1
G92 E0
G1 F1500 E-1
;LAYER_COUNT:23
;LAYER:0
M106 S255
G0 F3600 X62.308 Y93.072 Z0.3
;TYPE:SKIRT
G1 F1500 E0
G1 X62.754 Y92.774 E0.01873
G1 X63.239 Y92.546 E0.03745
G1 X63.753 Y92.392 E0.05619
G1 X64.423 Y92.31 E0.07976
G1 X64.744 Y92.301 E0.09098
G1 X64.845 Y92.3 E0.0945
G1 X106.563 Y92.3 E1.55143
G1 X107.261 Y92.31 E1.57581
G1 X107.795 Y92.358 E1.59453
G1 X108.316 Y92.484 E1.61325
G1 X108.822 Y92.692 E1.63235
G1 X110.314 Y93.44 E1.69064
G1 X112.81 Y94.644 E1.78742
G1 X115.327 Y95.771 E1.88373
G1 X117.829 Y96.809 E1.97833
G1 X120.367 Y97.78 E2.07323
G1 X122.978 Y98.689 E2.16978
G1 X125.534 Y99.503 E2.26346
G1 X128.162 Y100.258 E2.35895
G1 X130.821 Y100.941 E2.45483
G1 X133.446 Y101.537 E2.54884
G1 X136.149 Y102.071 E2.64506
G1 X138.811 Y102.519 E2.73933
G1 X141.546 Y102.899 E2.83576
G1 X144.233 Y103.197 E2.93018
G1 X146.953 Y103.42 E3.02549
G1 X149.677 Y103.565 E3.12075
G1 X152.412 Y103.635 E3.2163
G1 X155.453 Y103.628 E3.3225
G1 X155.988 Y103.667 E3.34123
G1 X156.511 Y103.785 E3.35996
G1 X157.011 Y103.979 E3.37869
G1 X157.476 Y104.245 E3.39739
G1 X157.897 Y104.577 E3.41612
G1 X158.264 Y104.969 E3.43487
G1 X158.568 Y105.41 E3.45358
G1 X158.804 Y105.892 E3.47232
G1 X158.965 Y106.403 E3.49103
G1 X159.049 Y106.933 E3.50977
G1 X159.053 Y107.469 E3.52849
G1 X158.977 Y108 E3.54722
G1 X158.823 Y108.514 E3.56596
G1 X158.595 Y108.999 E3.58468
G1 X158.308 Y109.431 E3.60279
G1 X158.079 Y109.727 E3.61586
G1 X158.001 Y109.825 E3.62024
G1 X157.298 Y110.671 E3.65865
G1 X157.215 Y110.767 E3.66308
G1 X156.466 Y111.606 E3.70236
G1 X156.383 Y111.696 E3.70663
G1 X155.63 Y112.484 E3.7447
G1 X155.537 Y112.577 E3.74929
G1 X154.762 Y113.331 E3.78705
G1 X154.675 Y113.413 E3.79123
G1 X153.85 Y114.164 E3.83019
G1 X153.754 Y114.248 E3.83464
G1 X152.928 Y114.948 E3.87246
G1 X152.825 Y115.033 E3.87712
G1 X151.719 Y115.902 E3.92624
G1 X151.622 Y115.976 E3.9305
G1 X151.047 Y116.397 E3.95539
G1 X150.965 Y116.455 E3.9589
G1 X150.668 Y116.66 E3.9715
G1 X150.61 Y116.699 E3.97394
G1 X149.882 Y117.181 E4.00443
G1 X149.81 Y117.228 E4.00744
G1 X149.568 Y117.38 E4.01742
G1 X149.497 Y117.423 E4.02031
G1 X148.55 Y117.988 E4.05883
G1 X148.465 Y118.037 E4.06225
G1 X148.215 Y118.177 E4.07226
G1 X148.157 Y118.209 E4.07457
G1 X147.329 Y118.653 E4.10738
G1 X147.181 Y118.728 E4.11318
G1 X146.104 Y119.243 E4.15487
G1 X145.986 Y119.297 E4.1594
G1 X144.649 Y119.878 E4.21031
G1 X144.515 Y119.933 E4.21537
G1 X143.326 Y120.394 E4.25991
G1 X143.192 Y120.443 E4.26489
G1 X140.738 Y121.284 E4.35548
G1 X140.718 Y121.29 E4.35621
G1 X139.512 Y121.695 E4.40064
G1 X136.935 Y122.643 E4.49653
G1 X134.4 Y123.657 E4.59188
G1 X131.901 Y124.74 E4.687
G1 X129.451 Y125.885 E4.78144
G1 X127.232 Y126.995 E4.86809
G1 X126.681 Y127.28 E4.88976
G1 X126.187 Y127.49 E4.9085
G1 X125.668 Y127.625 E4.92723
G1 X125.097 Y127.681 E4.94727
G1 X124.157 Y127.699 E4.9801
G1 X124.088 Y127.7 E4.98251
G1 X65.17 Y127.7 E7.04011
G1 X64.472 Y127.69 E7.06449
G1 X63.938 Y127.642 E7.08322
G1 X63.417 Y127.516 E7.10194
G1 X62.92 Y127.313 E7.12069
G1 X62.459 Y127.039 E7.13941
G1 X62.044 Y126.7 E7.15813
G1 X61.684 Y126.302 E7.17687
G1 X61.387 Y125.856 E7.19558
G1 X61.159 Y125.37 E7.21433
G1 X61.007 Y124.856 E7.23305
G1 X60.925 Y124.188 E7.25655
G1 X60.916 Y123.856 E7.26815
G1 X60.915 Y123.758 E7.27158
G1 X60.915 Y96.551 E8.22173
G1 X60.924 Y95.862 E8.24579
G1 X60.971 Y95.328 E8.26451
G1 X61.097 Y94.806 E8.28327
G1 X61.299 Y94.31 E8.30197
G1 X61.572 Y93.848 E8.32071
G1 X61.911 Y93.433 E8.33943
G1 X62.308 Y93.072 E8.35817
G0 F3600 X62.694 Y93.284
G1 F1500 X63.13 Y93.028 E8.37582
G1 X63.601 Y92.845 E8.39347
G1 X64.095 Y92.738 E8.41112
G1 X64.434 Y92.71 E8.423
G1 X64.755 Y92.701 E8.43422
G1 X64.845 Y92.7 E8.43736
G1 X106.557 Y92.7 E9.89407
G1 X107.255 Y92.71 E9.91845
G1 X107.758 Y92.757 E9.93609
G1 X108.248 Y92.883 E9.95376
G1 X108.643 Y93.049 E9.96873
G1 X110.17 Y93.814 E10.02837
G1 X112.638 Y95.006 E10.12409
G1 X115.16 Y96.134 E10.22057
G1 X117.681 Y97.18 E10.31589
G1 X120.258 Y98.166 E10.41225
G1 X122.84 Y99.065 E10.50773
G1 X125.398 Y99.879 E10.60148
G1 X128.091 Y100.653 E10.69934
G1 X130.712 Y101.326 E10.79384
G1 X133.378 Y101.932 E10.88932
G1 X136.043 Y102.458 E10.98418
G1 X138.796 Y102.921 E11.08168
G1 X141.449 Y103.291 E11.17523
G1 X144.227 Y103.598 E11.27283
G1 X146.932 Y103.82 E11.36762
G1 X149.647 Y103.965 E11.46257
G1 X152.402 Y104.035 E11.55881
G1 X155.454 Y104.028 E11.6654
G1 X155.958 Y104.067 E11.68305
G1 X156.45 Y104.185 E11.70072
G1 X156.917 Y104.378 E11.71837
G1 X157.347 Y104.643 E11.73601
G1 X157.731 Y104.972 E11.75367
G1 X158.058 Y105.358 E11.77134
G1 X158.32 Y105.79 E11.78898
G1 X158.511 Y106.258 E11.80663
G1 X158.625 Y106.751 E11.8243
G1 X158.661 Y107.255 E11.84195
G1 X158.617 Y107.759 E11.85962
G1 X158.494 Y108.249 E11.87726
G1 X158.295 Y108.714 E11.89493
G1 X157.992 Y109.186 E11.91451
G1 X157.763 Y109.482 E11.92758
G1 X157.693 Y109.569 E11.93148
G1 X156.99 Y110.415 E11.9699
G1 X156.916 Y110.501 E11.97386
G1 X156.167 Y111.34 E12.01314
G1 X156.094 Y111.42 E12.01692
G1 X155.341 Y112.208 E12.05498
G1 X155.258 Y112.291 E12.05908
G1 X154.483 Y113.045 E12.09684
G1 X154.406 Y113.117 E12.10053
G1 X153.581 Y113.868 E12.13949
G1 X153.496 Y113.943 E12.14345
G1 X152.67 Y114.643 E12.18126
G1 X152.578 Y114.718 E12.1854
G1 X151.472 Y115.587 E12.23452
G1 X151.385 Y115.653 E12.23834
G1 X150.81 Y116.074 E12.26323
G1 X150.738 Y116.126 E12.26633
G1 X150.441 Y116.331 E12.27893
G1 X150.39 Y116.365 E12.28107
G1 X149.662 Y116.847 E12.31156
G1 X149.597 Y116.889 E12.31426
G1 X149.355 Y117.041 E12.32424
G1 X149.293 Y117.079 E12.32678
G1 X148.346 Y117.644 E12.3653
G1 X148.27 Y117.688 E12.36836
G1 X148.02 Y117.828 E12.37837
G1 X147.968 Y117.856 E12.38043
G1 X147.14 Y118.3 E12.41324
G1 X147.008 Y118.367 E12.41841
G1 X145.931 Y118.882 E12.4601
G1 X145.826 Y118.93 E12.46414
G1 X144.489 Y119.511 E12.51505
G1 X144.371 Y119.56 E12.51951
G1 X143.182 Y120.021 E12.56404
G1 X143.062 Y120.064 E12.5685
G1 X140.608 Y120.905 E12.65909
G1 X140.591 Y120.911 E12.65972
G1 X139.352 Y121.328 E12.70537
G1 X136.815 Y122.26 E12.79976
G1 X134.241 Y123.29 E12.89659
G1 X131.752 Y124.369 E12.99133
G1 X129.252 Y125.538 E13.08771
G1 X127.091 Y126.618 E13.17208
G1 X126.497 Y126.925 E13.19543
G1 X126.031 Y127.121 E13.21308
G1 X125.54 Y127.241 E13.23073
G1 X125.089 Y127.281 E13.24655
G1 X124.149 Y127.299 E13.27938
G1 X124.088 Y127.3 E13.28151
G1 X65.176 Y127.3 E15.3389
G1 X64.478 Y127.29 E15.36328
G1 X63.975 Y127.243 E15.38092
G1 X63.485 Y127.117 E15.39859
G1 X63.021 Y126.915 E15.41627
G1 X62.595 Y126.643 E15.43392
G1 X62.217 Y126.308 E15.45156
G1 X61.897 Y125.917 E15.4692
G1 X61.642 Y125.48 E15.48687
G1 X61.459 Y125.009 E15.50452
G1 X61.352 Y124.515 E15.52217
G1 X61.325 Y124.177 E15.53401
G1 X61.316 Y123.845 E15.54561
G1 X61.315 Y123.758 E15.54865
G1 X61.315 Y96.556 E16.49863
G1 X61.324 Y95.867 E16.52269
G1 X61.371 Y95.364 E16.54034
G1 X61.496 Y94.874 E16.558
G1 X61.697 Y94.41 E16.57566
G1 X61.968 Y93.983 E16.59332
G1 X62.303 Y93.605 E16.61096
G1 X62.694 Y93.284 E16.62862
G1 F1500 E15.62862
;MESH:324bbbb8-fed8-40e4-9577-64ab463a426f.stl
G0 F3600 X64.929 Y95.235
G0 X64.929 Y96.314
G0 X127.631 Y117.8
;TYPE:WALL-INNER
G1 F1500 E16.62862
G1 X124.652 Y123.5 E16.85323
G1 X65.115 Y123.5 E18.93245
G1 X65.115 Y96.5 E19.87538
G1 X107 Y96.5 E21.33813
G1 X128.518 Y114.556 E22.31912
G1 X153.234 Y108.397 E23.20868
G1 X153.702 Y108.281 E23.22552
G1 X153.855 Y108.242 E23.23103
G1 X153.729 Y108.388 E23.23271
G1 X153.401 Y108.742 E23.24372
G1 X152.984 Y109.194 E23.26519
G1 X152.224 Y109.961 E23.3029
G1 X151.438 Y110.701 E23.3406
G1 X150.609 Y111.429 E23.37913
G1 X149.753 Y112.129 E23.41775
G1 X148.775 Y112.867 E23.46054
G1 X147.744 Y113.571 E23.50414
G1 X146.674 Y114.229 E23.54801
G1 X145.574 Y114.839 E23.59193
G1 X144.757 Y115.245 E23.62379
G1 X143.596 Y115.778 E23.66841
G1 X142.437 Y116.254 E23.71216
G1 X141.23 Y116.694 E23.75703
G1 X140.056 Y117.072 E23.8001
G1 X138.535 Y117.474 E23.85504
G1 X137.798 Y117.641 E23.88144
G1 X136.954 Y117.77 E23.91125
G1 X136.491 Y117.8 E23.92746
G1 X127.631 Y117.8 E24.23688
G0 F3600 X127.873 Y118.2
;TYPE:WALL-OUTER
G1 F1500 X124.895 Y123.9 E24.46147
G1 X64.715 Y123.9 E26.56314
G1 X64.715 Y96.1 E27.53401
G1 X107.145 Y96.1 E29.0158
G1 X128.619 Y114.119 E29.99478
G1 X154.4 Y107.694 E30.92267
G1 X154.683 Y107.624 E30.93285
G1 X154.958 Y107.555 E30.94275
G1 X154.736 Y107.832 E30.94739
G1 X154.546 Y108.053 E30.95531
G1 X154.023 Y108.66 E30.98329
G1 X153.278 Y109.466 E31.02162
G1 X152.508 Y110.243 E31.05982
G1 X151.702 Y111.002 E31.09849
G1 X150.873 Y111.73 E31.13702
G1 X150.006 Y112.439 E31.17613
G1 X149.015 Y113.187 E31.21949
G1 X147.954 Y113.911 E31.26435
G1 X146.882 Y114.571 E31.30831
G1 X145.767 Y115.189 E31.35284
G1 X144.924 Y115.609 E31.38573
G1 X143.763 Y116.142 E31.43034
G1 X142.574 Y116.63 E31.47523
G1 X141.363 Y117.072 E31.52025
G1 X140.165 Y117.457 E31.56419
G1 X138.636 Y117.861 E31.61942
G1 X137.879 Y118.033 E31.64653
G1 X136.994 Y118.168 E31.6778
G1 X136.502 Y118.2 E31.69502
G1 X127.873 Y118.2 E31.99637
G0 F3600 X127.781 Y118.377
G0 X127.392 Y118.173
G0 X127.395 Y117.41
;TYPE:SKIN
G1 F1500 X124.416 Y123.11 E32.22098
G1 X65.505 Y123.11 E34.27833
G1 X65.505 Y96.89 E35.19402
G1 X106.857 Y96.89 E36.63816
G1 X128.419 Y114.983 E37.62116
G1 X152.693 Y108.933 E38.49481
G1 X151.952 Y109.681 E38.53158
G1 X151.176 Y110.412 E38.56882
G1 X150.362 Y111.127 E38.60665
G1 X149.511 Y111.823 E38.64505
G1 X148.547 Y112.55 E38.68721
G1 X147.532 Y113.243 E38.73013
G1 X146.477 Y113.892 E38.77339
G1 X145.392 Y114.494 E38.81672
G1 X144.595 Y114.89 E38.8478
G1 X143.448 Y115.417 E38.89189
G1 X142.291 Y115.892 E38.93556
G1 X141.104 Y116.325 E38.97969
G1 X139.952 Y116.696 E39.02196
G1 X138.898 Y116.975 E39.06003
G1 X138.442 Y117.095 E39.0765
G1 X137.737 Y117.255 E39.10175
G1 X136.915 Y117.38 E39.13078
G1 X136.466 Y117.41 E39.1465
G1 X127.395 Y117.41 E39.46329
G0 F3600 X151.902 Y109.475
G1 F1500 X151.774 Y109.347 E39.46961
G0 F3600 X151.612 Y109.752
G1 F1500 X151.321 Y109.46 E39.48401
G0 F3600 X150.868 Y109.573
G1 F1500 X151.321 Y110.026 E39.50638
G0 F3600 X151.03 Y110.3
G1 F1500 X150.415 Y109.686 E39.53673
G0 F3600 X149.963 Y109.799
G1 F1500 X150.728 Y110.564 E39.57451
G0 F3600 X150.427 Y110.829
G1 F1500 X149.509 Y109.911 E39.61985
G0 F3600 X149.057 Y110.025
G1 F1500 X150.121 Y111.089 E39.6724
G0 F3600 X149.811 Y111.344
G1 F1500 X148.604 Y110.137 E39.73201
G0 F3600 X148.151 Y110.25
G1 F1500 X149.5 Y111.599 E39.79864
G0 F3600 X149.181 Y111.845
G1 F1500 X147.699 Y110.363 E39.87183
G0 F3600 X147.245 Y110.476
G1 F1500 X148.858 Y112.089 E39.9515
G0 F3600 X148.535 Y112.331
G1 F1500 X146.793 Y110.589 E40.03753
G0 F3600 X146.339 Y110.701
G1 F1500 X148.203 Y112.565 E40.12959
G0 F3600 X147.867 Y112.794
G1 F1500 X145.887 Y110.814 E40.22738
G0 F3600 X145.434 Y110.928
G1 F1500 X147.53 Y113.023 E40.33088
G0 F3600 X147.184 Y113.243
G1 F1500 X144.981 Y111.04 E40.43968
G0 F3600 X144.529 Y111.153
G1 F1500 X146.834 Y113.459 E40.55355
G0 F3600 X146.484 Y113.674
G1 F1500 X144.075 Y111.266 E40.6725
G0 F3600 X143.623 Y111.379
G1 F1500 X146.124 Y113.88 E40.79602
G0 F3600 X145.76 Y114.082
G1 F1500 X143.17 Y111.492 E40.92394
G0 F3600 X142.717 Y111.604
G1 F1500 X145.397 Y114.284 E41.0563
G0 F3600 X145.022 Y114.475
G1 F1500 X142.264 Y111.717 E41.19251
G0 F3600 X141.812 Y111.831
G1 F1500 X144.644 Y114.663 E41.33238
G0 F3600 X144.26 Y114.844
G1 F1500 X141.359 Y111.943 E41.47566
G0 F3600 X140.906 Y112.056
G1 F1500 X143.872 Y115.022 E41.62215
G0 F3600 X143.484 Y115.2
G1 F1500 X140.453 Y112.169 E41.77184
G0 F3600 X140 Y112.282
G1 F1500 X143.088 Y115.369 E41.92433
G0 F3600 X142.687 Y115.534
G1 F1500 X139.548 Y112.395 E42.07936
G0 F3600 X139.094 Y112.507
G1 F1500 X142.286 Y115.698 E42.23699
G0 F3600 X141.873 Y115.852
G1 F1500 X138.642 Y112.62 E42.39659
G0 F3600 X138.189 Y112.733
G1 F1500 X141.459 Y116.003 E42.55809
G0 F3600 X141.045 Y116.155
G1 F1500 X137.736 Y112.846 E42.72152
G0 F3600 X137.284 Y112.959
G1 F1500 X140.617 Y116.292 E42.88613
G0 F3600 X140.188 Y116.43
G1 F1500 X136.83 Y113.072 E43.05198
G0 F3600 X136.378 Y113.185
G1 F1500 X139.754 Y116.561 E43.21871
G0 F3600 X139.307 Y116.679
G1 F1500 X135.925 Y113.297 E43.38574
G0 F3600 X135.472 Y113.41
G1 F1500 X138.859 Y116.797 E43.55302
G0 F3600 X138.411 Y116.915
G1 F1500 X135.019 Y113.523 E43.72055
G0 F3600 X134.566 Y113.636
G1 F1500 X137.95 Y117.02 E43.88768
G0 F3600 X137.475 Y117.111
G1 F1500 X134.114 Y113.749 E44.0537
G0 F3600 X133.66 Y113.861
G1 F1500 X136.984 Y117.185 E44.21787
G0 F3600 X136.462 Y117.229
G1 F1500 X133.208 Y113.975 E44.37858
G0 F3600 X132.755 Y114.088
G1 F1500 X135.897 Y117.229 E44.53374
G0 F3600 X135.331 Y117.229
G1 F1500 X132.302 Y114.2 E44.68334
G0 F3600 X131.849 Y114.313
G1 F1500 X134.766 Y117.229 E44.82738
G0 F3600 X134.2 Y117.229
G1 F1500 X131.396 Y114.426 E44.96584
G0 F3600 X130.944 Y114.539
G1 F1500 X133.634 Y117.229 E45.0987
G0 F3600 X133.069 Y117.229
G1 F1500 X130.491 Y114.652 E45.226
G0 F3600 X130.038 Y114.764
G1 F1500 X132.503 Y117.229 E45.34774
G0 F3600 X131.937 Y117.229
G1 F1500 X129.585 Y114.877 E45.4639
G0 F3600 X129.132 Y114.99
G1 F1500 X131.371 Y117.229 E45.57448
G0 F3600 X130.806 Y117.229
G1 F1500 X128.679 Y115.103 E45.67951
G1 X128.609 Y115.033
G0 F3600 X127.246 Y114.235
G1 F1500 X130.24 Y117.229 E45.82738
G0 F3600 X129.674 Y117.229
G1 F1500 X123.73 Y111.285 E46.12095
G1 X123.66 Y111.215
G0 F3600 X120.213 Y108.334
G1 F1500 X129.109 Y117.229 E46.56028
G0 F3600 X128.543 Y117.229
G1 F1500 X116.698 Y105.384 E47.14529
G1 X116.628 Y105.314
G0 F3600 X113.181 Y102.433
G1 F1500 X127.977 Y117.229 E47.87605
G0 F3600 X127.412 Y117.229
G1 F1500 X109.665 Y99.482 E48.75255
G1 X109.595 Y99.412
G0 F3600 X106.686 Y97.07
G1 F1500 X127.134 Y117.518 E49.76245
G0 F3600 X126.94 Y117.889
G1 F1500 X106.121 Y97.07 E50.79068
G0 F3600 X105.555 Y97.07
G1 F1500 X126.746 Y118.26 E51.83725
G0 F3600 X126.552 Y118.632
G1 F1500 X104.989 Y97.07 E52.9022
G0 F3600 X104.424 Y97.07
G1 F1500 X126.357 Y119.003 E53.98544
G0 F3600 X126.164 Y119.375
G1 F1500 X103.858 Y97.07 E55.08708
G0 F3600 X103.292 Y97.07
G1 F1500 X125.969 Y119.747 E56.20707
G0 F3600 X125.775 Y120.119
G1 F1500 X102.727 Y97.07 E57.34541
G0 F3600 X102.161 Y97.07
G1 F1500 X125.581 Y120.49 E58.5021
G0 F3600 X125.387 Y120.861
G1 F1500 X101.595 Y97.07 E59.67713
G0 F3600 X101.03 Y97.07
G1 F1500 X125.193 Y121.233 E60.87051
G0 F3600 X124.998 Y121.604
G1 F1500 X100.464 Y97.07 E62.08221
G0 F3600 X99.898 Y97.07
G1 F1500 X124.805 Y121.976 E63.31232
G0 F3600 X124.61 Y122.347
G1 F1500 X99.332 Y97.07 E64.56074
G0 F3600 X98.767 Y97.07
G1 F1500 X124.416 Y122.719 E65.82751
G0 F3600 X124.06 Y122.929
G1 F1500 X98.201 Y97.07 E67.10466
G0 F3600 X97.635 Y97.07
G1 F1500 X123.494 Y122.929 E68.3818
G0 F3600 X122.929 Y122.929
G1 F1500 X97.07 Y97.07 E69.65895
G0 F3600 X96.504 Y97.07
G1 F1500 X122.363 Y122.929 E70.93609
G0 F3600 X121.797 Y122.929
G1 F1500 X95.938 Y97.07 E72.21324
G0 F3600 X95.373 Y97.07
G1 F1500 X121.232 Y122.929 E73.49038
G0 F3600 X120.666 Y122.929
G1 F1500 X94.807 Y97.07 E74.76752
G0 F3600 X94.241 Y97.07
G1 F1500 X120.1 Y122.929 E76.04467
G0 F3600 X119.534 Y122.929
G1 F1500 X93.676 Y97.07 E77.32179
G0 F3600 X93.11 Y97.07
G1 F1500 X118.969 Y122.929 E78.59893
G0 F3600 X118.403 Y122.929
G1 F1500 X92.544 Y97.07 E79.87608
G0 F3600 X91.979 Y97.07
G1 F1500 X117.837 Y122.929 E81.1532
G0 F3600 X117.272 Y122.929
G1 F1500 X91.413 Y97.07 E82.43034
G0 F3600 X90.847 Y97.07
G1 F1500 X116.706 Y122.929 E83.70749
G0 F3600 X116.14 Y122.929
G1 F1500 X90.281 Y97.07 E84.98463
G0 F3600 X89.716 Y97.07
G1 F1500 X115.575 Y122.929 E86.26178
G0 F3600 X115.009 Y122.929
G1 F1500 X89.15 Y97.07 E87.53892
G0 F3600 X88.584 Y97.07
G1 F1500 X114.443 Y122.929 E88.81606
G0 F3600 X113.878 Y122.929
G1 F1500 X88.019 Y97.07 E90.09321
