;FLAVOR:Marlin
;TIME:319
;Filament used: 0m, 0.105646m
;Layer height: 0.1
;MINX:102.122
;MINY:98.107
;MINZ:0.2
;MAXX:117.878
;MAXY:121.906
;MAXZ:5
;Generated with Cura_SteamEngine 4.4.1
T1
M140 S65
M105
M190 S65
M104 S200
M105
M109 S200
M82 ;absolute extrusion mode
G28 ;Home
G1 Z15.0 F6000 ;Move the platform down 15mm
;Prime the extruder
G92 E0
G1 F200 E3
G92 E0
G92 E0
t1
G92 E0
G1 F1500 E-1
;LAYER_COUNT:49
;LAYER:0
M106 S255
G0 F3600 X103.558 Y99.287 Z0.2
;TYPE:SKIRT
G1 F1500 E0
G1 X104.019 Y98.914 E0.01972
G1 X104.527 Y98.607 E0.03947
G1 X105.071 Y98.371 E0.05919
G1 X105.641 Y98.21 E0.07889
G1 X106.423 Y98.118 E0.10508
G1 X106.743 Y98.109 E0.11572
G1 X106.867 Y98.107 E0.11985
G1 X112.819 Y98.107 E0.31781
G1 X113.517 Y98.117 E0.34103
G1 X114.108 Y98.166 E0.36076
G1 X114.687 Y98.293 E0.38047
G1 X115.244 Y98.497 E0.4002
G1 X115.768 Y98.775 E0.41993
G1 X116.25 Y99.12 E0.43964
G1 X116.682 Y99.527 E0.45939
G1 X117.054 Y99.988 E0.47909
G1 X117.362 Y100.495 E0.49882
G1 X117.598 Y101.039 E0.51854
G1 X117.759 Y101.609 E0.53824
G1 X117.852 Y102.394 E0.56453
G1 X117.861 Y102.715 E0.57521
G1 X117.863 Y102.834 E0.57917
G1 X117.876 Y115.754 E1.00889
G1 X117.878 Y116.787 E1.04325
G1 X117.878 Y116.84 E1.04501
G1 X117.871 Y117.541 E1.06833
G1 X117.825 Y118.132 E1.08805
G1 X117.7 Y118.712 E1.10778
G1 X117.498 Y119.269 E1.12749
G1 X117.223 Y119.795 E1.14723
G1 X116.88 Y120.278 E1.16693
G1 X116.475 Y120.712 E1.18668
G1 X116.016 Y121.086 E1.20637
G1 X115.51 Y121.396 E1.2261
G1 X114.967 Y121.635 E1.24584
G1 X114.397 Y121.798 E1.26556
G1 X113.604 Y121.895 E1.29213
G1 X113.34 Y121.903 E1.30091
G1 X113.208 Y121.905 E1.3053
G1 X107.19 Y121.906 E1.50546
G1 X107.142 Y121.906 E1.50706
G1 X106.484 Y121.899 E1.52895
G1 X105.893 Y121.853 E1.54866
G1 X105.313 Y121.727 E1.5684
G1 X104.756 Y121.525 E1.58811
G1 X104.231 Y121.25 E1.60782
G1 X103.747 Y120.907 E1.62755
G1 X103.314 Y120.501 E1.64729
G1 X102.94 Y120.042 E1.66699
G1 X102.631 Y119.536 E1.68671
G1 X102.392 Y118.993 E1.70644
G1 X102.229 Y118.423 E1.72616
G1 X102.133 Y117.632 E1.75266
G1 X102.124 Y117.335 E1.76254
G1 X102.122 Y117.198 E1.7671
G1 X102.136 Y103.254 E2.23088
G1 X102.136 Y103.193 E2.23291
G1 X102.147 Y102.451 E2.25759
G1 X102.196 Y101.86 E2.27731
G1 X102.324 Y101.281 E2.29703
G1 X102.528 Y100.724 E2.31676
G1 X102.806 Y100.2 E2.33649
G1 X103.151 Y99.718 E2.35621
G1 X103.558 Y99.287 E2.37592
G0 F3600 X103.948 Y99.475
G1 F1500 X104.403 Y99.139 E2.39474
G1 X104.9 Y98.871 E2.41352
G1 X105.43 Y98.675 E2.43231
G1 X105.983 Y98.556 E2.45113
G1 X106.435 Y98.518 E2.46621
G1 X106.755 Y98.509 E2.47686
G1 X106.867 Y98.507 E2.48059
G1 X112.813 Y98.507 E2.67835
G1 X113.511 Y98.517 E2.70157
G1 X114.075 Y98.565 E2.7204
G1 X114.625 Y98.692 E2.73917
G1 X115.153 Y98.896 E2.758
G1 X115.647 Y99.171 E2.7768
G1 X116.096 Y99.514 E2.79559
G1 X116.493 Y99.916 E2.81439
G1 X116.83 Y100.371 E2.83322
G1 X117.098 Y100.868 E2.852
G1 X117.294 Y101.398 E2.87079
G1 X117.414 Y101.951 E2.88961
G1 X117.452 Y102.405 E2.90477
G1 X117.461 Y102.726 E2.91545
G1 X117.463 Y102.834 E2.91904
G1 X117.476 Y115.755 E3.34879
G1 X117.478 Y116.788 E3.38315
G1 X117.478 Y116.836 E3.38475
G1 X117.471 Y117.537 E3.40806
G1 X117.425 Y118.1 E3.42685
G1 X117.301 Y118.652 E3.44567
G1 X117.1 Y119.18 E3.46446
G1 X116.826 Y119.675 E3.48328
G1 X116.485 Y120.126 E3.50208
G1 X116.085 Y120.525 E3.52088
G1 X115.632 Y120.863 E3.53967
G1 X115.136 Y121.134 E3.55847
G1 X114.606 Y121.333 E3.5773
G1 X114.054 Y121.454 E3.5961
G1 X113.592 Y121.495 E3.61152
G1 X113.328 Y121.503 E3.62031
G1 X113.208 Y121.505 E3.6243
G1 X107.19 Y121.506 E3.82446
G1 X107.146 Y121.506 E3.82592
G1 X106.488 Y121.499 E3.84781
G1 X105.925 Y121.453 E3.8666
G1 X105.374 Y121.328 E3.88539
G1 X104.845 Y121.126 E3.90422
G1 X104.351 Y120.853 E3.923
G1 X103.9 Y120.512 E3.9418
G1 X103.501 Y120.111 E3.96062
G1 X103.163 Y119.658 E3.97942
G1 X102.893 Y119.161 E3.99823
G1 X102.695 Y118.632 E4.01701
G1 X102.573 Y118.08 E4.03582
G1 X102.533 Y117.62 E4.05117
G1 X102.524 Y117.323 E4.06106
G1 X102.522 Y117.198 E4.06521
G1 X102.536 Y103.254 E4.52899
G1 X102.536 Y103.199 E4.53082
G1 X102.547 Y102.457 E4.55551
G1 X102.596 Y101.893 E4.57433
G1 X102.723 Y101.343 E4.59311
G1 X102.927 Y100.815 E4.61194
G1 X103.203 Y100.322 E4.63073
G1 X103.545 Y99.872 E4.64953
G1 X103.948 Y99.475 E4.66834
G0 F3600 X103.938 Y100.035
G1 F1500 X104.336 Y99.675 E4.68619
G1 X104.783 Y99.378 E4.70404
G1 X105.268 Y99.151 E4.72185
G1 X105.782 Y98.998 E4.73969
G1 X106.446 Y98.917 E4.76194
G1 X106.766 Y98.908 E4.77258
G1 X106.867 Y98.907 E4.77594
G1 X112.808 Y98.907 E4.97354
G1 X113.506 Y98.917 E4.99676
G1 X114.04 Y98.965 E5.01459
G1 X114.561 Y99.091 E5.03242
G1 X115.058 Y99.294 E5.05028
G1 X115.519 Y99.568 E5.06811
G1 X115.934 Y99.907 E5.08594
G1 X116.294 Y100.305 E5.10379
G1 X116.591 Y100.751 E5.12161
G1 X116.819 Y101.237 E5.13946
G1 X116.971 Y101.751 E5.15729
G1 X117.053 Y102.416 E5.17958
G1 X117.062 Y102.737 E5.19026
G1 X117.063 Y102.834 E5.19348
G1 X117.076 Y115.756 E5.62327
G1 X117.078 Y116.789 E5.65763
G1 X117.078 Y116.832 E5.65906
G1 X117.071 Y117.533 E5.68238
G1 X117.026 Y118.067 E5.7002
G1 X116.901 Y118.589 E5.71805
G1 X116.701 Y119.087 E5.7359
G1 X116.429 Y119.549 E5.75373
G1 X116.092 Y119.965 E5.77154
G1 X115.696 Y120.327 E5.78938
G1 X115.251 Y120.626 E5.80722
G1 X114.766 Y120.856 E5.82507
G1 X114.253 Y121.011 E5.84289
G1 X113.58 Y121.095 E5.86545
G1 X113.316 Y121.103 E5.87424
G1 X113.208 Y121.105 E5.87783
G1 X107.19 Y121.106 E6.07799
G1 X107.151 Y121.106 E6.07929
G1 X106.493 Y121.099 E6.10117
G1 X105.958 Y121.053 E6.11903
G1 X105.437 Y120.929 E6.13684
G1 X104.939 Y120.728 E6.15471
G1 X104.477 Y120.456 E6.17254
G1 X104.061 Y120.118 E6.19036
G1 X103.699 Y119.722 E6.20821
G1 X103.4 Y119.277 E6.22604
G1 X103.171 Y118.792 E6.24388
G1 X103.016 Y118.278 E6.26174
G1 X102.933 Y117.608 E6.28419
G1 X102.924 Y117.311 E6.29407
G1 X102.922 Y117.198 E6.29783
G1 X102.936 Y103.254 E6.76161
G1 X102.936 Y103.205 E6.76324
G1 X102.947 Y102.463 E6.78792
G1 X102.995 Y101.928 E6.80579
G1 X103.122 Y101.407 E6.82363
G1 X103.325 Y100.911 E6.84145
G1 X103.599 Y100.45 E6.85929
G1 X103.938 Y100.035 E6.87711
G0 F3600 X104.33 Y100.208
G1 F1500 X104.722 Y99.888 E6.89394
G1 X105.158 Y99.633 E6.91074
G1 X105.63 Y99.45 E6.92758
G1 X106.124 Y99.344 E6.94438
G1 X106.457 Y99.317 E6.95549
G1 X106.777 Y99.308 E6.96614
G1 X106.867 Y99.307 E6.96913
G1 X112.802 Y99.307 E7.16653
G1 X113.5 Y99.317 E7.18975
G1 X114.003 Y99.364 E7.20655
G1 X114.493 Y99.49 E7.22338
G1 X114.957 Y99.692 E7.24021
G1 X115.383 Y99.964 E7.25702
G1 X115.761 Y100.299 E7.27382
G1 X116.081 Y100.69 E7.29063
G1 X116.336 Y101.127 E7.30746
G1 X116.519 Y101.598 E7.32426
G1 X116.626 Y102.092 E7.34107
G1 X116.653 Y102.427 E7.35225
G1 X116.662 Y102.748 E7.36293
G1 X116.663 Y102.835 E7.36583
G1 X116.676 Y115.757 E7.79562
G1 X116.678 Y116.79 E7.82997
G1 X116.678 Y116.828 E7.83124
G1 X116.671 Y117.529 E7.85455
G1 X116.626 Y118.033 E7.87138
G1 X116.502 Y118.523 E7.88819
G1 X116.303 Y118.987 E7.90499
G1 X116.033 Y119.415 E7.92182
G1 X115.699 Y119.794 E7.93862
G1 X115.309 Y120.116 E7.95544
G1 X114.874 Y120.373 E7.97225
G1 X114.403 Y120.558 E7.98908
G1 X113.909 Y120.667 E8.0059
G1 X113.568 Y120.696 E8.01728
G1 X113.304 Y120.704 E8.02607
G1 X113.208 Y120.705 E8.02926
G1 X107.19 Y120.706 E8.22942
G1 X107.155 Y120.706 E8.23059
G1 X106.497 Y120.699 E8.25247
G1 X105.993 Y120.654 E8.2693
G1 X105.503 Y120.529 E8.28612
G1 X105.039 Y120.33 E8.30291
G1 X104.612 Y120.059 E8.31973
G1 X104.232 Y119.725 E8.33656
G1 X103.91 Y119.335 E8.35338
G1 X103.654 Y118.9 E8.37017
G1 X103.469 Y118.429 E8.387
G1 X103.361 Y117.935 E8.40382
G1 X103.332 Y117.596 E8.41514
G1 X103.323 Y117.299 E8.42502
G1 X103.322 Y117.199 E8.42835
G1 X103.336 Y103.255 E8.89212
G1 X103.336 Y103.211 E8.89359
G1 X103.347 Y102.469 E8.91827
G1 X103.395 Y101.965 E8.93511
G1 X103.521 Y101.476 E8.9519
G1 X103.722 Y101.012 E8.96872
G1 X103.995 Y100.586 E8.98555
G1 X104.33 Y100.208 E9.00235
G1 F1500 E8.00235
;MESH:d3a5e59c-b7a9-4180-bcfd-011cce4029df.stl
G0 F3600 X107.151 Y101.842
G0 X107.151 Y103.121
G0 X109.763 Y106.121
G0 X109.778 Y106.219
;TYPE:WALL-INNER
G1 F1500 E9.00235
G1 X109.311 Y106.413 E9.01917
G1 X108.968 Y106.742 E9.03498
G1 X108.772 Y107.181 E9.05097
G1 X108.754 Y107.657 E9.06681
G1 X108.912 Y108.105 E9.08261
G1 X109.227 Y108.464 E9.0985
G1 X109.654 Y108.68 E9.11441
G1 X110.13 Y108.721 E9.1303
G1 X110.587 Y108.582 E9.14619
G1 X110.959 Y108.285 E9.16202
G1 X111.194 Y107.87 E9.17789
G1 X111.258 Y107.395 E9.19383
G1 X111.142 Y106.935 E9.2096
G1 X110.864 Y106.548 E9.22545
G1 X110.435 Y106.277 E9.24233
G1 X109.778 Y106.219 E9.26427
G0 F3600 X109.841 Y106.626
;TYPE:WALL-OUTER
G1 F1500 X109.534 Y106.754 E9.27533
G1 X109.301 Y106.977 E9.28606
G1 X109.169 Y107.273 E9.29684
G1 X109.157 Y107.596 E9.30759
G1 X109.264 Y107.899 E9.31828
G1 X109.477 Y108.142 E9.32902
G1 X109.766 Y108.288 E9.33979
G1 X110.088 Y108.316 E9.35054
G1 X110.397 Y108.222 E9.36128
G1 X110.649 Y108.021 E9.37201
G1 X110.808 Y107.74 E9.38274
G1 X110.851 Y107.418 E9.39355
G1 X110.773 Y107.106 E9.40425
G1 X110.585 Y106.845 E9.41494
G1 X110.303 Y106.667 E9.42604
G1 X109.841 Y106.626 E9.44146
G0 F3600 X109.657 Y106.703
G0 X109.488 Y106.296
G0 X109.466 Y106.241
G0 X108.734 Y107.172
G0 X109.765 Y111.201
G0 X109.78 Y111.299
;TYPE:WALL-INNER
G1 F1500 X109.309 Y111.494 E9.45842
G1 X108.97 Y111.822 E9.47411
G1 X108.772 Y112.257 E9.49
G1 X108.754 Y112.736 E9.50595
G1 X108.912 Y113.184 E9.52175
G1 X109.227 Y113.542 E9.53761
G1 X109.653 Y113.76 E9.55352
G1 X110.129 Y113.801 E9.56941
G1 X110.587 Y113.662 E9.58533
G1 X110.957 Y113.366 E9.60109
G1 X111.194 Y112.952 E9.61696
G1 X111.258 Y112.478 E9.63287
G1 X111.144 Y112.015 E9.64873
G1 X110.863 Y111.629 E9.66461
G1 X110.437 Y111.358 E9.6814
G1 X109.78 Y111.299 E9.70334
G0 F3600 X109.842 Y111.706
;TYPE:WALL-OUTER
G1 F1500 X109.533 Y111.834 E9.71446
G1 X109.303 Y112.057 E9.72512
G1 X109.169 Y112.351 E9.73586
G1 X109.157 Y112.675 E9.74665
G1 X109.264 Y112.978 E9.75734
G1 X109.477 Y113.221 E9.76808
G1 X109.765 Y113.368 E9.77884
G1 X110.087 Y113.396 E9.78959
G1 X110.397 Y113.302 E9.80036
G1 X110.648 Y113.101 E9.81106
G1 X110.808 Y112.821 E9.82178
G1 X110.851 Y112.5 E9.83255
G1 X110.774 Y112.187 E9.84328
G1 X110.584 Y111.926 E9.85401
G1 X110.304 Y111.748 E9.86505
G1 X109.842 Y111.706 E9.88048
G0 F3600 X109.657 Y111.782
G0 X109.489 Y111.375
G0 X109.467 Y111.32
G0 X108.824 Y112.053
G0 X107.534 Y116.806
G0 X107.534 Y116.906
;TYPE:WALL-INNER
G1 F1500 X107.321 Y116.907 E9.88756
G1 X107.121 Y116.907 E9.89421
G1 X107.121 Y116.707 E9.89852
G1 X107.137 Y103.107 E10.35086
G1 X112.863 Y103.107 E10.54131
G1 X112.876 Y115.846 E10.96501
G1 X112.878 Y116.708 E10.99368
G1 X112.878 Y116.907 E11.0003
G1 X112.679 Y116.907 E11.00458
G1 X107.534 Y116.906 E11.1757
G0 F3600 X107.534 Y117.306
;TYPE:WALL-OUTER
G1 F1500 X106.921 Y117.307 E11.19609
G1 X106.721 Y117.307 E11.20274
G1 X106.721 Y117.107 E11.20705
G1 X106.737 Y102.707 E11.686
G1 X113.263 Y102.707 E11.90305
G1 X113.276 Y115.846 E12.34006
G1 X113.279 Y117.107 E12.382
G1 X113.279 Y117.307 E12.38865
G1 X113.079 Y117.307 E12.39296
G1 X107.534 Y117.306 E12.57739
G0 F3600 X107.334 Y117.306
G0 X107.334 Y116.866
G0 X107.511 Y116.516
;TYPE:SKIN
G1 F1500 X107.527 Y103.497 E13.0104
G1 X112.473 Y103.497 E13.1749
G1 X112.486 Y115.846 E13.58563
G1 X112.488 Y116.517 E13.60795
G1 X107.534 Y116.516 E13.77272
G1 X107.511 Y116.516 E13.77349
G0 F3600 X108.983 Y113.856
G1 F1500 X109.544 Y114.142 E13.79443
G1 X110.17 Y114.196 E13.81533
G1 X110.772 Y114.013 E13.83626
G1 X111.259 Y113.624 E13.85699
G1 X111.57 Y113.079 E13.87786
G1 X111.654 Y112.457 E13.89873
G1 X111.505 Y111.847 E13.91962
G1 X111.134 Y111.34 E13.94051
G1 X110.566 Y110.978 E13.96292
G1 X109.719 Y110.902 E13.9912
G1 X109.091 Y111.162 E14.01381
G1 X108.646 Y111.594 E14.03444
G1 X108.386 Y112.165 E14.0553
G1 X108.362 Y112.796 E14.07631
G1 X108.569 Y113.385 E14.09707
G1 X108.983 Y113.856 E14.11793
G0 F3600 X108.715 Y112.742
G0 X109.545 Y109.062
G1 F1500 X110.171 Y109.116 E14.13883
G1 X110.772 Y108.933 E14.15972
G1 X111.261 Y108.543 E14.18052
G1 X111.57 Y107.997 E14.20139
G1 X111.654 Y107.372 E14.22237
G1 X111.502 Y106.768 E14.24308
G1 X111.137 Y106.259 E14.26391
G1 X110.564 Y105.897 E14.28646
G1 X109.717 Y105.822 E14.31474
G1 X109.094 Y106.081 E14.33718
G1 X108.643 Y106.514 E14.35797
G1 X108.386 Y107.091 E14.37898
G1 X108.362 Y107.717 E14.39982
G1 X108.569 Y108.306 E14.42058
G1 X108.983 Y108.778 E14.44146
G1 X109.545 Y109.062 E14.46241
G0 F3600 X110.605 Y108.617
G0 X111.184 Y107.964
G0 X112.292 Y103.807
G1 F1500 X112.162 Y103.677 E14.46852
G0 F3600 X111.597 Y103.677
G1 F1500 X112.293 Y104.373 E14.50126
G0 F3600 X112.293 Y104.939
G1 F1500 X111.031 Y103.677 E14.56062
G0 F3600 X110.465 Y103.677
G1 F1500 X112.294 Y105.505 E14.64663
G0 F3600 X112.294 Y106.072
G1 F1500 X109.899 Y103.677 E14.75928
G0 F3600 X109.334 Y103.677
G1 F1500 X112.295 Y106.638 E14.89856
G0 F3600 X112.296 Y107.205
G1 F1500 X111.377 Y106.285 E14.94181
G0 F3600 X111.139 Y106.048
G1 F1500 X108.768 Y103.677 E15.05333
G0 F3600 X108.202 Y103.677
G1 F1500 X110.21 Y105.684 E15.14776
G0 F3600 X109.624 Y105.664
G1 F1500 X107.705 Y103.745 E15.23802
G0 F3600 X107.705 Y104.31
G1 F1500 X109.224 Y105.83 E15.3095
G0 F3600 X108.871 Y106.043
G1 F1500 X107.705 Y104.876 E15.36436
G0 F3600 X107.704 Y105.441
G1 F1500 X108.582 Y106.319 E15.40566
G0 F3600 X108.372 Y106.675
G1 F1500 X107.703 Y106.006 E15.43713
G0 F3600 X107.702 Y106.571
G1 F1500 X108.206 Y107.075 E15.46084
G0 F3600 X107.702 Y107.136
G1 F1500 X108.185 Y107.619 E15.48356
G0 F3600 X107.701 Y107.701
G1 F1500 X108.485 Y108.485 E15.52043
G0 F3600 X108.974 Y108.974
G1 F1500 X111.116 Y111.116 E15.62119
G0 F3600 X111.399 Y111.399
G1 F1500 X112.301 Y112.301 E15.66361
G0 F3600 X111.823 Y112.388
G1 F1500 X112.302 Y112.868 E15.68617
G0 F3600 X111.773 Y112.905
G1 F1500 X112.303 Y113.434 E15.71107
G0 F3600 X112.304 Y114.001
G1 F1500 X111.633 Y113.33 E15.74264
G0 F3600 X111.427 Y113.69
G1 F1500 X112.304 Y114.567 E15.78389
G0 F3600 X112.304 Y115.133
G1 F1500 X111.128 Y113.957 E15.8392
G0 F3600 X110.798 Y114.192
G1 F1500 X112.305 Y115.699 E15.91009
G0 F3600 X112.306 Y116.266
G1 F1500 X110.365 Y114.325 E16.00139
G0 F3600 X109.82 Y114.346
G1 F1500 X111.809 Y116.335 E16.09494
G0 F3600 X111.244 Y116.335
G1 F1500 X108.948 Y114.039 E16.20294
G0 F3600 X108.588 Y113.679
G1 F1500 X107.695 Y112.786 E16.24494
G0 F3600 X108.185 Y112.71
G1 F1500 X107.695 Y112.221 E16.26797
G0 F3600 X108.206 Y112.166
G1 F1500 X107.696 Y111.656 E16.29196
G0 F3600 X107.697 Y111.091
G1 F1500 X108.37 Y111.764 E16.32361
G0 F3600 X108.578 Y111.406
G1 F1500 X107.698 Y110.526 E16.365
G0 F3600 X107.698 Y109.961
G1 F1500 X108.865 Y111.128 E16.4199
G0 F3600 X109.216 Y110.913
G1 F1500 X107.699 Y109.396 E16.49125
G0 F3600 X107.7 Y108.831
G1 F1500 X109.615 Y110.747 E16.58135
G0 F3600 X110.196 Y110.762
G1 F1500 X107.7 Y108.266 E16.69875
G1 X107.63 Y108.196
G0 F3600 X109.833 Y109.267
G1 F1500 X112.301 Y111.735 E16.81484
G0 F3600 X112.3 Y111.169
G1 F1500 X110.374 Y109.243 E16.90544
G0 F3600 X110.807 Y109.11
G1 F1500 X112.299 Y110.602 E16.97561
G0 F3600 X112.299 Y110.036
G1 F1500 X111.135 Y108.873 E17.03034
G0 F3600 X111.432 Y108.603
G1 F1500 X112.299 Y109.47 E17.07112
G0 F3600 X112.298 Y108.904
G1 F1500 X111.636 Y108.242 E17.10226
G0 F3600 X111.775 Y107.815
G1 F1500 X112.297 Y108.337 E17.12681
G0 F3600 X112.297 Y107.771
G1 F1500 X111.819 Y107.294 E17.14927
G0 F3600 X107.694 Y113.351
G1 F1500 X110.678 Y116.335 E17.28963
G0 F3600 X110.112 Y116.335
G1 F1500 X107.694 Y113.917 E17.40337
G0 F3600 X107.693 Y114.482
G1 F1500 X109.547 Y116.335 E17.49055
G0 F3600 X108.981 Y116.335
G1 F1500 X107.693 Y115.046 E17.55116
G0 F3600 X107.692 Y115.611
G1 F1500 X108.415 Y116.335 E17.58519
G0 F3600 X107.85 Y116.335
G1 F1500 X107.691 Y116.176 E17.59267
;MESH:NONMESH
G0 F600 X107.691 Y116.176 Z0.3
G0 F3600 X108.734 Y107.172
G0 X109.725 Y106.133
G0 X109.761 Y106.223
;TIME_ELAPSED:27.377564
;LAYER:1
M140 S55
;TYPE:WALL-INNER
;MESH:d3a5e59c-b7a9-4180-bcfd-011cce4029df.stl
G1 F2250 X109.294 Y106.423 E17.60112
G1 X108.959 Y106.759 E17.60901
