;FLAVOR:Marlin
;TIME:2981
;Filament used: 0m, 1.53171m
;Layer height: 0.1
;MINX:59.847
;MINY:94.8
;MINZ:0.3
;MAXX:160.121
;MAXY:125.2
;MAXZ:7
;Generated with Cura_SteamEngine 4.4.1
T1
M140 S65
M105
M190 S65
M104 S200
M105
M109 S200
M82 ;absolute extrusion mode
G28 ;Home
G1 Z15.0 F6000 ;Move the platform down 15mm
;Prime the extruder
G92 E0
G1 F200 E3
G92 E0
G92 E0
t1
G92 E0
G1 F1500 E-1
;LAYER_COUNT:68
;LAYER:0
M107
G0 F3600 X61.688 Y95.273 Z0.3
;TYPE:SKIRT
G1 F1500 E0
G1 F1800 X62.173 Y95.045 E0.02674
G1 X62.687 Y94.892 E0.05349
G1 X63.355 Y94.81 E0.08707
G1 X63.676 Y94.801 E0.10309
G1 X63.777 Y94.8 E0.10813
G1 X111.682 Y94.8 E2.49812
G1 X112.379 Y94.81 E2.5329
G1 X113.074 Y94.888 E2.56779
G1 X113.676 Y95.016 E2.59849
G1 X116.401 Y95.562 E2.73715
G1 X119.052 Y96.015 E2.87132
G1 X121.759 Y96.4 E3.00773
G1 X124.476 Y96.709 E3.14416
G1 X127.191 Y96.939 E3.2801
G1 X129.889 Y97.092 E3.41492
G1 X132.65 Y97.169 E3.55272
G1 X135.345 Y97.169 E3.68717
G1 X138.112 Y97.09 E3.82527
G1 X140.804 Y96.937 E3.95979
G1 X143.522 Y96.706 E4.09589
G1 X146.236 Y96.397 E4.23216
G1 X148.914 Y96.015 E4.36712
G1 X150.34 Y95.762 E4.43938
G1 X150.396 Y95.753 E4.4422
G1 X151.778 Y95.53 E4.51204
G1 X152.312 Y95.484 E4.53878
G1 X152.847 Y95.518 E4.56553
G1 X153.371 Y95.632 E4.59228
G1 X153.988 Y95.878 E4.62542
G1 X154.458 Y96.118 E4.65175
G1 X154.514 Y96.147 E4.6549
G1 X157.76 Y97.877 E4.83841
G1 X157.822 Y97.911 E4.84193
G1 X158.277 Y98.165 E4.86793
G1 X158.724 Y98.46 E4.89465
G1 X159.123 Y98.819 E4.92143
G1 X159.464 Y99.233 E4.94819
G1 X159.739 Y99.693 E4.97492
G1 X159.944 Y100.189 E5.0017
G1 X160.072 Y100.71 E5.02847
G1 X160.121 Y101.244 E5.05522
G1 X160.091 Y101.779 E5.08195
G1 X159.981 Y102.304 E5.10871
G1 X159.758 Y102.886 E5.13981
G1 X159.442 Y103.534 E5.17578
G1 X159.364 Y103.685 E5.18426
G1 X159.099 Y104.169 E5.21179
G1 X159.048 Y104.259 E5.21695
G1 X158.822 Y104.645 E5.23926
G1 X158.723 Y104.804 E5.24861
G1 X158.109 Y105.738 E5.30437
G1 X158.034 Y105.848 E5.31101
G1 X157.582 Y106.483 E5.3499
G1 X157.51 Y106.58 E5.35593
G1 X157.08 Y107.143 E5.39127
G1 X157.009 Y107.233 E5.39699
G1 X156.59 Y107.747 E5.43007
G1 X156.51 Y107.842 E5.43627
G1 X155.578 Y108.908 E5.50691
G1 X155.483 Y109.012 E5.51394
G1 X154.488 Y110.064 E5.58618
G1 X154.402 Y110.152 E5.59232
G1 X153.941 Y110.607 E5.62464
G1 X153.872 Y110.673 E5.6294
G1 X153.153 Y111.346 E5.67853
G1 X153.088 Y111.406 E5.68295
G1 X152.831 Y111.635 E5.70012
G1 X152.773 Y111.685 E5.70394
G1 X151.981 Y112.361 E5.75589
G1 X151.903 Y112.426 E5.76095
G1 X151.234 Y112.965 E5.80382
G1 X151.17 Y113.015 E5.80787
G1 X150.962 Y113.175 E5.82096
G1 X150.889 Y113.23 E5.82552
G1 X149.972 Y113.899 E5.88215
G1 X149.888 Y113.959 E5.8873
G1 X149.387 Y114.303 E5.91762
G1 X149.298 Y114.362 E5.92295
G1 X148.385 Y114.95 E5.97713
G1 X148.291 Y115.008 E5.98264
G1 X147.694 Y115.367 E6.01739
G1 X147.612 Y115.415 E6.02213
G1 X147.096 Y115.707 E6.05171
G1 X147.017 Y115.75 E6.0562
G1 X146.269 Y116.149 E6.09849
G1 X146.19 Y116.19 E6.10293
G1 X145.668 Y116.452 E6.13207
G1 X145.606 Y116.483 E6.13553
G1 X145.104 Y116.723 E6.16329
G1 X145.015 Y116.764 E6.16818
G1 X144.188 Y117.132 E6.21334
G1 X144.085 Y117.176 E6.21893
G1 X142.89 Y117.664 E6.28333
G1 X142.77 Y117.71 E6.28974
G1 X141.779 Y118.074 E6.34241
G1 X141.672 Y118.112 E6.34807
G1 X140.045 Y118.652 E6.4336
G1 X137.463 Y119.55 E6.56998
G1 X134.919 Y120.515 E6.70573
G1 X132.409 Y121.55 E6.84118
G1 X129.912 Y122.663 E6.97757
G1 X127.445 Y123.847 E7.11409
G1 X125.598 Y124.788 E7.21751
G1 X125.104 Y124.995 E7.24423
G1 X124.584 Y125.126 E7.27098
G1 X124.04 Y125.179 E7.29825
G1 X123.096 Y125.199 E7.34536
G1 X123.02 Y125.2 E7.34915
G1 X64.102 Y125.2 E10.28858
G1 X63.404 Y125.19 E10.32341
G1 X62.87 Y125.142 E10.35016
G1 X62.349 Y125.016 E10.3769
G1 X61.852 Y124.813 E10.40369
G1 X61.391 Y124.539 E10.43044
G1 X60.976 Y124.2 E10.45717
G1 X60.616 Y123.802 E10.48395
G1 X60.319 Y123.356 E10.51068
G1 X60.091 Y122.87 E10.53746
G1 X59.939 Y122.356 E10.56421
G1 X59.857 Y121.688 E10.59778
G1 X59.848 Y121.356 E10.61435
G1 X59.847 Y121.258 E10.61924
G1 X59.847 Y99.025 E11.72845
G1 X59.856 Y98.36 E11.76163
G1 X59.904 Y97.826 E11.78838
G1 X60.03 Y97.305 E11.81512
G1 X60.232 Y96.808 E11.84189
G1 X60.505 Y96.347 E11.86862
G1 X60.844 Y95.931 E11.89539
G1 X61.241 Y95.571 E11.92213
G1 X61.688 Y95.273 E11.94893
G0 F3600 X62.064 Y95.528
G1 F1800 X62.535 Y95.344 E11.97416
G1 X63.029 Y95.238 E11.99936
G1 X63.366 Y95.21 E12.01623
G1 X63.687 Y95.201 E12.03225
G1 X63.777 Y95.2 E12.03675
G1 X111.676 Y95.2 E14.42644
G1 X112.373 Y95.21 E14.46121
G1 X112.991 Y95.28 E14.49224
G1 X113.574 Y95.404 E14.52198
G1 X113.574 Y95.403 E14.52203
G1 X116.326 Y95.955 E14.66206
G1 X118.999 Y96.412 E14.79735
G1 X121.69 Y96.795 E14.93296
G1 X124.43 Y97.106 E15.07054
G1 X127.173 Y97.338 E15.20787
G1 X129.89 Y97.492 E15.34364
G1 X132.638 Y97.569 E15.4808
G1 X135.356 Y97.569 E15.6164
G1 X138.112 Y97.49 E15.75395
G1 X140.86 Y97.334 E15.89127
G1 X143.565 Y97.104 E16.02671
G1 X146.271 Y96.796 E16.16259
G1 X148.98 Y96.41 E16.2991
G1 X150.41 Y96.156 E16.37156
G1 X150.459 Y96.148 E16.37404
G1 X151.841 Y95.925 E16.44388
G1 X152.345 Y95.884 E16.46911
G1 X152.849 Y95.923 E16.49433
G1 X153.341 Y96.041 E16.51957
G1 X153.806 Y96.234 E16.54469
G1 X154.276 Y96.474 E16.57102
G1 X154.326 Y96.5 E16.57383
G1 X157.572 Y98.23 E16.75734
G1 X157.627 Y98.26 E16.76046
G1 X158.082 Y98.514 E16.78646
G1 X158.502 Y98.794 E16.81164
G1 X158.874 Y99.138 E16.83692
G1 X159.186 Y99.535 E16.86211
G1 X159.432 Y99.977 E16.88735
G1 X159.605 Y100.452 E16.91257
G1 X159.702 Y100.948 E16.93778
G1 X159.719 Y101.453 E16.96299
G1 X159.656 Y101.955 E16.98823
G1 X159.515 Y102.441 E17.01348
G1 X159.398 Y102.711 E17.02816
G1 X159.082 Y103.359 E17.06413
G1 X159.013 Y103.493 E17.07165
G1 X158.748 Y103.977 E17.09918
G1 X158.702 Y104.057 E17.10378
G1 X158.476 Y104.443 E17.1261
G1 X158.389 Y104.584 E17.13436
G1 X157.775 Y105.518 E17.19013
G1 X157.708 Y105.616 E17.19605
G1 X157.256 Y106.251 E17.23494
G1 X157.192 Y106.337 E17.24028
G1 X156.762 Y106.9 E17.27563
G1 X156.699 Y106.98 E17.28071
G1 X156.28 Y107.494 E17.31379
G1 X156.209 Y107.578 E17.31928
G1 X155.277 Y108.644 E17.38992
G1 X155.193 Y108.737 E17.39617
G1 X154.198 Y109.789 E17.46842
G1 X154.121 Y109.868 E17.47392
G1 X153.66 Y110.323 E17.50624
G1 X153.599 Y110.381 E17.51043
G1 X152.88 Y111.054 E17.55957
G1 X152.822 Y111.107 E17.56349
G1 X152.565 Y111.336 E17.58066
G1 X152.513 Y111.381 E17.58409
G1 X151.721 Y112.057 E17.63604
G1 X151.652 Y112.115 E17.64054
G1 X150.983 Y112.654 E17.6834
G1 X150.926 Y112.698 E17.68699
G1 X150.718 Y112.858 E17.70008
G1 X150.653 Y112.907 E17.70415
G1 X149.736 Y113.576 E17.76078
G1 X149.661 Y113.629 E17.76536
G1 X149.16 Y113.973 E17.79568
G1 X149.082 Y114.025 E17.80035
G1 X148.169 Y114.613 E17.85453
G1 X148.085 Y114.665 E17.85946
G1 X147.488 Y115.024 E17.89422
G1 X147.415 Y115.067 E17.89844
G1 X146.899 Y115.359 E17.92802
G1 X146.829 Y115.397 E17.932
G1 X146.081 Y115.796 E17.97429
G1 X146.01 Y115.833 E17.97829
G1 X145.488 Y116.095 E18.00743
G1 X145.433 Y116.122 E18.01048
G1 X144.931 Y116.362 E18.03824
G1 X144.852 Y116.399 E18.04259
G1 X144.025 Y116.767 E18.08775
G1 X143.934 Y116.805 E18.09267
G1 X142.739 Y117.293 E18.15707
G1 X142.632 Y117.335 E18.16281
G1 X141.641 Y117.699 E18.21548
G1 X141.546 Y117.732 E18.2205
G1 X139.919 Y118.272 E18.30602
G1 X137.35 Y119.165 E18.44171
G1 X134.761 Y120.147 E18.57986
G1 X132.26 Y121.178 E18.71482
G1 X129.726 Y122.309 E18.85326
G1 X127.269 Y123.487 E18.9892
G1 X125.417 Y124.431 E19.09291
G1 X124.95 Y124.624 E19.11812
G1 X124.458 Y124.742 E19.14336
G1 X124.032 Y124.779 E19.16469
G1 X123.088 Y124.799 E19.2118
G1 X123.02 Y124.8 E19.21519
G1 X64.108 Y124.8 E22.15432
G1 X63.41 Y124.79 E22.18915
G1 X62.907 Y124.743 E22.21436
G1 X62.417 Y124.617 E22.2396
G1 X61.953 Y124.415 E22.26484
G1 X61.527 Y124.143 E22.29006
G1 X61.149 Y123.808 E22.31526
G1 X60.829 Y123.417 E22.34047
G1 X60.574 Y122.98 E22.36571
G1 X60.391 Y122.509 E22.39092
G1 X60.284 Y122.015 E22.41614
G1 X60.257 Y121.677 E22.43305
G1 X60.248 Y121.345 E22.44962
G1 X60.247 Y121.258 E22.45396
G1 X60.247 Y99.031 E23.56287
G1 X60.256 Y98.366 E23.59605
G1 X60.303 Y97.862 E23.62131
G1 X60.429 Y97.373 E23.6465
G1 X60.63 Y96.909 E23.67173
G1 X60.901 Y96.482 E23.69696
G1 X61.236 Y96.104 E23.72216
G1 X61.627 Y95.783 E23.7474
G1 X62.064 Y95.528 E23.77264
G1 F1500 E22.77264
;MESH:ecbc3440-777f-4746-be0b-7507df108d72.stl
G0 F3600 X64.061 Y97.735
G0 X64.061 Y99.014
G0 X126.544 Y115.214
G0 X126.594 Y115.3
;TYPE:WALL-INNER
G1 F1500 E23.77264
G1 F1800 X126.097 Y116.19 E23.82349
G1 X123.583 Y121 E24.09427
G1 X64.047 Y121 E27.06453
G1 X64.047 Y99 E28.16211
G1 X112.119 Y99 E30.56044
G1 X128.207 Y112.5 E31.60822
G1 X135.141 Y112.5 E31.95416
G1 X152.404 Y99.781 E33.02393
G1 X155.734 Y101.556 E33.21219
G1 X155.742 Y101.56 E33.21264
G1 X155.564 Y101.894 E33.23152
G1 X155.56 Y101.902 E33.23197
G1 X155.25 Y102.451 E33.26342
G1 X154.869 Y103.057 E33.29914
G1 X154.457 Y103.657 E33.33545
G1 X154 Y104.275 E33.37379
G1 X153.503 Y104.906 E33.41387
G1 X152.981 Y105.528 E33.45438
G1 X151.912 Y106.702 E33.53359
G1 X151.288 Y107.336 E33.57797
G1 X150.67 Y107.931 E33.62077
G1 X150.221 Y108.339 E33.65104
G1 X149.59 Y108.893 E33.69293
G1 X148.953 Y109.421 E33.73421
G1 X148.547 Y109.74 E33.75997
G1 X147.914 Y110.216 E33.79948
G1 X147.282 Y110.663 E33.8381
G1 X146.525 Y111.168 E33.8835
G1 X145.917 Y111.545 E33.91919
G1 X145.253 Y111.933 E33.95756
G1 X144.691 Y112.243 E33.98958
G1 X144.127 Y112.533 E34.02122
G1 X143.452 Y112.863 E34.05871
G1 X142.915 Y113.113 E34.08826
G1 X141.866 Y113.561 E34.14517
G1 X140.844 Y113.958 E34.19987
G1 X139.859 Y114.302 E34.25192
G1 X138.934 Y114.592 E34.30028
G1 X138.077 Y114.833 E34.3447
G1 X137.295 Y115.025 E34.38487
G1 X136.561 Y115.174 E34.42224
G1 X135.928 Y115.266 E34.45415
G1 X135.429 Y115.299 E34.4791
G1 X134.401 Y115.3 E34.53039
G1 X126.594 Y115.3 E34.91988
G0 F3600 X126.829 Y115.7
;TYPE:WALL-OUTER
G1 F1800 X126.449 Y116.38 E34.95874
G1 X123.826 Y121.4 E35.24132
G1 X63.647 Y121.4 E38.24366
G1 X63.647 Y98.6 E39.38116
G1 X112.264 Y98.6 E41.80667
G1 X128.353 Y112.1 E42.85449
G1 X135.01 Y112.1 E43.18661
G1 X152.37 Y99.31 E44.26238
G1 X156.283 Y101.395 E44.48358
G1 X155.917 Y102.082 E44.52242
G1 X155.589 Y102.664 E44.55575
G1 X155.208 Y103.27 E44.59146
G1 X154.779 Y103.895 E44.62928
G1 X154.322 Y104.513 E44.66763
G1 X153.817 Y105.154 E44.70834
G1 X153.277 Y105.797 E44.75023
G1 X152.197 Y106.983 E44.83026
G1 X151.573 Y107.617 E44.87464
G1 X150.939 Y108.227 E44.91853
G1 X150.485 Y108.64 E44.94915
G1 X149.854 Y109.194 E44.99105
G1 X149.208 Y109.729 E45.03289
G1 X148.787 Y110.06 E45.05961
G1 X148.145 Y110.543 E45.09969
G1 X147.513 Y110.99 E45.13831
G1 X146.743 Y111.504 E45.1845
G1 X146.128 Y111.885 E45.22059
G1 X145.446 Y112.283 E45.25999
G1 X144.874 Y112.599 E45.29259
G1 X144.31 Y112.889 E45.32423
G1 X143.621 Y113.226 E45.3625
G1 X143.084 Y113.476 E45.39205
G1 X142.011 Y113.934 E45.45025
G1 X140.976 Y114.336 E45.50565
G1 X139.984 Y114.682 E45.55806
G1 X139.054 Y114.974 E45.60669
G1 X138.184 Y115.218 E45.65177
G1 X137.375 Y115.417 E45.69334
G1 X136.627 Y115.569 E45.73142
G1 X135.975 Y115.664 E45.76429
G1 X135.44 Y115.699 E45.79104
G1 X134.401 Y115.7 E45.84287
G1 X126.829 Y115.7 E46.22064
G0 F3600 X126.732 Y115.874
G0 X126.348 Y115.659
G0 X125.754 Y116.005
;TYPE:SKIN
G1 F1800 X123.347 Y120.61 E46.47988
G1 X64.437 Y120.61 E49.41891
G1 X64.437 Y99.39 E50.47758
G1 X111.976 Y99.39 E52.84931
G1 X128.065 Y112.89 E53.89713
G1 X135.269 Y112.89 E54.25654
G1 X152.438 Y100.241 E55.32047
G1 X155.214 Y101.72 E55.47739
G1 X154.92 Y102.244 E55.50737
G1 X154.547 Y102.836 E55.54228
G1 X154.139 Y103.43 E55.57823
G1 X153.694 Y104.033 E55.61562
G1 X153.204 Y104.655 E55.65512
G1 X152.692 Y105.265 E55.69486
G1 X151.628 Y106.434 E55.77372
G1 X151.017 Y107.055 E55.81718
G1 X150.407 Y107.642 E55.85942
G1 X149.958 Y108.05 E55.88968
G1 X149.337 Y108.596 E55.93094
G1 X148.712 Y109.115 E55.97147
G1 X148.313 Y109.428 E55.99677
G1 X147.684 Y109.901 E56.03603
G1 X147.061 Y110.342 E56.07411
G1 X146.32 Y110.836 E56.11854
G1 X145.716 Y111.21 E56.15399
G1 X145.056 Y111.596 E56.19213
G1 X144.507 Y111.899 E56.22342
G1 X143.955 Y112.182 E56.25436
G1 X143.214 Y112.545 E56.29553
G1 X142.797 Y112.739 E56.31848
G1 X141.699 Y113.208 E56.37804
G1 X140.745 Y113.579 E56.42911
G1 X139.742 Y113.93 E56.48213
G1 X138.829 Y114.216 E56.52986
G1 X137.972 Y114.457 E56.57427
G1 X137.217 Y114.643 E56.61307
G1 X136.497 Y114.79 E56.64973
G1 X135.898 Y114.876 E56.67992
G1 X135.403 Y114.909 E56.70467
G1 X134.401 Y114.91 E56.75466
G1 X126.365 Y114.91 E57.15558
G1 X125.754 Y116.005 E57.21814
G0 F3600 X126.574 Y115.266
G0 X135.153 Y112.538
G0 X154.763 Y102.154
G1 F1800 X153.758 Y101.149 E57.28904
G1 X153.688 Y101.079
G0 F3600 X152.546 Y100.503
G1 F1800 X154.544 Y102.501 E57.43001
G0 F3600 X154.322 Y102.845
G1 F1800 X152.152 Y100.675 E57.58312
G0 F3600 X151.826 Y100.914
G1 F1800 X154.091 Y103.179 E57.74293
G0 F3600 X153.855 Y103.509
G1 F1800 X151.5 Y101.154 E57.90908
G0 F3600 X151.175 Y101.394
G1 F1800 X153.615 Y103.835 E58.08128
G0 F3600 X153.369 Y104.154
G1 F1800 X150.849 Y101.634 E58.25907
G0 F3600 X150.523 Y101.874
G1 F1800 X153.119 Y104.47 E58.44224
G0 F3600 X152.863 Y104.78
G1 F1800 X150.197 Y102.114 E58.63034
G0 F3600 X149.871 Y102.354
G1 F1800 X152.604 Y105.087 E58.82317
G0 F3600 X152.337 Y105.385
G1 F1800 X149.546 Y102.594 E59.02009
G0 F3600 X149.22 Y102.834
G1 F1800 X152.068 Y105.682 E59.22103
G0 F3600 X151.798 Y105.978
G1 F1800 X148.894 Y103.074 E59.42592
G0 F3600 X148.569 Y103.314
G1 F1800 X151.529 Y106.274 E59.63476
G0 F3600 X151.25 Y106.56
G1 F1800 X148.243 Y103.554 E59.84689
G0 F3600 X147.917 Y103.794
G1 F1800 X150.97 Y106.846 E60.06226
G0 F3600 X150.683 Y107.125
G1 F1800 X147.592 Y104.034 E60.28035
G0 F3600 X147.266 Y104.274
G1 F1800 X150.394 Y107.402 E60.50104
G0 F3600 X150.101 Y107.674
G1 F1800 X146.94 Y104.513 E60.72407
G0 F3600 X146.615 Y104.754
G1 F1800 X149.804 Y107.943 E60.94907
G0 F3600 X149.502 Y108.207
G1 F1800 X146.289 Y104.994 E61.17576
G0 F3600 X145.963 Y105.234
G1 F1800 X149.201 Y108.472 E61.40422
G0 F3600 X148.892 Y108.728
G1 F1800 X145.637 Y105.474 E61.63385
G0 F3600 X145.311 Y105.713
G1 F1800 X148.584 Y108.986 E61.86477
G0 F3600 X148.266 Y109.234
G1 F1800 X144.986 Y105.954 E62.0962
G0 F3600 X144.66 Y106.194
G1 F1800 X147.945 Y109.478 E62.32793
G0 F3600 X147.621 Y109.721
G1 F1800 X144.334 Y106.433 E62.55989
G0 F3600 X144.009 Y106.674
G1 F1800 X147.291 Y109.956 E62.79145
G0 F3600 X146.96 Y110.191
G1 F1800 X143.683 Y106.913 E63.02269
G0 F3600 X143.357 Y107.153
G1 F1800 X146.621 Y110.417 E63.25299
G0 F3600 X146.282 Y110.644
G1 F1800 X143.032 Y107.393 E63.48233
G0 F3600 X142.706 Y107.633
G1 F1800 X145.934 Y110.862 E63.71011
G0 F3600 X145.584 Y111.077
G1 F1800 X142.38 Y107.874 E63.93614
G0 F3600 X142.054 Y108.113
G1 F1800 X145.227 Y111.285 E64.15998
G0 F3600 X144.867 Y111.492
G1 F1800 X141.728 Y108.353 E64.38145
G0 F3600 X141.403 Y108.593
G1 F1800 X144.503 Y111.693 E64.60017
G0 F3600 X144.131 Y111.887
G1 F1800 X141.077 Y108.833 E64.81565
G0 F3600 X140.751 Y109.073
G1 F1800 X143.756 Y112.077 E65.02763
G0 F3600 X143.376 Y112.263
G1 F1800 X140.426 Y109.313 E65.23577
G0 F3600 X140.1 Y109.553
G1 F1800 X142.995 Y112.448 E65.44003
G0 F3600 X142.605 Y112.623
G1 F1800 X139.774 Y109.793 E65.63973
G0 F3600 X139.449 Y110.033
G1 F1800 X142.208 Y112.792 E65.8344
G0 F3600 X141.812 Y112.962
G1 F1800 X139.123 Y110.273 E66.02412
G0 F3600 X138.797 Y110.513
G1 F1800 X141.411 Y113.127 E66.20855
G0 F3600 X141.004 Y113.285
G1 F1800 X138.472 Y110.753 E66.3872
G0 F3600 X138.146 Y110.993
G1 F1800 X140.593 Y113.44 E66.55985
G0 F3600 X140.174 Y113.587
G1 F1800 X137.82 Y111.233 E66.72593
G0 F3600 X137.494 Y111.473
G1 F1800 X139.756 Y113.734 E66.8855
G0 F3600 X139.326 Y113.871
G1 F1800 X137.168 Y111.712 E67.03779
G0 F3600 X136.843 Y111.953
G1 F1800 X138.895 Y114.005 E67.18257
G0 F3600 X138.456 Y114.131
G1 F1800 X136.517 Y112.193 E67.31934
G0 F3600 X136.191 Y112.432
G1 F1800 X138.015 Y114.256 E67.44803
G0 F3600 X137.564 Y114.37
G1 F1800 X135.866 Y112.673 E67.5678
