;FLAVOR:Marlin
;TIME:932
;Filament used: 0m, 0.996209m
;Layer height: 0.3
;MINX:60.915
;MINY:92.3
;MINZ:0.3
;MAXX:159.057
;MAXY:127.7
;MAXZ:6.9
;Generated with Cura_SteamEngine 4.4.1
T1
M140 S55
M105
M190 S55
M104 S200
M105
M109 S200
M82 ;absolute extrusion mode
G28 ;Home
G1 Z15.0 F6000 ;Move the platform down 15mm
;Prime the extruder
G92 E0
G1 F200 E3
G92 E0
G92 E0
t1
G92 E0
G1 F1500 E-1
;LAYER_COUNT:23
;LAYER:0
M106 S255
G0 F3600 X62.308 Y93.072 Z0.3
;TYPE:SKIRT
G1 F1500 E0
G1 X62.754 Y92.774 E0.01873
G1 X63.239 Y92.546 E0.03745
G1 X63.753 Y92.392 E0.05619
G1 X64.423 Y92.31 E0.07976
G1 X64.744 Y92.301 E0.09098
G1 X64.845 Y92.3 E0.0945
G1 X106.221 Y92.3 E1.53948
G1 X106.923 Y92.31 E1.564
G1 X107.457 Y92.358 E1.58273
G1 X107.979 Y92.484 E1.60148
G1 X108.491 Y92.695 E1.62082
G1 X109.731 Y93.319 E1.6693
G1 X112.099 Y94.473 E1.76129
G1 X114.581 Y95.598 E1.85646
G1 X117.077 Y96.647 E1.95101
G1 X119.671 Y97.652 E2.04817
G1 X122.182 Y98.54 E2.14118
G1 X124.815 Y99.391 E2.23782
G1 X127.404 Y100.149 E2.33203
G1 X130.057 Y100.843 E2.4278
G1 X132.712 Y101.458 E2.52297
G1 X135.392 Y102.002 E2.61847
G1 X138.082 Y102.466 E2.71381
G1 X140.771 Y102.853 E2.80868
G1 X143.44 Y103.16 E2.90251
G1 X146.203 Y103.399 E2.99936
G1 X148.929 Y103.557 E3.09472
G1 X151.624 Y103.638 E3.18888
G1 X154.36 Y103.642 E3.28443
G1 X154.713 Y103.633 E3.29676
G1 X154.782 Y103.632 E3.29917
G1 X155.442 Y103.628 E3.32222
G1 X155.977 Y103.665 E3.34095
G1 X156.501 Y103.781 E3.35969
G1 X157.001 Y103.973 E3.3784
G1 X157.468 Y104.237 E3.39713
G1 X157.89 Y104.568 E3.41586
G1 X158.258 Y104.958 E3.43459
G1 X158.564 Y105.398 E3.4533
G1 X158.802 Y105.879 E3.47205
G1 X158.965 Y106.39 E3.49078
G1 X159.051 Y106.92 E3.50953
G1 X159.057 Y107.456 E3.52825
G1 X158.983 Y107.987 E3.54697
G1 X158.831 Y108.501 E3.56569
G1 X158.605 Y108.987 E3.58441
G1 X158.327 Y109.41 E3.60209
G1 X158.154 Y109.637 E3.61205
G1 X158.086 Y109.724 E3.61591
G1 X157.543 Y110.393 E3.646
G1 X157.479 Y110.47 E3.6495
G1 X156.98 Y111.051 E3.67624
G1 X156.899 Y111.142 E3.6805
G1 X156.1 Y112.011 E3.72173
G1 X156.029 Y112.086 E3.72533
G1 X155.69 Y112.434 E3.7423
G1 X155.642 Y112.482 E3.74467
G1 X155.127 Y112.991 E3.76996
G1 X155.063 Y113.053 E3.77307
G1 X154.271 Y113.798 E3.81104
G1 X154.194 Y113.868 E3.81468
G1 X153.776 Y114.239 E3.83419
G1 X153.711 Y114.296 E3.83721
G1 X153.011 Y114.888 E3.86923
G1 X152.926 Y114.957 E3.87305
G1 X152.116 Y115.601 E3.90919
G1 X152.041 Y115.659 E3.9125
G1 X151.661 Y115.945 E3.92911
G1 X151.565 Y116.015 E3.93326
G1 X150.494 Y116.767 E3.97896
G1 X150.391 Y116.837 E3.98331
G1 X149.653 Y117.318 E4.01408
G1 X149.532 Y117.394 E4.01907
G1 X148.456 Y118.036 E4.06283
G1 X148.369 Y118.086 E4.06633
G1 X148.024 Y118.279 E4.08014
G1 X147.919 Y118.335 E4.08429
G1 X146.791 Y118.918 E4.12864
G1 X146.684 Y118.971 E4.13281
G1 X145.824 Y119.38 E4.16606
G1 X145.716 Y119.43 E4.17022
G1 X144.793 Y119.832 E4.20538
G1 X144.716 Y119.864 E4.20829
G1 X143.671 Y120.291 E4.24771
G1 X141.812 Y121.058 E4.31794
G1 X139.31 Y122.171 E4.41358
G1 X136.867 Y123.337 E4.50811
G1 X134.45 Y124.579 E4.60302
G1 X132.033 Y125.908 E4.69934
G1 X129.826 Y127.198 E4.78862
G1 X129.345 Y127.433 E4.80732
G1 X128.833 Y127.595 E4.82607
G1 X128.121 Y127.688 E4.85115
G1 X127.796 Y127.698 E4.8625
G1 X127.685 Y127.7 E4.86638
G1 X125.671 Y127.7 E4.93671
G1 X124.971 Y127.69 E4.96116
G1 X124.436 Y127.642 E4.97992
G1 X124.075 Y127.563 E4.99283
G1 X123.547 Y127.419 E5.01194
G1 X123.489 Y127.403 E5.01404
G1 X121.892 Y126.939 E5.07212
G1 X119.241 Y126.248 E5.16779
G1 X116.552 Y125.627 E5.26417
G1 X113.91 Y125.098 E5.35827
G1 X111.242 Y124.641 E5.4528
G1 X108.525 Y124.253 E5.54865
G1 X105.817 Y123.945 E5.64383
G1 X103.096 Y123.713 E5.73921
G1 X100.401 Y123.559 E5.83348
G1 X97.639 Y123.48 E5.92997
G1 X94.944 Y123.48 E6.02409
G1 X92.176 Y123.557 E6.1208
G1 X89.488 Y123.709 E6.21482
G1 X86.768 Y123.939 E6.31015
G1 X84.048 Y124.248 E6.40575
G1 X81.354 Y124.631 E6.50078
G1 X78.676 Y125.089 E6.59566
G1 X75.976 Y125.629 E6.69182
G1 X73.377 Y126.227 E6.78496
G1 X70.672 Y126.93 E6.88256
G1 X69.255 Y127.332 E6.934
G1 X68.531 Y127.543 E6.96034
G1 X68.007 Y127.654 E6.97905
G1 X67.662 Y127.684 E6.99114
G1 X67.323 Y127.697 E7.00299
G1 X67.185 Y127.7 E7.00781
G1 X65.176 Y127.7 E7.07797
G1 X64.478 Y127.691 E7.10235
G1 X63.943 Y127.644 E7.1211
G1 X63.422 Y127.518 E7.13982
G1 X62.925 Y127.316 E7.15856
G1 X62.464 Y127.043 E7.17727
G1 X62.048 Y126.704 E7.19601
G1 X61.687 Y126.308 E7.21472
G1 X61.389 Y125.862 E7.23346
G1 X61.161 Y125.376 E7.2522
G1 X61.008 Y124.862 E7.27093
G1 X60.925 Y124.188 E7.29465
G1 X60.916 Y123.855 E7.30628
G1 X60.915 Y123.758 E7.30967
G1 X60.915 Y96.551 E8.25982
G1 X60.924 Y95.862 E8.28389
G1 X60.971 Y95.328 E8.30261
G1 X61.097 Y94.806 E8.32136
G1 X61.299 Y94.31 E8.34007
G1 X61.572 Y93.848 E8.35881
G1 X61.911 Y93.433 E8.37752
G1 X62.308 Y93.072 E8.39626
G0 F3600 X62.694 Y93.284
G1 F1500 X63.13 Y93.028 E8.41392
G1 X63.601 Y92.845 E8.43156
G1 X64.095 Y92.738 E8.44922
G1 X64.434 Y92.71 E8.46109
G1 X64.755 Y92.701 E8.47231
G1 X64.845 Y92.7 E8.47545
G1 X106.216 Y92.7 E9.92026
G1 X106.918 Y92.71 E9.94478
G1 X107.421 Y92.757 E9.96242
G1 X107.911 Y92.883 E9.98009
G1 X108.311 Y93.052 E9.99525
G1 X109.592 Y93.697 E10.04534
G1 X111.894 Y94.819 E10.13477
G1 X114.44 Y95.973 E10.2324
G1 X116.914 Y97.012 E10.32611
G1 X119.531 Y98.027 E10.42413
G1 X122.074 Y98.926 E10.51833
G1 X124.685 Y99.77 E10.61416
G1 X127.296 Y100.534 E10.70917
G1 X129.971 Y101.234 E10.80573
G1 X132.621 Y101.848 E10.90073
G1 X135.31 Y102.394 E10.99655
G1 X138.029 Y102.862 E11.09291
G1 X140.705 Y103.247 E11.18732
G1 X143.431 Y103.561 E11.28315
G1 X146.144 Y103.796 E11.37825
G1 X148.894 Y103.955 E11.47445
G1 X151.647 Y104.038 E11.57064
G1 X154.37 Y104.042 E11.66574
G1 X154.723 Y104.033 E11.67807
G1 X154.785 Y104.032 E11.68023
G1 X155.445 Y104.028 E11.70328
G1 X155.949 Y104.065 E11.72093
G1 X156.441 Y104.181 E11.73859
G1 X156.909 Y104.373 E11.75625
G1 X157.34 Y104.636 E11.77388
G1 X157.725 Y104.964 E11.79155
G1 X158.054 Y105.348 E11.80921
G1 X158.317 Y105.779 E11.82684
G1 X158.51 Y106.247 E11.84452
G1 X158.626 Y106.739 E11.86217
G1 X158.664 Y107.243 E11.87982
G1 X158.622 Y107.747 E11.89749
G1 X158.501 Y108.238 E11.91515
G1 X158.304 Y108.703 E11.93278
G1 X158.009 Y109.168 E11.95201
G1 X157.836 Y109.395 E11.96198
G1 X157.776 Y109.472 E11.96539
G1 X157.233 Y110.141 E11.99548
G1 X157.176 Y110.209 E11.99858
G1 X156.677 Y110.79 E12.02533
G1 X156.605 Y110.871 E12.02911
G1 X155.806 Y111.74 E12.07034
G1 X155.742 Y111.807 E12.07357
G1 X155.403 Y112.155 E12.09054
G1 X155.36 Y112.198 E12.09266
G1 X154.845 Y112.707 E12.11795
G1 X154.789 Y112.762 E12.12069
G1 X153.997 Y113.507 E12.15867
G1 X153.928 Y113.569 E12.16191
G1 X153.51 Y113.94 E12.18142
G1 X153.452 Y113.99 E12.1841
G1 X152.752 Y114.582 E12.21611
G1 X152.677 Y114.644 E12.21951
G1 X151.867 Y115.288 E12.25565
G1 X151.8 Y115.34 E12.25861
G1 X151.42 Y115.626 E12.27522
G1 X151.335 Y115.688 E12.2789
G1 X150.264 Y116.44 E12.3246
G1 X150.172 Y116.502 E12.32847
G1 X149.434 Y116.983 E12.35924
G1 X149.327 Y117.05 E12.36365
G1 X148.251 Y117.692 E12.4074
G1 X148.173 Y117.737 E12.41055
G1 X147.828 Y117.93 E12.42436
G1 X147.735 Y117.98 E12.42804
G1 X146.607 Y118.563 E12.47239
G1 X146.512 Y118.61 E12.47609
G1 X145.652 Y119.019 E12.50935
G1 X145.556 Y119.063 E12.51303
G1 X144.633 Y119.465 E12.54819
G1 X144.565 Y119.494 E12.55077
G1 X143.507 Y119.926 E12.59068
G1 X141.659 Y120.688 E12.66049
G1 X139.14 Y121.808 E12.75677
G1 X136.69 Y122.978 E12.85159
G1 X134.268 Y124.223 E12.94669
G1 X131.862 Y125.546 E13.04258
G1 X129.625 Y126.853 E13.13306
G1 X129.169 Y127.073 E13.15074
G1 X128.685 Y127.218 E13.16839
G1 X128.108 Y127.288 E13.18869
G1 X127.783 Y127.298 E13.20004
G1 X127.685 Y127.3 E13.20346
G1 X125.676 Y127.3 E13.27362
G1 X124.976 Y127.29 E13.29807
G1 X124.473 Y127.243 E13.31572
G1 X124.18 Y127.177 E13.3262
G1 X123.652 Y127.033 E13.34532
G1 X123.6 Y127.019 E13.3472
G1 X121.99 Y126.551 E13.40575
G1 X119.327 Y125.857 E13.50186
G1 X116.655 Y125.24 E13.59763
G1 X113.984 Y124.706 E13.69275
G1 X111.294 Y124.245 E13.78807
G1 X108.555 Y123.853 E13.8847
G1 X105.86 Y123.546 E13.97942
G1 X103.152 Y123.316 E14.07434
G1 X100.401 Y123.159 E14.17057
G1 X97.65 Y123.08 E14.26668
G1 X94.932 Y123.08 E14.3616
G1 X92.18 Y123.157 E14.45775
G1 X89.465 Y123.31 E14.55271
G1 X86.725 Y123.542 E14.64874
G1 X83.984 Y123.853 E14.74508
G1 X81.296 Y124.235 E14.8399
G1 X78.608 Y124.695 E14.93514
G1 X75.914 Y125.234 E15.03108
G1 X73.251 Y125.846 E15.12651
G1 X70.602 Y126.535 E15.2221
G1 X69.121 Y126.955 E15.27586
G1 X69.121 Y126.954 E15.27589
G1 X68.419 Y127.159 E15.30143
G1 X67.924 Y127.262 E15.31909
G1 X67.647 Y127.285 E15.3288
G1 X67.308 Y127.298 E15.34065
G1 X67.185 Y127.3 E15.34494
G1 X65.181 Y127.3 E15.41493
G1 X64.483 Y127.291 E15.43931
G1 X63.979 Y127.244 E15.45698
G1 X63.489 Y127.119 E15.47465
G1 X63.025 Y126.918 E15.4923
G1 X62.599 Y126.647 E15.50994
G1 X62.22 Y126.312 E15.5276
G1 X61.899 Y125.921 E15.54527
G1 X61.644 Y125.485 E15.56291
G1 X61.46 Y125.014 E15.58057
G1 X61.353 Y124.52 E15.59822
G1 X61.325 Y124.177 E15.61024
G1 X61.316 Y123.844 E15.62187
G1 X61.315 Y123.758 E15.62488
G1 X61.315 Y96.556 E16.57486
G1 X61.324 Y95.867 E16.59892
G1 X61.371 Y95.364 E16.61656
G1 X61.496 Y94.874 E16.63422
G1 X61.697 Y94.41 E16.65188
G1 X61.968 Y93.983 E16.66954
G1 X62.303 Y93.605 E16.68718
G1 X62.694 Y93.284 E16.70485
G1 F1500 E15.70485
;MESH:e47bb85e-6530-402d-9f7a-3a2155b0d7aa.stl
G0 F3600 X64.929 Y95.235
G0 X64.929 Y96.314
G0 X125.615 Y115.2
;TYPE:WALL-INNER
G1 F1500 E16.70485
G1 X66.915 Y115.2 E18.75484
G1 X66.915 Y123.5 E19.0447
G1 X65.115 Y123.5 E19.10756
G1 X65.115 Y96.5 E20.05049
G1 X106.659 Y96.5 E21.50133
G1 X127.796 Y114.237 E22.46497
G1 X129.801 Y114.237 E22.53499
G1 X131.451 Y113.825 E22.59438
G1 X153.25 Y108.393 E23.37895
G1 X153.662 Y108.291 E23.39377
G1 X153.861 Y108.241 E23.40094
G1 X153.697 Y108.428 E23.40338
G1 X153.411 Y108.742 E23.41362
G1 X153.349 Y108.811 E23.41686
G1 X152.81 Y109.377 E23.44416
G1 X152.458 Y109.733 E23.46164
G1 X151.774 Y110.394 E23.49486
G1 X151.179 Y110.936 E23.52297
G1 X150.646 Y111.4 E23.54765
G1 X149.891 Y112.02 E23.58177
G1 X149.365 Y112.424 E23.60493
G1 X148.525 Y113.04 E23.64131
G1 X147.743 Y113.569 E23.67428
G1 X146.901 Y114.095 E23.70895
G1 X146.249 Y114.468 E23.73518
G1 X145.367 Y114.945 E23.7702
G1 X144.502 Y115.373 E23.80391
G1 X143.61 Y115.779 E23.83813
G1 X143.019 Y116.026 E23.8605
G1 X142.172 Y116.36 E23.8923
G1 X141.618 Y116.562 E23.91289
G1 X140.846 Y116.829 E23.94142
G1 X140.365 Y116.98 E23.95903
G1 X139.211 Y117.314 E24.00098
G1 X138.527 Y117.487 E24.02562
G1 X138.034 Y117.596 E24.04325
G1 X137.164 Y117.747 E24.07409
G1 X136.502 Y117.799 E24.09728
G1 X127.415 Y117.8 E24.41463
G1 X127.415 Y123.5 E24.61369
G1 X125.615 Y123.5 E24.67655
G1 X125.615 Y115.2 E24.96641
G0 F3600 X125.215 Y115.6
;TYPE:WALL-OUTER
G1 F1500 X67.315 Y115.6 E26.98846
G1 X67.315 Y123.9 E27.27833
G1 X64.715 Y123.9 E27.36913
G1 X64.715 Y96.1 E28.33999
G1 X106.804 Y96.1 E29.80987
G1 X127.942 Y113.837 E30.77353
G1 X129.752 Y113.837 E30.83674
G1 X131.354 Y113.437 E30.89441
G1 X154.385 Y107.698 E31.72332
G1 X154.864 Y107.579 E31.74055
G1 X154.964 Y107.554 E31.74415
G1 X154.884 Y107.655 E31.74518
G1 X154.567 Y108.034 E31.75584
G1 X154.393 Y108.242 E31.76531
G1 X153.998 Y108.692 E31.78622
G1 X153.639 Y109.087 E31.80486
G1 X153.1 Y109.653 E31.83216
G1 X152.736 Y110.021 E31.85023
G1 X152.052 Y110.682 E31.88345
G1 X151.442 Y111.238 E31.91228
G1 X150.909 Y111.702 E31.93696
G1 X150.135 Y112.337 E31.97192
G1 X149.602 Y112.747 E31.9954
G1 X148.762 Y113.363 E32.03178
G1 X147.955 Y113.908 E32.06579
G1 X147.1 Y114.442 E32.10099
G1 X146.439 Y114.82 E32.12759
G1 X145.557 Y115.297 E32.1626
G1 X144.668 Y115.737 E32.19725
G1 X143.776 Y116.143 E32.23147
G1 X143.166 Y116.398 E32.25456
G1 X142.309 Y116.736 E32.28673
G1 X141.755 Y116.938 E32.30733
G1 X140.966 Y117.211 E32.33649
G1 X140.485 Y117.362 E32.35409
G1 X139.31 Y117.701 E32.3968
G1 X138.622 Y117.876 E32.42159
G1 X138.12 Y117.987 E32.43955
G1 X137.21 Y118.145 E32.4718
G1 X136.52 Y118.199 E32.49597
G1 X127.815 Y118.2 E32.79998
G1 X127.815 Y123.9 E32.99904
G1 X125.215 Y123.9 E33.08984
G1 X125.215 Y115.6 E33.3797
G0 F3600 X125.015 Y115.6
G0 X125.015 Y115.16
G0 X126.005 Y114.81
;TYPE:SKIN
G1 F1500 X66.525 Y114.81 E35.45693
G1 X66.525 Y123.11 E35.74679
G1 X65.505 Y123.11 E35.78242
G1 X65.505 Y96.89 E36.6981
G1 X106.516 Y96.89 E38.13033
G1 X127.654 Y114.627 E39.09399
G1 X129.849 Y114.627 E39.17065
G1 X131.545 Y114.203 E39.2317
G1 X152.694 Y108.933 E39.99288
G1 X152.533 Y109.102 E40.00103
G1 X152.187 Y109.452 E40.01822
G1 X151.507 Y110.109 E40.05124
G1 X150.919 Y110.645 E40.07902
G1 X150.398 Y111.098 E40.10314
G1 X149.653 Y111.71 E40.13681
G1 X149.077 Y112.152 E40.16216
G1 X148.301 Y112.721 E40.19577
G1 X147.536 Y113.238 E40.22801
G1 X146.694 Y113.764 E40.26268
G1 X146.056 Y114.129 E40.28835
G1 X145.194 Y114.596 E40.32259
G1 X144.34 Y115.018 E40.35586
G1 X143.454 Y115.421 E40.38985
G1 X142.872 Y115.665 E40.41189
G1 X142.038 Y115.993 E40.44319
G1 X141.487 Y116.194 E40.46367
G1 X140.724 Y116.458 E40.49187
G1 X140.252 Y116.607 E40.50915
G1 X139.109 Y116.937 E40.5507
G1 X138.432 Y117.109 E40.57509
G1 X137.968 Y117.212 E40.59169
G1 X137.111 Y117.361 E40.62207
G1 X136.497 Y117.409 E40.64358
G1 X127.025 Y117.41 E40.97437
G1 X127.025 Y123.11 E41.17343
G1 X126.005 Y123.11 E41.20905
G1 X126.005 Y114.81 E41.49892
G0 F3600 X127.075 Y114.603
G0 X151.902 Y109.475
G1 F1500 X151.774 Y109.348 E41.50521
G0 F3600 X151.614 Y109.753
G1 F1500 X151.321 Y109.46 E41.51968
G0 F3600 X150.869 Y109.573
G1 F1500 X151.325 Y110.03 E41.54223
G0 F3600 X151.029 Y110.3
G1 F1500 X150.416 Y109.687 E41.57251
G0 F3600 X149.963 Y109.799
G1 F1500 X150.731 Y110.568 E41.61046
G0 F3600 X150.428 Y110.83
G1 F1500 X149.51 Y109.912 E41.6558
G0 F3600 X149.057 Y110.025
G1 F1500 X150.121 Y111.089 E41.70835
G0 F3600 X149.811 Y111.344
G1 F1500 X148.604 Y110.138 E41.76794
G0 F3600 X148.151 Y110.25
G1 F1500 X149.499 Y111.598 E41.83451
G0 F3600 X149.179 Y111.844
G1 F1500 X147.699 Y110.363 E41.90763
G0 F3600 X147.245 Y110.476
G1 F1500 X148.857 Y112.088 E41.98725
G0 F3600 X148.531 Y112.327
G1 F1500 X146.793 Y110.589 E42.07309
G0 F3600 X146.34 Y110.702
G1 F1500 X148.204 Y112.566 E42.16515
G0 F3600 X147.867 Y112.794
G1 F1500 X145.887 Y110.814 E42.26294
G0 F3600 X145.434 Y110.928
G1 F1500 X147.53 Y113.023 E42.36643
G0 F3600 X147.184 Y113.243
G1 F1500 X144.981 Y111.04 E42.47523
G0 F3600 X144.529 Y111.153
G1 F1500 X146.837 Y113.461 E42.58922
G0 F3600 X146.484 Y113.675
G1 F1500 X144.075 Y111.266 E42.7082
G0 F3600 X143.623 Y111.379
G1 F1500 X146.125 Y113.88 E42.83175
G0 F3600 X145.76 Y114.082
G1 F1500 X143.17 Y111.492 E42.95966
G0 F3600 X142.717 Y111.604
G1 F1500 X145.394 Y114.281 E43.09188
G0 F3600 X145.025 Y114.478
G1 F1500 X142.264 Y111.717 E43.22824
G0 F3600 X141.811 Y111.83
G1 F1500 X144.646 Y114.665 E43.36826
G0 F3600 X144.268 Y114.852
G1 F1500 X141.359 Y111.943 E43.51193
G0 F3600 X140.905 Y112.055
G1 F1500 X143.879 Y115.029 E43.65881
G0 F3600 X143.49 Y115.206
G1 F1500 X140.453 Y112.169 E43.8088
G0 F3600 X140 Y112.282
G1 F1500 X143.094 Y115.375 E43.96159
G0 F3600 X142.693 Y115.54
G1 F1500 X139.547 Y112.394 E44.11697
G0 F3600 X139.094 Y112.507
G1 F1500 X142.287 Y115.7 E44.27466
G0 F3600 X141.88 Y115.858
G1 F1500 X138.641 Y112.62 E44.43461
G0 F3600 X138.189 Y112.733
G1 F1500 X141.465 Y116.009 E44.59641
G0 F3600 X141.045 Y116.155
G1 F1500 X137.735 Y112.845 E44.75988
G0 F3600 X137.283 Y112.958
G1 F1500 X140.625 Y116.3 E44.92494
G0 F3600 X140.193 Y116.435
G1 F1500 X136.83 Y113.072 E45.09104
G0 F3600 X136.377 Y113.184
G1 F1500 X139.755 Y116.562 E45.25787
G0 F3600 X139.316 Y116.688
G1 F1500 X135.925 Y113.297 E45.42535
G0 F3600 X135.471 Y113.41
G1 F1500 X138.872 Y116.81 E45.5933
G0 F3600 X138.42 Y116.924
G1 F1500 X135.019 Y113.523 E45.76127
G0 F3600 X134.565 Y113.635
G1 F1500 X137.96 Y117.029 E45.92892
G0 F3600 X137.479 Y117.114
G1 F1500 X134.113 Y113.748 E46.09516
G0 F3600 X133.66 Y113.861
G1 F1500 X136.989 Y117.19 E46.25957
G0 F3600 X136.461 Y117.228
