;FLAVOR:Marlin
;TIME:2607
;Filament used: 0m, 1.37601m
;Layer height: 0.1
;MINX:61.755
;MINY:94.8
;MINZ:0.3
;MAXX:158.216
;MAXY:125.2
;MAXZ:6
;Generated with Cura_SteamEngine 4.4.1
T1
M140 S65
M105
M190 S65
M104 S200
M105
M109 S200
M82 ;absolute extrusion mode
G28 ;Home
G1 Z15.0 F6000 ;Move the platform down 15mm
;Prime the extruder
G92 E0
G1 F200 E3
G92 E0
G92 E0
t1
G92 E0
G1 F1500 E-1
;LAYER_COUNT:58
;LAYER:0
M107
G0 F3600 X63.594 Y95.274 Z0.3
;TYPE:SKIRT
G1 F1500 E0
G1 F1800 X64.079 Y95.046 E0.02674
G1 X64.593 Y94.892 E0.05351
G1 X65.263 Y94.81 E0.08718
G1 X65.584 Y94.801 E0.1032
G1 X65.685 Y94.8 E0.10824
G1 X114.782 Y94.8 E2.5577
G1 X115.48 Y94.81 E2.59253
G1 X116.014 Y94.858 E2.61928
G1 X116.535 Y94.984 E2.64602
G1 X116.814 Y95.088 E2.66088
G1 X119.362 Y96.151 E2.79861
G1 X121.94 Y97.147 E2.9365
G1 X124.474 Y98.041 E3.07056
G1 X127.096 Y98.885 E3.20798
G1 X129.686 Y99.64 E3.34257
G1 X132.333 Y100.329 E3.47903
G1 X135.008 Y100.947 E3.616
G1 X137.701 Y101.489 E3.75305
G1 X140.331 Y101.939 E3.88617
G1 X143.056 Y102.328 E4.0235
G1 X145.761 Y102.636 E4.15932
G1 X148.488 Y102.869 E4.29587
G1 X151.184 Y103.023 E4.43059
G1 X154.482 Y103.109 E4.59519
G1 X154.678 Y103.112 E4.60497
G1 X155.212 Y103.161 E4.63172
G1 X155.733 Y103.287 E4.65846
G1 X156.229 Y103.49 E4.6852
G1 X156.69 Y103.765 E4.71198
G1 X157.105 Y104.104 E4.73871
G1 X157.465 Y104.502 E4.76549
G1 X157.762 Y104.949 E4.79226
G1 X157.989 Y105.435 E4.81902
G1 X158.141 Y105.949 E4.84577
G1 X158.216 Y106.48 E4.87252
G1 X158.21 Y107.016 E4.89926
G1 X158.125 Y107.546 E4.92604
G1 X157.962 Y108.057 E4.9528
G1 X157.726 Y108.538 E4.97953
G1 X157.303 Y109.115 E5.01523
G1 X157.138 Y109.299 E5.02756
G1 X157.04 Y109.405 E5.03476
G1 X156.353 Y110.112 E5.08394
G1 X156.287 Y110.178 E5.0886
G1 X155.682 Y110.769 E5.13079
G1 X155.615 Y110.832 E5.13538
G1 X155.084 Y111.325 E5.17153
G1 X155.02 Y111.384 E5.17587
G1 X154.449 Y111.889 E5.2139
G1 X154.386 Y111.943 E5.21804
G1 X153.84 Y112.404 E5.25369
G1 X153.77 Y112.462 E5.25823
G1 X153.19 Y112.927 E5.29532
G1 X153.128 Y112.976 E5.29926
G1 X152.606 Y113.376 E5.33207
G1 X152.541 Y113.424 E5.3361
G1 X152.057 Y113.778 E5.36602
G1 X151.996 Y113.822 E5.36977
G1 X151.483 Y114.181 E5.40101
G1 X151.412 Y114.229 E5.40528
G1 X150.935 Y114.546 E5.43386
G1 X150.867 Y114.59 E5.4379
G1 X150.17 Y115.031 E5.47905
G1 X150.054 Y115.102 E5.48583
G1 X149.264 Y115.561 E5.53141
G1 X149.181 Y115.607 E5.53615
G1 X148.436 Y116.014 E5.5785
G1 X148.34 Y116.065 E5.58392
G1 X147.696 Y116.392 E5.61996
G1 X147.602 Y116.438 E5.62518
G1 X146.633 Y116.895 E5.67863
G1 X146.529 Y116.942 E5.68432
G1 X145.692 Y117.305 E5.72984
G1 X145.594 Y117.346 E5.73514
G1 X144.594 Y117.745 E5.78885
G1 X144.487 Y117.785 E5.79455
G1 X143.533 Y118.131 E5.84518
G1 X143.44 Y118.164 E5.85011
G1 X141.967 Y118.653 E5.92754
G1 X140.131 Y119.281 E6.02435
G1 X137.574 Y120.226 E6.16035
G1 X135.038 Y121.245 E6.2967
G1 X132.548 Y122.33 E6.43221
G1 X130.082 Y123.487 E6.56811
G1 X127.674 Y124.7 E6.70262
G1 X127.553 Y124.764 E6.70945
G1 X127.061 Y124.977 E6.7362
G1 X126.543 Y125.115 E6.76295
G1 X125.955 Y125.176 E6.79244
G1 X124.868 Y125.199 E6.84668
G1 X124.792 Y125.2 E6.85047
G1 X66.01 Y125.2 E9.78312
G1 X65.312 Y125.19 E9.81795
G1 X64.778 Y125.142 E9.84469
G1 X64.257 Y125.016 E9.87144
G1 X63.76 Y124.813 E9.89822
G1 X63.299 Y124.539 E9.92498
G1 X62.884 Y124.2 E9.95171
G1 X62.524 Y123.802 E9.97848
G1 X62.227 Y123.356 E10.00522
G1 X61.999 Y122.87 E10.032
G1 X61.847 Y122.356 E10.05874
G1 X61.765 Y121.688 E10.09232
G1 X61.756 Y121.356 E10.10889
G1 X61.755 Y121.258 E10.11378
G1 X61.755 Y99.051 E11.22169
G1 X61.764 Y98.362 E11.25607
G1 X61.811 Y97.828 E11.28281
G1 X61.937 Y97.306 E11.3096
G1 X62.139 Y96.81 E11.33632
G1 X62.412 Y96.348 E11.36309
G1 X62.751 Y95.933 E11.38983
G1 X63.148 Y95.572 E11.4166
G1 X63.594 Y95.274 E11.44336
G0 F3600 X63.97 Y95.528
G1 F1800 X64.441 Y95.345 E11.46857
G1 X64.935 Y95.238 E11.49379
G1 X65.274 Y95.21 E11.51076
G1 X65.595 Y95.201 E11.52678
G1 X65.685 Y95.2 E11.53127
G1 X114.776 Y95.2 E13.98043
G1 X115.474 Y95.21 E14.01525
G1 X115.977 Y95.257 E14.04046
G1 X116.66 Y95.457 E14.07596
G1 X119.212 Y96.522 E14.21393
G1 X121.799 Y97.521 E14.35228
G1 X124.356 Y98.423 E14.48755
G1 X126.977 Y99.267 E14.62493
G1 X129.578 Y100.025 E14.76009
G1 X132.247 Y100.72 E14.89769
G1 X134.911 Y101.335 E15.03409
G1 X137.62 Y101.881 E15.17196
G1 X140.279 Y102.335 E15.30654
G1 X143.026 Y102.728 E15.44498
G1 X145.718 Y103.034 E15.58015
G1 X148.432 Y103.267 E15.71605
G1 X151.183 Y103.423 E15.85352
G1 X154.475 Y103.509 E16.01782
G1 X154.672 Y103.512 E16.02765
G1 X155.175 Y103.56 E16.05285
G1 X155.665 Y103.686 E16.0781
G1 X156.128 Y103.888 E16.1033
G1 X156.554 Y104.16 E16.12851
G1 X156.932 Y104.496 E16.15375
G1 X157.252 Y104.888 E16.17899
G1 X157.507 Y105.324 E16.20419
G1 X157.689 Y105.796 E16.22943
G1 X157.795 Y106.29 E16.25464
G1 X157.822 Y106.795 E16.27987
G1 X157.769 Y107.298 E16.3051
G1 X157.637 Y107.786 E16.33032
G1 X157.431 Y108.247 E16.35551
G1 X157.005 Y108.848 E16.39227
G1 X156.84 Y109.032 E16.4046
G1 X156.753 Y109.126 E16.41099
G1 X156.066 Y109.833 E16.46017
G1 X156.007 Y109.892 E16.46433
G1 X155.402 Y110.483 E16.50653
G1 X155.343 Y110.539 E16.51058
G1 X154.812 Y111.032 E16.54673
G1 X154.755 Y111.084 E16.55058
G1 X154.184 Y111.589 E16.58861
G1 X154.128 Y111.637 E16.59229
G1 X153.582 Y112.098 E16.62794
G1 X153.52 Y112.15 E16.63198
G1 X152.94 Y112.615 E16.66907
G1 X152.884 Y112.658 E16.67259
G1 X152.362 Y113.058 E16.7054
G1 X152.305 Y113.101 E16.70896
G1 X151.821 Y113.455 E16.73888
G1 X151.767 Y113.494 E16.7422
G1 X151.254 Y113.853 E16.77344
G1 X151.19 Y113.896 E16.77729
G1 X150.713 Y114.213 E16.80586
G1 X150.653 Y114.252 E16.80943
G1 X149.956 Y114.693 E16.85058
G1 X149.853 Y114.756 E16.8566
G1 X149.063 Y115.215 E16.90219
G1 X148.989 Y115.256 E16.90641
G1 X148.244 Y115.663 E16.94876
G1 X148.159 Y115.708 E16.95356
G1 X147.515 Y116.035 E16.98959
G1 X147.431 Y116.076 E16.99426
G1 X146.462 Y116.533 E17.04771
G1 X146.37 Y116.575 E17.05275
G1 X145.533 Y116.938 E17.09827
G1 X145.446 Y116.974 E17.10296
G1 X144.446 Y117.373 E17.15668
G1 X144.351 Y117.409 E17.16175
G1 X143.397 Y117.755 E17.21238
G1 X143.314 Y117.784 E17.21676
G1 X141.869 Y118.264 E17.29273
G1 X140.003 Y118.903 E17.39113
G1 X137.423 Y119.856 E17.52835
G1 X134.895 Y120.872 E17.66427
G1 X132.368 Y121.973 E17.80179
G1 X129.911 Y123.126 E17.9372
G1 X127.477 Y124.352 E18.07317
G1 X127.367 Y124.41 E18.07937
G1 X126.902 Y124.609 E18.10461
G1 X126.412 Y124.732 E18.12981
G1 X125.947 Y124.776 E18.15311
G1 X124.86 Y124.799 E18.20736
G1 X124.792 Y124.8 E18.21075
G1 X66.016 Y124.8 E21.14309
G1 X65.318 Y124.79 E21.17792
G1 X64.815 Y124.743 E21.20313
G1 X64.325 Y124.617 E21.22837
G1 X63.861 Y124.415 E21.25362
G1 X63.435 Y124.143 E21.27883
G1 X63.057 Y123.808 E21.30403
G1 X62.737 Y123.417 E21.32924
G1 X62.482 Y122.98 E21.35448
G1 X62.299 Y122.509 E21.37969
G1 X62.192 Y122.015 E21.40491
G1 X62.165 Y121.677 E21.42182
G1 X62.156 Y121.345 E21.43839
G1 X62.155 Y121.258 E21.44273
G1 X62.155 Y99.056 E22.5504
G1 X62.164 Y98.367 E22.58477
G1 X62.211 Y97.864 E22.60998
G1 X62.336 Y97.374 E22.63521
G1 X62.537 Y96.91 E22.66043
G1 X62.808 Y96.483 E22.68567
G1 X63.143 Y96.105 E22.71086
G1 X63.534 Y95.784 E22.7361
G1 X63.97 Y95.528 E22.76133
G1 F1500 E21.76133
;MESH:d80f0aac-ee84-4a10-99b8-2ce243db29f4.stl
G0 F3600 X65.769 Y97.735
G0 X65.769 Y98.814
G0 X128.471 Y115.3
;TYPE:WALL-INNER
G1 F1500 E22.76133
G1 F1800 X125.491 Y121 E23.08222
G1 X65.955 Y121 E26.05248
G1 X65.955 Y99 E27.15007
G1 X115.219 Y99 E29.60786
G1 X130.115 Y111.5 E30.57802
G1 X130.886 Y111.5 E30.61648
G1 X152.291 Y107.726 E31.70085
G1 X152.445 Y107.699 E31.70865
G1 X152.905 Y107.617 E31.73196
G1 X152.499 Y108.003 E31.74484
G1 X152.383 Y108.108 E31.75179
G1 X151.951 Y108.5 E31.78089
G1 X151.392 Y108.983 E31.81775
G1 X150.86 Y109.422 E31.85216
G1 X150.341 Y109.828 E31.88503
G1 X149.831 Y110.21 E31.91682
G1 X149.329 Y110.569 E31.94761
G1 X148.859 Y110.89 E31.97601
G1 X148.393 Y111.193 E32.00374
G1 X147.958 Y111.465 E32.02933
G1 X147.538 Y111.718 E32.0538
G1 X146.776 Y112.147 E32.09742
G1 X146.14 Y112.482 E32.13329
G1 X145.318 Y112.886 E32.17898
G1 X144.47 Y113.269 E32.2254
G1 X143.522 Y113.664 E32.27664
G1 X142.6 Y114.015 E32.32586
G1 X141.82 Y114.285 E32.36704
G1 X140.982 Y114.551 E32.4109
G1 X140.25 Y114.763 E32.44892
G1 X139.555 Y114.941 E32.48472
G1 X138.895 Y115.091 E32.51848
G1 X138.263 Y115.209 E32.55056
G1 X137.791 Y115.272 E32.57432
G1 X136.279 Y115.3 E32.64976
G1 X128.471 Y115.3 E33.0393
G0 F3600 X128.713 Y115.7
;TYPE:WALL-OUTER
G1 F1800 X125.734 Y121.4 E33.36017
G1 X65.555 Y121.4 E36.36252
G1 X65.555 Y98.6 E37.50001
G1 X115.364 Y98.6 E39.985
G1 X130.261 Y111.1 E40.95519
G1 X130.851 Y111.1 E40.98463
G1 X153.491 Y107.107 E42.13157
G1 X153.908 Y107.034 E42.15269
G1 X154.083 Y107.003 E42.16156
G1 X153.931 Y107.164 E42.1647
G1 X153.632 Y107.464 E42.17908
G1 X153.352 Y107.744 E42.19883
G1 X152.775 Y108.293 E42.23857
G1 X152.213 Y108.803 E42.27643
G1 X151.654 Y109.286 E42.31329
G1 X151.114 Y109.731 E42.3482
G1 X150.581 Y110.148 E42.38196
G1 X150.064 Y110.535 E42.41418
G1 X149.562 Y110.894 E42.44497
G1 X149.078 Y111.224 E42.47419
G1 X148.612 Y111.528 E42.50195
G1 X148.164 Y111.808 E42.52831
G1 X147.734 Y112.067 E42.55335
G1 X146.972 Y112.496 E42.59698
G1 X146.316 Y112.841 E42.63396
G1 X145.493 Y113.245 E42.6797
G1 X144.624 Y113.638 E42.72728
G1 X143.664 Y114.038 E42.77917
G1 X142.731 Y114.393 E42.82897
G1 X141.951 Y114.663 E42.87015
G1 X141.099 Y114.933 E42.91474
G1 X140.361 Y115.147 E42.95307
G1 X139.644 Y115.331 E42.99
G1 X138.984 Y115.481 E43.02377
G1 X138.33 Y115.603 E43.05696
G1 X137.817 Y115.672 E43.08279
G1 X136.286 Y115.7 E43.15918
G1 X128.713 Y115.7 E43.537
G0 F3600 X128.621 Y115.877
G0 X128.232 Y115.673
G0 X128.235 Y114.91
;TYPE:SKIN
G1 F1800 X125.255 Y120.61 E43.85789
G1 X66.345 Y120.61 E46.79692
G1 X66.345 Y99.39 E47.85559
G1 X115.076 Y99.39 E50.28679
G1 X129.973 Y111.89 E51.25699
G1 X130.92 Y111.89 E51.30424
G1 X151.665 Y108.232 E52.35517
G1 X151.14 Y108.685 E52.38977
G1 X150.62 Y109.114 E52.4234
G1 X150.107 Y109.516 E52.45592
G1 X149.604 Y109.892 E52.48725
G1 X149.105 Y110.249 E52.51786
G1 X148.646 Y110.563 E52.5456
G1 X147.73 Y111.148 E52.59983
G1 X147.347 Y111.378 E52.62212
G1 X146.594 Y111.802 E52.66523
G1 X145.958 Y112.137 E52.70109
G1 X145.109 Y112.553 E52.74826
G1 X144.35 Y112.896 E52.78981
G1 X143.377 Y113.302 E52.84241
G1 X142.461 Y113.65 E52.8913
G1 X141.727 Y113.905 E52.93007
G1 X140.864 Y114.179 E52.97524
G1 X140.153 Y114.385 E53.01217
G1 X139.458 Y114.563 E53.04796
G1 X138.823 Y114.707 E53.08045
G1 X138.191 Y114.825 E53.11252
G1 X137.768 Y114.882 E53.13382
G1 X136.271 Y114.91 E53.20852
G1 X128.235 Y114.91 E53.60943
G0 F3600 X150.686 Y108.825
G1 F1800 X150.484 Y108.623 E53.62369
G0 F3600 X150.372 Y109.077
G1 F1800 X150.003 Y108.708 E53.64972
G0 F3600 X149.522 Y108.793
G1 F1800 X150.055 Y109.325 E53.68729
G0 F3600 X149.732 Y109.569
G1 F1800 X149.041 Y108.878 E53.73605
G0 F3600 X148.561 Y108.963
G1 F1800 X149.407 Y109.809 E53.79574
G0 F3600 X149.077 Y110.045
G1 F1800 X148.079 Y109.047 E53.86615
G0 F3600 X147.598 Y109.132
G1 F1800 X148.743 Y110.276 E53.9469
G0 F3600 X148.404 Y110.503
G1 F1800 X147.117 Y109.216 E54.03771
G0 F3600 X146.636 Y109.301
G1 F1800 X148.058 Y110.723 E54.13804
G0 F3600 X147.713 Y110.943
G1 F1800 X146.156 Y109.386 E54.24789
G0 F3600 X145.675 Y109.471
G1 F1800 X147.361 Y111.157 E54.36685
G0 F3600 X147.002 Y111.364
G1 F1800 X145.194 Y109.556 E54.49441
G0 F3600 X144.713 Y109.641
G1 F1800 X146.64 Y111.568 E54.63037
G0 F3600 X146.272 Y111.766
G1 F1800 X144.232 Y109.726 E54.7743
G0 F3600 X143.751 Y109.81
G1 F1800 X145.902 Y111.961 E54.92607
G0 F3600 X145.523 Y112.148
G1 F1800 X143.27 Y109.895 E55.08503
G0 F3600 X142.789 Y109.979
G1 F1800 X145.144 Y112.334 E55.25119
G0 F3600 X144.758 Y112.514
G1 F1800 X142.308 Y110.064 E55.42405
G0 F3600 X141.827 Y110.149
G1 F1800 X144.368 Y112.69 E55.60333
G0 F3600 X143.97 Y112.857
G1 F1800 X141.347 Y110.234 E55.7884
G0 F3600 X140.866 Y110.319
G1 F1800 X143.571 Y113.024 E55.97925
G0 F3600 X143.168 Y113.187
G1 F1800 X140.385 Y110.404 E56.17561
G0 F3600 X139.904 Y110.488
G1 F1800 X142.759 Y113.343 E56.37704
G0 F3600 X142.347 Y113.497
G1 F1800 X139.423 Y110.573 E56.58334
G0 F3600 X138.942 Y110.658
G1 F1800 X141.928 Y113.644 E56.79402
G0 F3600 X141.504 Y113.786
G1 F1800 X138.461 Y110.742 E57.00876
G0 F3600 X137.98 Y110.827
G1 F1800 X141.074 Y113.921 E57.22706
G0 F3600 X140.642 Y114.054
G1 F1800 X137.499 Y110.912 E57.44878
G0 F3600 X137.018 Y110.997
G1 F1800 X140.203 Y114.182 E57.6735
G0 F3600 X139.755 Y114.299
G1 F1800 X136.538 Y111.082 E57.90047
G0 F3600 X136.057 Y111.167
G1 F1800 X139.302 Y114.412 E58.12943
G0 F3600 X138.841 Y114.517
G1 F1800 X135.576 Y111.251 E58.35982
G0 F3600 X135.095 Y111.336
G1 F1800 X138.366 Y114.607 E58.59061
G0 F3600 X137.878 Y114.684
G1 F1800 X134.614 Y111.421 E58.82087
G0 F3600 X134.133 Y111.506
G1 F1800 X137.337 Y114.709 E59.04689
G0 F3600 X136.782 Y114.72
G1 F1800 X133.652 Y111.59 E59.26773
G0 F3600 X133.171 Y111.675
G1 F1800 X136.226 Y114.73 E59.48328
G0 F3600 X135.66 Y114.73
G1 F1800 X132.69 Y111.76 E59.69283
G0 F3600 X132.209 Y111.845
G1 F1800 X135.094 Y114.73 E59.89638
G0 F3600 X134.529 Y114.73
G1 F1800 X131.729 Y111.93 E60.09393
G0 F3600 X131.248 Y112.014
G1 F1800 X133.963 Y114.73 E60.28553
G0 F3600 X133.397 Y114.73
G1 F1800 X130.737 Y112.07 E60.47321
G0 F3600 X130.171 Y112.07
G1 F1800 X132.832 Y114.73 E60.66092
G0 F3600 X132.266 Y114.73
G1 F1800 X128.042 Y110.506 E60.95894
G1 X127.972 Y110.436
G0 F3600 X128.306 Y114.73
G1 F1800 X113.146 Y99.569 E62.0286
G0 F3600 X113.711 Y99.569
G1 F1800 X128.872 Y114.73 E63.09829
G0 F3600 X129.438 Y114.73
G1 F1800 X114.277 Y99.569 E64.16798
G0 F3600 X114.843 Y99.569
G1 F1800 X130.003 Y114.73 E65.23764
G0 F3600 X130.569 Y114.73
G1 F1800 X117.496 Y101.657 E66.16001
G1 X117.426 Y101.587
G0 F3600 X121.012 Y104.607
G1 F1800 X131.135 Y114.73 E66.87424
G0 F3600 X131.7 Y114.73
G1 F1800 X124.527 Y107.557 E67.38033
G1 X124.457 Y107.487
G0 F3600 X127.994 Y114.983
G1 F1800 X112.58 Y99.569 E68.46787
G0 F3600 X112.014 Y99.569
G1 F1800 X127.799 Y115.354 E69.58159
G0 F3600 X127.605 Y115.725
G1 F1800 X111.449 Y99.569 E70.72148
G0 F3600 X110.883 Y99.569
G1 F1800 X127.411 Y116.097 E71.88762
G0 F3600 X127.216 Y116.468
G1 F1800 X110.317 Y99.569 E73.07994
G0 F3600 X109.752 Y99.569
G1 F1800 X127.022 Y116.84 E74.29847
G0 F3600 X126.828 Y117.212
G1 F1800 X109.186 Y99.569 E75.54324
G0 F3600 X108.62 Y99.569
G1 F1800 X126.634 Y117.583 E76.81422
G0 F3600 X126.439 Y117.954
G1 F1800 X108.055 Y99.569 E78.11135
G0 F3600 X107.489 Y99.569
G1 F1800 X126.246 Y118.326 E79.43476
G0 F3600 X126.051 Y118.697
G1 F1800 X106.923 Y99.569 E80.78434
G0 F3600 X106.358 Y99.569
G1 F1800 X125.857 Y119.069 E82.16014
G0 F3600 X125.663 Y119.44
G1 F1800 X105.792 Y99.569 E83.56214
G0 F3600 X105.226 Y99.569
G1 F1800 X125.469 Y119.812 E84.9904
G0 F3600 X125.274 Y120.183
G1 F1800 X104.66 Y99.569 E86.44482
G0 F3600 X104.095 Y99.569
G1 F1800 X124.954 Y120.429 E87.91658
G0 F3600 X124.389 Y120.429
G1 F1800 X103.529 Y99.569 E89.38836
G0 F3600 X102.963 Y99.569
G1 F1800 X123.823 Y120.429 E90.86015
G0 F3600 X123.257 Y120.429
G1 F1800 X102.398 Y99.569 E92.3319
G0 F3600 X101.832 Y99.569
G1 F1800 X122.692 Y120.429 E93.80368
G0 F3600 X122.126 Y120.429
G1 F1800 X101.266 Y99.569 E95.27547
G0 F3600 X100.701 Y99.569
G1 F1800 X121.56 Y120.429 E96.74722
G0 F3600 X120.995 Y120.429
G1 F1800 X100.135 Y99.569 E98.219
G0 F3600 X99.569 Y99.569
G1 F1800 X120.429 Y120.429 E99.69079
G0 F3600 X119.863 Y120.429
G1 F1800 X99.004 Y99.569 E101.16254
G0 F3600 X98.438 Y99.569
G1 F1800 X119.298 Y120.429 E102.63433
G0 F3600 X118.732 Y120.429
G1 F1800 X97.872 Y99.569 E104.10611
G0 F3600 X97.307 Y99.569
G1 F1800 X118.166 Y120.429 E105.57786
G0 F3600 X117.601 Y120.429
G1 F1800 X96.741 Y99.569 E107.04965
G0 F3600 X96.175 Y99.569
G1 F1800 X117.035 Y120.429 E108.52143
G0 F3600 X116.469 Y120.429
G1 F1800 X95.61 Y99.569 E109.99318
G0 F3600 X95.044 Y99.569
G1 F1800 X115.903 Y120.429 E111.46493
G0 F3600 X115.338 Y120.429
