;FLAVOR:Marlin
;TIME:248
;Filament used: 0m, 0.0954783m
;Layer height: 0.1
;MINX:102.104
;MINY:98.101
;MINZ:0.2
;MAXX:117.896
;MAXY:121.901
;MAXZ:3.5
;Generated with Cura_SteamEngine 4.4.1
T1
M140 S65
M105
M190 S65
M104 S200
M105
M109 S200
M82 ;absolute extrusion mode
G28 ;Home
G1 Z15.0 F6000 ;Move the platform down 15mm
;Prime the extruder
G92 E0
G1 F200 E3
G92 E0
G92 E0
t1
G92 E0
G1 F1500 E-1
;LAYER_COUNT:34
;LAYER:0
M106 S255
G0 F3600 X103.52 Y99.285 Z0.2
;TYPE:SKIRT
G1 F1500 E0
G1 X103.981 Y98.912 E0.01972
G1 X104.488 Y98.604 E0.03945
G1 X105.031 Y98.367 E0.05916
G1 X105.602 Y98.205 E0.0789
G1 X106.39 Y98.112 E0.10529
G1 X106.711 Y98.103 E0.11597
G1 X106.834 Y98.101 E0.12006
G1 X112.852 Y98.101 E0.32022
G1 X113.55 Y98.111 E0.34344
G1 X114.141 Y98.16 E0.36317
G1 X114.72 Y98.287 E0.38288
G1 X115.277 Y98.491 E0.40261
G1 X115.801 Y98.769 E0.42234
G1 X116.283 Y99.114 E0.44205
G1 X116.715 Y99.521 E0.46179
G1 X117.087 Y99.982 E0.4815
G1 X117.395 Y100.489 E0.50123
G1 X117.631 Y101.033 E0.52095
G1 X117.792 Y101.603 E0.54065
G1 X117.885 Y102.387 E0.56691
G1 X117.894 Y102.707 E0.57756
G1 X117.896 Y102.831 E0.58168
G1 X117.896 Y116.819 E1.04692
G1 X117.887 Y117.546 E1.07111
G1 X117.839 Y118.138 E1.09086
G1 X117.713 Y118.717 E1.11057
G1 X117.51 Y119.274 E1.13029
G1 X117.234 Y119.799 E1.15001
G1 X116.89 Y120.282 E1.16974
G1 X116.484 Y120.714 E1.18946
G1 X116.023 Y121.087 E1.20918
G1 X115.517 Y121.396 E1.2289
G1 X114.974 Y121.633 E1.2486
G1 X114.403 Y121.796 E1.26835
G1 X113.61 Y121.89 E1.29491
G1 X113.289 Y121.899 E1.30559
G1 X113.166 Y121.901 E1.30969
G1 X107.154 Y121.901 E1.50965
G1 X106.456 Y121.892 E1.53286
G1 X105.865 Y121.844 E1.55259
G1 X105.286 Y121.717 E1.5723
G1 X104.729 Y121.514 E1.59202
G1 X104.204 Y121.238 E1.61175
G1 X103.722 Y120.893 E1.63146
G1 X103.29 Y120.487 E1.65118
G1 X102.916 Y120.026 E1.67092
G1 X102.608 Y119.52 E1.69063
G1 X102.371 Y118.976 E1.71036
G1 X102.209 Y118.406 E1.73007
G1 X102.115 Y117.611 E1.7567
G1 X102.106 Y117.278 E1.76778
G1 X102.104 Y117.159 E1.77173
G1 X102.104 Y103.115 E2.23884
G1 X102.113 Y102.45 E2.26096
G1 X102.161 Y101.859 E2.28068
G1 X102.288 Y101.28 E2.3004
G1 X102.492 Y100.723 E2.32013
G1 X102.769 Y100.199 E2.33984
G1 X103.114 Y99.717 E2.35955
G1 X103.52 Y99.285 E2.37927
G0 F3600 X103.91 Y99.473
G1 F1500 X104.364 Y99.136 E2.39808
G1 X104.861 Y98.867 E2.41687
G1 X105.391 Y98.67 E2.43568
G1 X105.944 Y98.551 E2.45449
G1 X106.401 Y98.512 E2.46975
G1 X106.722 Y98.503 E2.48043
G1 X106.834 Y98.501 E2.48416
G1 X112.846 Y98.501 E2.68412
G1 X113.544 Y98.511 E2.70733
G1 X114.108 Y98.559 E2.72616
G1 X114.658 Y98.686 E2.74493
G1 X115.186 Y98.89 E2.76376
G1 X115.68 Y99.165 E2.78257
G1 X116.129 Y99.508 E2.80136
G1 X116.526 Y99.91 E2.82015
G1 X116.863 Y100.365 E2.83898
G1 X117.131 Y100.862 E2.85776
G1 X117.327 Y101.392 E2.87656
G1 X117.447 Y101.945 E2.89538
G1 X117.485 Y102.399 E2.91053
G1 X117.494 Y102.719 E2.92118
G1 X117.496 Y102.831 E2.9249
G1 X117.496 Y116.815 E3.39001
G1 X117.487 Y117.542 E3.4142
G1 X117.44 Y118.105 E3.43299
G1 X117.314 Y118.656 E3.45179
G1 X117.112 Y119.184 E3.47059
G1 X116.837 Y119.678 E3.48939
G1 X116.495 Y120.128 E3.50819
G1 X116.093 Y120.526 E3.52701
G1 X115.64 Y120.863 E3.54579
G1 X115.143 Y121.133 E3.5646
G1 X114.613 Y121.33 E3.58341
G1 X114.061 Y121.451 E3.6022
G1 X113.599 Y121.49 E3.61762
G1 X113.278 Y121.499 E3.6283
G1 X113.166 Y121.501 E3.63203
G1 X107.159 Y121.501 E3.83182
G1 X106.461 Y121.492 E3.85504
G1 X105.898 Y121.444 E3.87383
G1 X105.347 Y121.318 E3.89263
G1 X104.819 Y121.116 E3.91143
G1 X104.325 Y120.841 E3.93024
G1 X103.875 Y120.499 E3.94904
G1 X103.477 Y120.097 E3.96785
G1 X103.141 Y119.643 E3.98664
G1 X102.871 Y119.146 E4.00545
G1 X102.674 Y118.616 E4.02426
G1 X102.554 Y118.064 E4.04305
G1 X102.514 Y117.6 E4.05854
G1 X102.505 Y117.267 E4.06962
G1 X102.504 Y117.159 E4.07321
G1 X102.504 Y103.121 E4.54011
G1 X102.513 Y102.456 E4.56223
G1 X102.561 Y101.893 E4.58103
G1 X102.687 Y101.342 E4.59983
G1 X102.89 Y100.814 E4.61864
G1 X103.166 Y100.32 E4.63746
G1 X103.508 Y99.87 E4.65626
G1 X103.91 Y99.473 E4.67505
G0 F3600 X103.901 Y100.032
G1 F1500 X104.298 Y99.672 E4.69288
G1 X104.745 Y99.374 E4.71075
G1 X105.23 Y99.146 E4.72857
G1 X105.744 Y98.993 E4.74641
G1 X106.412 Y98.911 E4.76879
G1 X106.733 Y98.902 E4.77947
G1 X106.834 Y98.901 E4.78283
G1 X112.841 Y98.901 E4.98263
G1 X113.539 Y98.911 E5.00584
G1 X114.073 Y98.959 E5.02368
G1 X114.594 Y99.085 E5.0415
G1 X115.091 Y99.288 E5.05936
G1 X115.552 Y99.562 E5.0772
G1 X115.967 Y99.901 E5.09502
G1 X116.327 Y100.299 E5.11287
G1 X116.624 Y100.745 E5.13069
G1 X116.852 Y101.231 E5.14855
G1 X117.004 Y101.745 E5.16637
G1 X117.086 Y102.41 E5.18866
G1 X117.095 Y102.73 E5.19931
G1 X117.096 Y102.831 E5.20267
G1 X117.096 Y116.81 E5.66761
G1 X117.087 Y117.537 E5.69179
G1 X117.04 Y118.071 E5.70962
G1 X116.915 Y118.592 E5.72744
G1 X116.713 Y119.089 E5.74528
G1 X116.44 Y119.551 E5.76313
G1 X116.102 Y119.967 E5.78096
G1 X115.705 Y120.328 E5.79881
G1 X115.259 Y120.626 E5.81665
G1 X114.774 Y120.854 E5.83447
G1 X114.26 Y121.008 E5.85232
G1 X113.588 Y121.091 E5.87484
G1 X113.267 Y121.1 E5.88552
G1 X113.166 Y121.101 E5.88888
G1 X107.165 Y121.101 E6.08847
G1 X106.467 Y121.092 E6.11169
G1 X105.932 Y121.045 E6.12955
G1 X105.411 Y120.919 E6.14738
G1 X104.914 Y120.717 E6.16523
G1 X104.453 Y120.444 E6.18305
G1 X104.037 Y120.105 E6.20089
G1 X103.676 Y119.709 E6.21872
G1 X103.378 Y119.263 E6.23656
G1 X103.15 Y118.777 E6.25441
G1 X102.997 Y118.263 E6.27225
G1 X102.914 Y117.589 E6.29484
G1 X102.905 Y117.256 E6.30592
G1 X102.904 Y117.159 E6.30914
G1 X102.904 Y103.126 E6.77588
G1 X102.913 Y102.461 E6.798
G1 X102.961 Y101.927 E6.81583
G1 X103.087 Y101.406 E6.83366
G1 X103.289 Y100.909 E6.85151
G1 X103.562 Y100.448 E6.86933
G1 X103.901 Y100.032 E6.88717
G0 F3600 X104.293 Y100.205
G1 F1500 X104.684 Y99.884 E6.904
G1 X105.121 Y99.629 E6.92083
G1 X105.592 Y99.445 E6.93765
G1 X106.086 Y99.339 E6.95445
G1 X106.423 Y99.311 E6.9657
G1 X106.744 Y99.302 E6.97638
G1 X106.834 Y99.301 E6.97937
G1 X112.835 Y99.301 E7.17897
G1 X113.533 Y99.311 E7.20218
G1 X114.036 Y99.358 E7.21899
G1 X114.526 Y99.484 E7.23582
G1 X114.99 Y99.686 E7.25265
G1 X115.416 Y99.958 E7.26946
G1 X115.794 Y100.293 E7.28626
G1 X116.114 Y100.684 E7.30306
G1 X116.369 Y101.121 E7.31989
G1 X116.552 Y101.592 E7.3367
G1 X116.659 Y102.086 E7.35351
G1 X116.686 Y102.421 E7.36469
G1 X116.695 Y102.741 E7.37533
G1 X116.696 Y102.831 E7.37833
G1 X116.696 Y116.805 E7.8431
G1 X116.687 Y117.532 E7.86729
G1 X116.641 Y118.035 E7.88409
G1 X116.516 Y118.525 E7.90091
G1 X116.315 Y118.989 E7.91772
G1 X116.044 Y119.416 E7.93454
G1 X115.709 Y119.795 E7.95137
G1 X115.319 Y120.116 E7.96817
G1 X114.883 Y120.372 E7.98499
G1 X114.412 Y120.555 E8.00179
G1 X113.918 Y120.663 E8.01861
G1 X113.577 Y120.691 E8.02999
G1 X113.256 Y120.7 E8.04067
G1 X113.166 Y120.701 E8.04366
G1 X107.17 Y120.701 E8.24309
G1 X106.472 Y120.692 E8.26631
G1 X105.968 Y120.645 E8.28315
G1 X105.478 Y120.52 E8.29996
G1 X105.014 Y120.319 E8.31678
G1 X104.588 Y120.048 E8.33358
G1 X104.209 Y119.713 E8.3504
G1 X103.888 Y119.322 E8.36723
G1 X103.633 Y118.886 E8.38403
G1 X103.449 Y118.415 E8.40084
G1 X103.342 Y117.921 E8.41766
G1 X103.314 Y117.578 E8.4291
G1 X103.305 Y117.245 E8.44018
G1 X103.304 Y117.159 E8.44304
G1 X103.304 Y103.132 E8.90958
G1 X103.313 Y102.467 E8.9317
G1 X103.36 Y101.963 E8.94854
G1 X103.486 Y101.474 E8.96533
G1 X103.687 Y101.01 E8.98215
G1 X103.958 Y100.583 E8.99897
G1 X104.293 Y100.205 E9.01577
G1 F1500 E8.01577
;MESH:8973e247-40b5-401c-a62f-e7e7c7f4beea.stl
G0 F3600 X107.118 Y101.836
G0 X107.118 Y103.115
G0 X110.439 Y106.168
G0 X110.409 Y106.263
;TYPE:WALL-INNER
G1 F1500 E9.01577
G1 X109.791 Y106.213 E9.03639
G1 X109.344 Y106.386 E9.05234
G1 X109.009 Y106.686 E9.06729
G1 X108.799 Y107.083 E9.08223
G1 X108.743 Y107.529 E9.09718
G1 X108.846 Y107.964 E9.11205
G1 X109.096 Y108.34 E9.12707
G1 X109.464 Y108.6 E9.14205
G1 X109.9 Y108.716 E9.15706
G1 X110.345 Y108.671 E9.17194
G1 X110.748 Y108.474 E9.18685
G1 X111.056 Y108.147 E9.2018
G1 X111.231 Y107.731 E9.21681
G1 X111.246 Y107.28 E9.23181
G1 X111.103 Y106.854 E9.24676
G1 X110.822 Y106.506 E9.26164
G1 X110.409 Y106.263 E9.27758
G0 F3600 X110.285 Y106.654
;TYPE:WALL-OUTER
G1 F1500 X109.85 Y106.619 E9.29209
G1 X109.556 Y106.733 E9.30258
G1 X109.329 Y106.936 E9.31271
G1 X109.187 Y107.205 E9.32282
G1 X109.149 Y107.507 E9.33295
G1 X109.219 Y107.802 E9.34303
G1 X109.388 Y108.056 E9.35318
G1 X109.637 Y108.232 E9.36332
G1 X109.932 Y108.311 E9.37348
G1 X110.234 Y108.28 E9.38358
G1 X110.507 Y108.147 E9.39368
G1 X110.715 Y107.925 E9.40379
G1 X110.834 Y107.644 E9.41394
G1 X110.844 Y107.339 E9.42409
G1 X110.747 Y107.05 E9.43423
G1 X110.556 Y106.814 E9.44433
G1 X110.285 Y106.654 E9.4548
G0 F3600 X110.086 Y106.638
G0 X110.122 Y106.201
G0 X110.127 Y106.141
G0 X111.138 Y106.835
G0 X110.439 Y111.248
G0 X110.409 Y111.343
;TYPE:WALL-INNER
G1 F1500 X109.791 Y111.293 E9.47542
G1 X109.344 Y111.466 E9.49136
G1 X109.009 Y111.766 E9.50632
G1 X108.799 Y112.161 E9.5212
G1 X108.743 Y112.608 E9.53618
G1 X108.846 Y113.044 E9.55108
G1 X109.096 Y113.42 E9.5661
G1 X109.464 Y113.68 E9.58109
G1 X109.9 Y113.796 E9.59609
G1 X110.345 Y113.751 E9.61097
G1 X110.748 Y113.554 E9.62589
G1 X111.056 Y113.227 E9.64083
G1 X111.231 Y112.811 E9.65584
G1 X111.246 Y112.361 E9.67081
G1 X111.103 Y111.935 E9.68576
G1 X110.822 Y111.586 E9.70066
G1 X110.409 Y111.343 E9.7166
G0 F3600 X110.285 Y111.734
;TYPE:WALL-OUTER
G1 F1500 X109.85 Y111.699 E9.73112
G1 X109.556 Y111.813 E9.7416
G1 X109.329 Y112.016 E9.75173
G1 X109.187 Y112.284 E9.76182
G1 X109.149 Y112.586 E9.77194
G1 X109.219 Y112.882 E9.78206
G1 X109.388 Y113.136 E9.79221
G1 X109.637 Y113.312 E9.80235
G1 X109.932 Y113.391 E9.81251
G1 X110.234 Y113.36 E9.8226
G1 X110.507 Y113.227 E9.8327
G1 X110.715 Y113.005 E9.84282
G1 X110.834 Y112.724 E9.85297
G1 X110.844 Y112.42 E9.86309
G1 X110.747 Y112.13 E9.87326
G1 X110.556 Y111.894 E9.88336
G1 X110.285 Y111.734 E9.89382
G0 F3600 X110.086 Y111.718
G0 X110.122 Y111.281
G0 X110.127 Y111.221
G0 X109.324 Y111.432
G0 X107.174 Y116.831
G0 X107.104 Y116.901
;TYPE:WALL-INNER
G1 F1500 X107.104 Y103.101 E10.35281
G1 X112.896 Y103.101 E10.54546
G1 X112.896 Y116.901 E11.00445
G1 X107.104 Y116.901 E11.19709
G0 F3600 X106.704 Y117.301
;TYPE:WALL-OUTER
G1 F1500 X106.704 Y102.701 E11.68269
G1 X113.296 Y102.701 E11.90194
G1 X113.296 Y117.301 E12.38754
G1 X106.704 Y117.301 E12.60679
G0 F3600 X106.704 Y117.101
G0 X107.144 Y116.861
G0 X107.494 Y116.511
;TYPE:SKIN
G1 F1500 X107.494 Y103.491 E13.03983
G1 X112.506 Y103.491 E13.20653
G1 X112.506 Y116.511 E13.63958
G1 X107.494 Y116.511 E13.80628
G0 F3600 X109.296 Y114.039
G1 F1500 X109.869 Y114.192 E13.82601
G1 X110.454 Y114.132 E13.84557
G1 X110.984 Y113.874 E13.86517
G1 X111.388 Y113.443 E13.88482
G1 X111.619 Y112.896 E13.90457
G1 X111.638 Y112.304 E13.92427
G1 X111.45 Y111.744 E13.94392
G1 X111.081 Y111.286 E13.96348
G1 X110.53 Y110.961 E13.98475
G1 X109.734 Y110.897 E14.01132
G1 X109.137 Y111.128 E14.03261
G1 X108.697 Y111.522 E14.05225
G1 X108.421 Y112.042 E14.07183
G1 X108.347 Y112.629 E14.09151
G1 X108.483 Y113.202 E14.1111
G1 X108.811 Y113.697 E14.13085
G1 X109.296 Y114.039 E14.15059
G0 F3600 X108.81 Y113.059
G0 X109.296 Y108.959
G1 F1500 X109.869 Y109.112 E14.17031
G1 X110.454 Y109.052 E14.18987
G1 X110.984 Y108.794 E14.20948
G1 X111.388 Y108.363 E14.22912
G1 X111.619 Y107.816 E14.24887
G1 X111.638 Y107.223 E14.26861
G1 X111.45 Y106.663 E14.28825
G1 X111.081 Y106.206 E14.30779
G1 X110.53 Y105.881 E14.32907
G1 X109.734 Y105.817 E14.35563
G1 X109.137 Y106.048 E14.37692
G1 X108.697 Y106.442 E14.39656
G1 X108.421 Y106.964 E14.4162
G1 X108.347 Y107.55 E14.43585
G1 X108.483 Y108.122 E14.4554
G1 X108.811 Y108.617 E14.47515
G1 X109.296 Y108.959 E14.49489
G0 F3600 X110.355 Y108.709
G0 X111.089 Y108.168
G0 X112.326 Y103.84
G1 F1500 X112.156 Y103.671 E14.50286
G0 F3600 X111.59 Y103.671
G1 F1500 X112.326 Y104.406 E14.53746
G0 F3600 X112.326 Y104.972
G1 F1500 X111.024 Y103.671 E14.59868
G0 F3600 X110.459 Y103.671
G1 F1500 X112.326 Y105.537 E14.68647
G0 F3600 X112.326 Y106.103
G1 F1500 X109.893 Y103.671 E14.80089
G0 F3600 X109.327 Y103.671
G1 F1500 X112.326 Y106.669 E14.94193
G0 F3600 X112.326 Y107.234
G1 F1500 X111.368 Y106.277 E14.98697
G0 F3600 X111.097 Y106.006
G1 F1500 X108.762 Y103.671 E15.0968
G0 F3600 X108.196 Y103.671
G1 F1500 X110.198 Y105.672 E15.19094
G0 F3600 X109.624 Y105.665
G1 F1500 X107.673 Y103.713 E15.28274
G0 F3600 X107.673 Y104.279
G1 F1500 X109.217 Y105.823 E15.35536
G0 F3600 X108.871 Y106.043
G1 F1500 X107.673 Y104.844 E15.41173
G0 F3600 X107.673 Y105.41
G1 F1500 X108.572 Y106.309 E15.45402
G0 F3600 X108.371 Y106.674
G1 F1500 X107.673 Y105.976 E15.48685
G0 F3600 X107.673 Y106.541
G1 F1500 X108.223 Y107.092 E15.51275
G0 F3600 X108.175 Y107.609
G1 F1500 X107.673 Y107.107 E15.53636
G0 F3600 X107.673 Y107.673
G1 F1500 X108.555 Y108.555 E15.57785
G0 F3600 X108.898 Y108.898
G1 F1500 X111.07 Y111.07 E15.68001
G0 F3600 X111.415 Y111.415
G1 F1500 X112.326 Y112.326 E15.72286
G0 F3600 X111.815 Y112.381
G1 F1500 X112.326 Y112.891 E15.74687
G0 F3600 X111.797 Y112.929
G1 F1500 X112.326 Y113.457 E15.77173
G0 F3600 X112.326 Y114.023
G1 F1500 X111.631 Y113.328 E15.80442
G0 F3600 X111.413 Y113.676
G1 F1500 X112.326 Y114.588 E15.84734
G0 F3600 X112.326 Y115.154
G1 F1500 X111.14 Y113.968 E15.90313
G0 F3600 X110.779 Y114.173
G1 F1500 X112.326 Y115.72 E15.9759
G0 F3600 X112.326 Y116.285
G1 F1500 X110.361 Y114.321 E16.0683
G0 F3600 X109.847 Y114.373
G1 F1500 X111.804 Y116.329 E16.16033
G0 F3600 X111.238 Y116.329
G1 F1500 X108.861 Y113.952 E16.27213
G0 F3600 X108.575 Y113.666
G1 F1500 X107.673 Y112.764 E16.31456
G0 F3600 X108.18 Y112.705
G1 F1500 X107.673 Y112.198 E16.33841
G0 F3600 X108.221 Y112.181
G1 F1500 X107.673 Y111.633 E16.36419
G0 F3600 X107.673 Y111.067
G1 F1500 X108.366 Y111.76 E16.39678
G0 F3600 X108.567 Y111.395
G1 F1500 X107.673 Y110.501 E16.43883
G0 F3600 X107.673 Y109.936
G1 F1500 X108.865 Y111.128 E16.4949
G0 F3600 X109.209 Y110.906
G1 F1500 X107.673 Y109.37 E16.56715
G0 F3600 X107.673 Y108.804
G1 F1500 X109.617 Y110.748 E16.65859
G0 F3600 X110.186 Y110.752
G1 F1500 X107.673 Y108.238 E16.77682
G1 X107.603 Y108.168
G0 F3600 X109.86 Y109.294
G1 F1500 X112.326 Y111.76 E16.89281
G0 F3600 X112.326 Y111.194
G1 F1500 X110.373 Y109.241 E16.98467
G0 F3600 X110.787 Y109.09
G1 F1500 X112.326 Y110.628 E17.05704
G0 F3600 X112.326 Y110.063
G1 F1500 X111.145 Y108.883 E17.11257
G0 F3600 X111.419 Y108.591
G1 F1500 X112.326 Y109.497 E17.15521
G0 F3600 X112.326 Y108.931
G1 F1500 X111.634 Y108.24 E17.18773
G0 F3600 X111.797 Y107.837
G1 F1500 X112.326 Y108.366 E17.21261
G0 F3600 X112.326 Y107.8
G1 F1500 X111.814 Y107.288 E17.2367
G0 F3600 X107.673 Y113.33
G1 F1500 X110.672 Y116.329 E17.37776
G0 F3600 X110.107 Y116.329
G1 F1500 X107.673 Y113.895 E17.49225
G0 F3600 X107.673 Y114.461
G1 F1500 X109.541 Y116.329 E17.58011
G0 F3600 X108.975 Y116.329
G1 F1500 X107.673 Y115.027 E17.64136
G0 F3600 X107.673 Y115.592
G1 F1500 X108.41 Y116.329 E17.67602
G0 F3600 X107.844 Y116.329
G1 F1500 X107.673 Y116.158 E17.68407
;MESH:NONMESH
G0 F600 X107.673 Y116.158 Z0.3
G0 F3600 X108.761 Y107.071
G0 X109.739 Y106.126
G0 X109.774 Y106.217
;TIME_ELAPSED:27.523814
;LAYER:1
M140 S55
;TYPE:WALL-INNER
;MESH:8973e247-40b5-401c-a62f-e7e7c7f4beea.stl
G1 F2250 X109.33 Y106.395 E17.69202
G1 X108.999 Y106.699 E17.69949
G1 X108.795 Y107.098 E17.70695
G1 X108.744 Y107.544 E17.71441
G1 X108.854 Y107.981 E17.72191
G1 X109.11 Y108.35 E17.72937
G1 X109.479 Y108.606 E17.73684
G1 X109.914 Y108.717 E17.74431
G1 X110.361 Y108.666 E17.75179
G1 X110.762 Y108.463 E17.75927
G1 X111.065 Y108.131 E17.76674
G1 X111.233 Y107.715 E17.7742
G1 X111.244 Y107.264 E17.7817
G1 X111.095 Y106.841 E17.78916
G1 X110.808 Y106.494 E17.79665
G1 X110.391 Y106.258 E17.80462
G1 X109.774 Y106.217 E17.8149
G0 F5400 X109.838 Y106.622
;TYPE:WALL-OUTER
G1 F1500 X109.547 Y106.739 E17.82012
G1 X109.322 Y106.945 E17.82519
G1 X109.184 Y107.215 E17.83023
G1 X109.15 Y107.517 E17.83529
G1 X109.224 Y107.813 E17.84036
G1 X109.397 Y108.063 E17.84542
G1 X109.647 Y108.236 E17.85047
