;FLAVOR:Marlin
;TIME:2891
;Filament used: 0m, 1.28793m
;Layer height: 0.1
;MINX:76.46
;MINY:85.35
;MINZ:0.2
;MAXX:143.54
;MAXY:134.648
;MAXZ:6
;Generated with Cura_SteamEngine 4.4.1
T1
M140 S65
M105
M190 S65
M104 S200
M105
M109 S200
M82 ;absolute extrusion mode
G28 ;Home
G1 Z15.0 F6000 ;Move the platform down 15mm
;Prime the extruder
G92 E0
G1 F200 E3
G92 E0
G92 E0
t1
G92 E0
G1 F1500 E-1
;LAYER_COUNT:59
;LAYER:0
M106 S255
G0 F3600 X81.062 Y87.635 Z0.2
;TYPE:SKIRT
G1 F1500 E0
G1 X81.648 Y87.105 E0.02628
G1 X82.284 Y86.638 E0.05252
G1 X82.964 Y86.237 E0.07878
G1 X83.682 Y85.907 E0.10506
G1 X84.429 Y85.652 E0.13132
G1 X85.198 Y85.473 E0.15758
G1 X85.982 Y85.373 E0.18386
G1 X86.577 Y85.35 E0.20367
G1 X95.311 Y85.35 E0.49416
G1 X96.1 Y85.39 E0.52044
G1 X96.88 Y85.509 E0.54668
G1 X97.645 Y85.707 E0.57296
G1 X98.385 Y85.981 E0.59921
G1 X99.094 Y86.329 E0.62548
G1 X99.765 Y86.747 E0.65177
G1 X100.338 Y87.19 E0.67586
G1 X117.553 Y87.191 E1.24843
G1 X117.648 Y87.105 E1.2527
G1 X118.284 Y86.638 E1.27894
G1 X118.964 Y86.237 E1.3052
G1 X119.682 Y85.907 E1.33148
G1 X120.429 Y85.652 E1.35773
G1 X121.198 Y85.473 E1.38399
G1 X121.982 Y85.373 E1.41028
G1 X122.577 Y85.35 E1.43008
G1 X123.41 Y85.35 E1.45779
G1 X124.199 Y85.39 E1.48407
G1 X124.979 Y85.509 E1.51031
G1 X125.744 Y85.707 E1.53659
G1 X126.484 Y85.981 E1.56284
G1 X127.193 Y86.329 E1.58911
G1 X127.864 Y86.747 E1.6154
G1 X128.488 Y87.23 E1.64164
G1 X129.061 Y87.773 E1.6679
G1 X129.576 Y88.372 E1.69417
G1 X129.922 Y88.856 E1.71396
G1 X142.235 Y107.531 E2.45795
G1 X142.636 Y108.212 E2.48424
G1 X142.966 Y108.929 E2.51049
G1 X143.221 Y109.677 E2.53678
G1 X143.4 Y110.446 E2.56304
G1 X143.5 Y111.229 E2.58929
G1 X143.523 Y111.788 E2.6079
G1 X143.54 Y115.396 E2.7279
G1 X143.504 Y116.185 E2.75417
G1 X143.388 Y116.966 E2.78043
G1 X143.194 Y117.732 E2.80672
G1 X142.923 Y118.474 E2.83299
G1 X142.579 Y119.184 E2.85923
G1 X142.39 Y119.489 E2.87116
G1 X142.619 Y119.869 E2.88592
G1 X142.956 Y120.584 E2.91221
G1 X143.218 Y121.329 E2.93848
G1 X143.404 Y122.096 E2.96473
G1 X143.511 Y122.878 E2.99098
G1 X143.54 Y123.546 E3.01322
G1 X143.54 Y124.359 E3.04026
G1 X143.519 Y124.934 E3.05939
G1 X143.491 Y125.313 E3.07203
G1 X143.393 Y126.096 E3.09828
G1 X143.24 Y126.78 E3.12159
G1 X143.109 Y127.263 E3.13824
G1 X142.864 Y128.013 E3.16448
G1 X142.642 Y128.534 E3.18332
G1 X142.459 Y128.924 E3.19764
G1 X142.088 Y129.621 E3.22391
G1 X141.79 Y130.082 E3.24216
G1 X141.548 Y130.428 E3.25621
G1 X141.063 Y131.051 E3.28247
G1 X140.645 Y131.498 E3.30282
G1 X140.324 Y131.816 E3.31785
G1 X139.736 Y132.343 E3.34411
G1 X139.328 Y132.651 E3.36112
G1 X139.003 Y132.88 E3.37434
G1 X138.335 Y133.302 E3.40062
G1 X137.834 Y133.56 E3.41936
G1 X137.42 Y133.755 E3.43458
G1 X136.689 Y134.055 E3.46086
G1 X136.081 Y134.242 E3.48202
G1 X135.644 Y134.357 E3.49705
G1 X134.871 Y134.519 E3.52332
G1 X134.356 Y134.583 E3.54058
G1 X133.966 Y134.618 E3.5536
G1 X133.177 Y134.648 E3.57986
G1 X132.649 Y134.624 E3.59744
G1 X132.185 Y134.587 E3.61293
G1 X131.402 Y134.485 E3.63919
G1 X130.745 Y134.335 E3.6616
G1 X130.325 Y134.22 E3.67609
G1 X129.575 Y133.973 E3.70235
G1 X129.062 Y133.754 E3.7209
G1 X128.65 Y133.56 E3.73605
G1 X127.954 Y133.188 E3.7623
G1 X127.48 Y132.879 E3.78112
G1 X127.121 Y132.626 E3.79572
G1 X126.499 Y132.139 E3.822
G1 X126.043 Y131.709 E3.84284
G1 X125.752 Y131.412 E3.85667
G1 X125.228 Y130.821 E3.88294
G1 X124.916 Y130.401 E3.90035
G1 X124.673 Y130.051 E3.91452
G1 X124.256 Y129.381 E3.94076
G1 X123.98 Y128.833 E3.96117
G1 X123.753 Y128.334 E3.97941
G1 X123.524 Y127.773 E3.99956
G1 X122.958 Y126.219 E4.05457
G1 X122.726 Y125.465 E4.08081
G1 X122.571 Y124.69 E4.10709
G1 X122.495 Y123.904 E4.13336
G1 X122.498 Y123.35 E4.15178
G1 X116.505 Y123.35 E4.35111
G1 X116.505 Y123.938 E4.37067
G1 X116.426 Y124.724 E4.39694
G1 X116.268 Y125.497 E4.42318
G1 X116.047 Y126.212 E4.44808
G1 X115.495 Y127.732 E4.50186
G1 X115.282 Y128.258 E4.52074
G1 X115.042 Y128.794 E4.54027
G1 X114.683 Y129.497 E4.56652
G1 X114.253 Y130.164 E4.59292
G1 X114.001 Y130.514 E4.60726
G1 X113.508 Y131.13 E4.6335
G1 X113.186 Y131.471 E4.6491
G1 X112.87 Y131.787 E4.66397
G1 X112.284 Y132.317 E4.69025
G1 X111.828 Y132.662 E4.70927
G1 X111.488 Y132.9 E4.72307
G1 X110.819 Y133.32 E4.74934
G1 X110.307 Y133.581 E4.76846
G1 X109.901 Y133.77 E4.78335
G1 X109.169 Y134.067 E4.80963
G1 X108.622 Y134.235 E4.82866
G1 X108.184 Y134.352 E4.84374
G1 X107.412 Y134.517 E4.86999
G1 X106.855 Y134.586 E4.88866
G1 X106.48 Y134.619 E4.90118
G1 X105.691 Y134.648 E4.92744
G1 X105.185 Y134.625 E4.94429
G1 X104.701 Y134.587 E4.96044
G1 X103.918 Y134.485 E4.9867
G1 X103.26 Y134.336 E5.00914
G1 X102.842 Y134.222 E5.02355
G1 X102.091 Y133.976 E5.04983
G1 X101.574 Y133.755 E5.06853
G1 X101.202 Y133.58 E5.08221
G1 X100.505 Y133.208 E5.10848
G1 X99.992 Y132.871 E5.1289
G1 X99.615 Y132.602 E5.1443
G1 X98.996 Y132.112 E5.17056
G1 X98.63 Y131.768 E5.18727
G1 X98.324 Y131.462 E5.20166
G1 X97.794 Y130.876 E5.22794
G1 X97.447 Y130.418 E5.24705
G1 X97.198 Y130.062 E5.2615
G1 X96.779 Y129.392 E5.28778
G1 X96.5 Y128.843 E5.30827
G1 X96.317 Y128.444 E5.32287
G1 X96.26 Y128.304 E5.32789
G1 X96.207 Y128.43 E5.33244
G1 X95.985 Y128.909 E5.35
G1 X95.617 Y129.608 E5.37627
G1 X95.276 Y130.133 E5.39709
G1 X95.061 Y130.437 E5.40948
G1 X94.573 Y131.058 E5.43575
G1 X94.17 Y131.486 E5.4553
G1 X93.806 Y131.845 E5.47231
G1 X93.217 Y132.371 E5.49857
G1 X92.809 Y132.677 E5.51553
G1 X92.514 Y132.884 E5.52752
G1 X91.846 Y133.304 E5.55376
G1 X91.377 Y133.546 E5.57132
G1 X90.947 Y133.75 E5.58715
G1 X90.218 Y134.052 E5.61339
G1 X89.579 Y134.249 E5.63563
G1 X89.155 Y134.36 E5.65021
G1 X88.382 Y134.521 E5.67647
G1 X87.877 Y134.583 E5.69339
G1 X87.487 Y134.618 E5.70642
G1 X86.698 Y134.648 E5.73268
G1 X86.174 Y134.625 E5.75012
G1 X85.694 Y134.587 E5.76614
G1 X84.911 Y134.485 E5.7924
G1 X84.262 Y134.337 E5.81454
G1 X83.865 Y134.229 E5.82822
G1 X83.115 Y133.984 E5.85447
G1 X82.574 Y133.752 E5.87405
G1 X82.156 Y133.554 E5.88943
G1 X81.46 Y133.18 E5.91571
G1 X80.921 Y132.823 E5.93721
G1 X80.584 Y132.579 E5.95105
G1 X79.968 Y132.084 E5.97733
G1 X79.651 Y131.785 E5.99183
G1 X79.327 Y131.462 E6.00704
G1 X78.797 Y130.877 E6.0333
G1 X78.457 Y130.43 E6.05198
G1 X78.221 Y130.095 E6.06561
G1 X77.8 Y129.427 E6.09187
G1 X77.54 Y128.923 E6.11073
G1 X77.349 Y128.517 E6.12565
G1 X77.049 Y127.787 E6.1519
G1 X76.847 Y127.119 E6.17512
G1 X76.742 Y126.706 E6.18929
G1 X76.587 Y125.932 E6.21554
G1 X76.53 Y125.441 E6.23198
G1 X76.488 Y124.944 E6.24857
G1 X76.46 Y124.287 E6.27045
G1 X76.46 Y123.544 E6.29516
G1 X76.5 Y122.755 E6.32143
G1 X76.619 Y121.975 E6.34768
G1 X76.817 Y121.21 E6.37396
G1 X77.091 Y120.47 E6.4002
G1 X77.439 Y119.761 E6.42647
G1 X77.608 Y119.489 E6.43712
G1 X77.347 Y119.046 E6.45423
G1 X77.017 Y118.328 E6.48051
G1 X76.762 Y117.581 E6.50676
G1 X76.583 Y116.812 E6.53302
G1 X76.483 Y116.028 E6.55931
G1 X76.46 Y115.433 E6.57911
G1 X76.46 Y109.745 E6.7683
G1 X76.5 Y108.956 E6.79457
G1 X76.619 Y108.176 E6.82082
G1 X76.817 Y107.411 E6.8471
G1 X77.091 Y106.671 E6.87334
G1 X77.439 Y105.962 E6.89961
G1 X77.857 Y105.291 E6.92591
G1 X78.188 Y104.863 E6.9439
G1 X78.189 Y94.994 E7.27215
G1 X78.229 Y94.206 E7.29839
G1 X78.349 Y93.425 E7.32467
G1 X78.546 Y92.661 E7.35091
G1 X78.76 Y92.084 E7.37138
G1 X78.819 Y91.698 E7.38437
G1 X79.017 Y90.933 E7.41065
G1 X79.291 Y90.193 E7.4369
G1 X79.639 Y89.484 E7.46317
G1 X80.057 Y88.813 E7.48946
G1 X80.54 Y88.189 E7.5157
G1 X80.945 Y87.752 E7.53552
G1 X81.062 Y87.635 E7.54102
G0 F3600 X81.344 Y87.917
G1 F1500 X81.916 Y87.403 E7.5666
G1 X82.538 Y86.95 E7.59219
G1 X83.203 Y86.564 E7.61777
G1 X83.905 Y86.249 E7.64336
G1 X84.636 Y86.009 E7.66895
G1 X85.387 Y85.846 E7.69451
G1 X86.152 Y85.762 E7.72011
G1 X86.577 Y85.75 E7.73425
G1 X95.311 Y85.75 E8.02474
G1 X96.079 Y85.79 E8.05032
G1 X96.839 Y85.909 E8.07591
G1 X97.582 Y86.107 E8.10148
G1 X98.301 Y86.381 E8.12707
G1 X98.987 Y86.728 E8.15264
G1 X99.634 Y87.144 E8.17823
G1 X100.191 Y87.59 E8.20196
G1 X117.707 Y87.591 E8.78454
G1 X117.916 Y87.403 E8.79389
G1 X118.538 Y86.95 E8.81949
G1 X119.203 Y86.564 E8.84506
G1 X119.905 Y86.249 E8.87065
G1 X120.636 Y86.009 E8.89624
G1 X121.387 Y85.846 E8.9218
G1 X122.152 Y85.762 E8.9474
G1 X122.577 Y85.75 E8.96154
G1 X123.41 Y85.75 E8.98925
G1 X124.178 Y85.79 E9.01482
G1 X124.938 Y85.909 E9.04041
G1 X125.681 Y86.107 E9.06598
G1 X126.4 Y86.381 E9.09158
G1 X127.086 Y86.728 E9.11715
G1 X127.733 Y87.144 E9.14273
G1 X128.333 Y87.625 E9.16831
G1 X128.88 Y88.166 E9.19389
G1 X129.368 Y88.761 E9.21949
G1 X129.588 Y89.077 E9.2323
G1 X141.901 Y107.752 E9.97629
G1 X142.29 Y108.415 E10.00185
G1 X142.609 Y109.115 E10.02744
G1 X142.853 Y109.844 E10.05301
G1 X143.02 Y110.595 E10.0786
G1 X143.108 Y111.359 E10.10418
G1 X143.123 Y111.79 E10.11852
G1 X143.14 Y115.398 E10.23852
G1 X143.104 Y116.166 E10.26409
G1 X142.988 Y116.927 E10.2897
G1 X142.793 Y117.671 E10.31528
G1 X142.523 Y118.391 E10.34086
G1 X142.179 Y119.079 E10.36644
G1 X141.92 Y119.485 E10.38246
G1 X141.99 Y119.583 E10.38646
G1 X142.367 Y120.253 E10.41203
G1 X142.673 Y120.959 E10.43762
G1 X142.904 Y121.693 E10.46322
G1 X143.058 Y122.446 E10.48878
G1 X143.14 Y123.546 E10.52547
G1 X143.14 Y124.359 E10.55251
G1 X143.12 Y124.904 E10.57065
G1 X143.092 Y125.283 E10.58329
G1 X142.995 Y126.046 E10.60887
G1 X142.854 Y126.675 E10.63031
G1 X142.723 Y127.158 E10.64695
G1 X142.483 Y127.889 E10.67254
G1 X142.28 Y128.364 E10.68973
G1 X142.097 Y128.754 E10.70405
G1 X141.735 Y129.433 E10.72965
G1 X141.462 Y129.852 E10.74628
G1 X141.22 Y130.198 E10.76032
G1 X140.747 Y130.805 E10.78592
G1 X140.364 Y131.214 E10.80455
G1 X140.043 Y131.532 E10.81958
G1 X139.469 Y132.044 E10.84517
G1 X139.097 Y132.324 E10.86065
G1 X138.772 Y132.553 E10.87387
G1 X138.121 Y132.963 E10.89946
G1 X137.663 Y133.199 E10.9166
G1 X137.249 Y133.394 E10.93182
G1 X136.537 Y133.685 E10.9574
G1 X135.979 Y133.855 E10.97681
G1 X135.542 Y133.97 E10.99183
G1 X134.789 Y134.127 E11.01742
G1 X134.32 Y134.184 E11.03313
G1 X133.93 Y134.219 E11.04616
G1 X133.162 Y134.248 E11.07172
G1 X132.681 Y134.226 E11.08773
G1 X132.217 Y134.189 E11.10321
G1 X131.454 Y134.088 E11.12881
G1 X130.851 Y133.949 E11.14939
G1 X130.431 Y133.834 E11.16388
G1 X129.7 Y133.593 E11.18948
G1 X129.233 Y133.392 E11.20639
G1 X128.821 Y133.198 E11.22153
G1 X128.143 Y132.835 E11.24711
G1 X127.71 Y132.552 E11.26432
G1 X127.351 Y132.299 E11.27893
G1 X126.746 Y131.824 E11.30451
G1 X126.328 Y131.429 E11.32364
G1 X126.037 Y131.132 E11.33747
G1 X125.528 Y130.555 E11.36306
G1 X125.244 Y130.173 E11.37889
G1 X125.001 Y129.823 E11.39306
G1 X124.596 Y129.17 E11.41862
G1 X124.344 Y128.667 E11.43733
G1 X124.117 Y128.168 E11.45556
G1 X123.9 Y127.636 E11.47467
G1 X123.334 Y126.082 E11.52968
G1 X123.109 Y125.347 E11.55525
G1 X122.961 Y124.592 E11.58084
G1 X122.892 Y123.826 E11.60642
G1 X122.903 Y123.057 E11.632
G1 X122.916 Y122.95 E11.63558
G1 X116.082 Y122.95 E11.86288
G1 X116.115 Y123.469 E11.88018
G1 X116.083 Y124.237 E11.90574
G1 X115.972 Y124.998 E11.93132
G1 X115.671 Y126.076 E11.96855
G1 X115.119 Y127.596 E12.02234
G1 X114.917 Y128.094 E12.04021
G1 X114.677 Y128.63 E12.05974
G1 X114.326 Y129.315 E12.08534
G1 X113.928 Y129.93 E12.10971
G1 X113.676 Y130.28 E12.12405
G1 X113.195 Y130.88 E12.14963
G1 X112.904 Y131.189 E12.16375
G1 X112.588 Y131.505 E12.17861
G1 X112.016 Y132.019 E12.20419
G1 X111.599 Y132.334 E12.22157
G1 X111.259 Y132.572 E12.23537
G1 X110.606 Y132.98 E12.26098
G1 X110.138 Y133.219 E12.27846
G1 X109.732 Y133.408 E12.29336
G1 X109.019 Y133.696 E12.31893
G1 X108.519 Y133.848 E12.33631
G1 X108.081 Y133.965 E12.35139
G1 X107.328 Y134.125 E12.377
G1 X106.82 Y134.188 E12.39402
G1 X106.445 Y134.221 E12.40654
G1 X105.676 Y134.248 E12.43214
G1 X105.217 Y134.226 E12.44742
G1 X104.733 Y134.188 E12.46357
G1 X103.97 Y134.088 E12.48916
G1 X103.365 Y133.95 E12.5098
G1 X102.947 Y133.836 E12.52421
G1 X102.216 Y133.596 E12.5498
G1 X101.744 Y133.393 E12.56689
G1 X101.372 Y133.218 E12.58056
G1 X100.694 Y132.855 E12.60614
G1 X100.224 Y132.546 E12.62485
G1 X99.847 Y132.277 E12.64025
G1 X99.245 Y131.798 E12.66584
G1 X98.912 Y131.486 E12.68102
G1 X98.606 Y131.18 E12.69541
G1 X98.092 Y130.608 E12.72099
G1 X97.775 Y130.188 E12.73849
G1 X97.526 Y129.832 E12.75294
G1 X97.119 Y129.18 E12.77851
G1 X96.864 Y128.676 E12.79729
G1 X96.681 Y128.277 E12.81189
G1 X96.454 Y127.724 E12.83177
G1 X96.263 Y127.198 E12.85039
G1 X96.072 Y127.714 E12.86869
G1 X95.844 Y128.262 E12.88843
G1 X95.622 Y128.741 E12.90599
G1 X95.263 Y129.421 E12.93156
G1 X94.95 Y129.902 E12.95065
G1 X94.735 Y130.206 E12.96303
G1 X94.259 Y130.81 E12.98861
G1 X93.889 Y131.202 E13.00654
G1 X93.525 Y131.561 E13.02354
G1 X92.95 Y132.072 E13.04913
G1 X92.58 Y132.349 E13.0645
G1 X92.285 Y132.556 E13.07649
G1 X91.633 Y132.965 E13.10209
G1 X91.206 Y133.185 E13.11806
G1 X90.776 Y133.389 E13.13389
G1 X90.065 Y133.682 E13.15947
G1 X89.478 Y133.862 E13.17989
G1 X89.054 Y133.973 E13.19447
G1 X88.301 Y134.129 E13.22005
G1 X87.841 Y134.184 E13.23546
G1 X87.451 Y134.219 E13.24848
G1 X86.683 Y134.248 E13.27404
G1 X86.206 Y134.226 E13.28992
G1 X85.726 Y134.188 E13.30594
G1 X84.963 Y134.087 E13.33154
G1 X84.367 Y133.951 E13.35187
G1 X83.97 Y133.843 E13.36555
G1 X83.24 Y133.603 E13.39111
G1 X82.745 Y133.391 E13.40902
G1 X82.327 Y133.193 E13.42441
G1 X81.65 Y132.828 E13.44999
G1 X81.155 Y132.499 E13.46976
G1 X80.818 Y132.255 E13.48359
G1 X80.22 Y131.772 E13.50916
G1 X79.934 Y131.502 E13.52224
G1 X79.61 Y131.179 E13.53746
G1 X79.094 Y130.608 E13.56306
G1 X78.784 Y130.2 E13.5801
G1 X78.548 Y129.865 E13.59373
G1 X78.139 Y129.214 E13.6193
G1 X77.902 Y128.753 E13.63654
G1 X77.711 Y128.347 E13.65146
G1 X77.42 Y127.635 E13.67705
G1 X77.235 Y127.02 E13.69841
G1 X77.13 Y126.607 E13.71258
G1 X76.98 Y125.853 E13.73815
G1 X76.928 Y125.407 E13.75308
G1 X76.886 Y124.91 E13.76967
G1 X76.86 Y124.287 E13.79041
G1 X76.86 Y123.544 E13.81512
G1 X76.9 Y122.776 E13.8407
G1 X77.019 Y122.016 E13.86629
G1 X77.217 Y121.273 E13.89186
G1 X77.491 Y120.554 E13.91745
G1 X77.838 Y119.868 E13.94302
G1 X78.077 Y119.496 E13.95773
G1 X78.06 Y119.472 E13.95871
G1 X77.674 Y118.807 E13.98428
G1 X77.359 Y118.105 E14.00987
G1 X77.119 Y117.374 E14.03546
G1 X76.956 Y116.623 E14.06102
G1 X76.872 Y115.858 E14.08662
G1 X76.86 Y115.433 E14.10076
G1 X76.86 Y109.745 E14.28995
G1 X76.9 Y108.977 E14.31552
G1 X77.019 Y108.217 E14.34111
G1 X77.217 Y107.474 E14.36668
G1 X77.491 Y106.755 E14.39228
G1 X77.838 Y106.069 E14.41785
G1 X78.254 Y105.422 E14.44343
G1 X78.588 Y105.005 E14.4612
G1 X78.589 Y94.994 E14.79417
G1 X78.629 Y94.226 E14.81974
G1 X78.749 Y93.467 E14.8453
G1 X78.946 Y92.723 E14.8709
G1 X79.148 Y92.195 E14.8897
G1 X79.219 Y91.739 E14.90505
G1 X79.417 Y90.996 E14.93063
G1 X79.691 Y90.277 E14.95622
G1 X80.038 Y89.591 E14.98179
G1 X80.454 Y88.944 E15.00737
G1 X80.935 Y88.344 E15.03295
G1 X81.227 Y88.034 E15.04711
G1 X81.344 Y87.917 E15.05262
G0 F3600 X81.627 Y88.2
G1 F1500 X82.184 Y87.7 E15.07751
G1 X82.79 Y87.263 E15.10236
G1 X83.44 Y86.892 E15.12725
G1 X84.126 Y86.593 E15.15214
G1 X84.84 Y86.369 E15.17703
G1 X85.573 Y86.222 E15.2019
G1 X86.577 Y86.15 E15.23538
G1 X95.311 Y86.15 E15.52587
G1 X96.058 Y86.19 E15.55075
G1 X96.796 Y86.309 E15.57562
G1 X97.518 Y86.507 E15.60052
G1 X98.214 Y86.78 E15.62538
G1 X98.877 Y87.127 E15.65027
G1 X99.5 Y87.542 E15.67517
G1 X100.018 Y87.99 E15.69795
G1 X117.86 Y87.991 E16.29137
G1 X118.184 Y87.7 E16.30586
G1 X118.79 Y87.263 E16.33071
G1 X119.44 Y86.892 E16.3556
G1 X120.126 Y86.593 E16.38049
G1 X120.84 Y86.369 E16.40538
G1 X121.573 Y86.222 E16.43024
G1 X122.577 Y86.15 E16.46372
G1 X123.41 Y86.15 E16.49143
G1 X124.157 Y86.19 E16.51631
G1 X124.895 Y86.309 E16.54117
G1 X125.617 Y86.507 E16.56607
G1 X126.313 Y86.78 E16.59094
G1 X126.976 Y87.127 E16.61583
G1 X127.599 Y87.542 E16.64073
G1 X128.173 Y88.021 E16.66559
G1 X128.694 Y88.558 E16.69048
G1 X129.254 Y89.297 E16.72132
G1 X141.567 Y107.972 E17.46531
G1 X141.945 Y108.617 E17.49017
G1 X142.252 Y109.3 E17.51508
G1 X142.484 Y110.011 E17.53995
G1 X142.639 Y110.743 E17.56484
G1 X142.723 Y111.792 E17.59984
G1 X142.74 Y115.4 E17.71985
G1 X142.703 Y116.147 E17.74472
G1 X142.587 Y116.886 E17.7696
