;FLAVOR:Marlin
;TIME:3211
;Filament used: 0m, 1.39528m
;Layer height: 0.1
;MINX:62.727
;MINY:85.35
;MINZ:0.2
;MAXX:157.285
;MAXY:134.65
;MAXZ:9.3
;Generated with Cura_SteamEngine 4.4.1
T1
M140 S65
M105
M190 S65
M104 S200
M105
M109 S200
M82 ;absolute extrusion mode
G28 ;Home
G1 Z15.0 F6000 ;Move the platform down 15mm
;Prime the extruder
G92 E0
G1 F200 E3
G92 E0
G92 E0
t1
G92 E0
G1 F1500 E-1
;LAYER_COUNT:92
;LAYER:0
M106 S255
G0 F3600 X65.989 Y99.329 Z0.2
;TYPE:SKIRT
G1 F1500 E0
G1 X66.654 Y98.903 E0.02627
G1 X67.358 Y98.547 E0.05251
G1 X68.096 Y98.264 E0.07879
G1 X68.858 Y98.056 E0.10507
G1 X69.637 Y97.927 E0.13133
G1 X70.425 Y97.878 E0.15759
G1 X71.214 Y97.908 E0.18385
G1 X72.343 Y98.093 E0.2219
G1 X73.217 Y98.303 E0.2518
G1 X73.284 Y98.319 E0.25409
G1 X75.028 Y98.754 E0.31387
G1 X94.144 Y103.518 E0.96912
G1 X103.757 Y88.87 E1.55186
G1 X104.223 Y88.233 E1.57811
G1 X104.751 Y87.646 E1.60437
G1 X105.336 Y87.115 E1.63065
G1 X105.972 Y86.647 E1.65691
G1 X106.651 Y86.244 E1.68317
G1 X107.368 Y85.913 E1.70944
G1 X108.115 Y85.656 E1.73571
G1 X108.883 Y85.476 E1.76195
G1 X109.667 Y85.374 E1.78824
G1 X110.278 Y85.35 E1.80858
G1 X149.485 Y85.35 E3.11261
G1 X150.274 Y85.39 E3.13889
G1 X151.054 Y85.509 E3.16513
G1 X151.819 Y85.707 E3.19141
G1 X152.559 Y85.981 E3.21766
G1 X153.268 Y86.329 E3.24393
G1 X153.939 Y86.747 E3.27022
G1 X154.563 Y87.23 E3.29647
G1 X155.136 Y87.773 E3.32272
G1 X155.651 Y88.372 E3.349
G1 X156.102 Y89.02 E3.37526
G1 X156.486 Y89.711 E3.40155
G1 X156.798 Y90.436 E3.4278
G1 X157.035 Y91.189 E3.45406
G1 X157.194 Y91.963 E3.48034
G1 X157.275 Y92.748 E3.50659
G1 X157.285 Y93.15 E3.51996
G1 X157.285 Y124.07 E4.54836
G1 X157.269 Y124.562 E4.56474
G1 X157.22 Y125.338 E4.5906
G1 X157.131 Y126.122 E4.61684
G1 X156.869 Y127.212 E4.65413
G1 X156.714 Y127.699 E4.67112
G1 X156.436 Y128.438 E4.69739
G1 X156.115 Y129.093 E4.72165
G1 X155.874 Y129.531 E4.73827
G1 X155.459 Y130.203 E4.76454
G1 X154.987 Y130.819 E4.79035
G1 X154.667 Y131.196 E4.8068
G1 X154.126 Y131.771 E4.83306
G1 X153.554 Y132.269 E4.85829
G1 X153.164 Y132.577 E4.87481
G1 X152.521 Y133.035 E4.90107
G1 X151.843 Y133.42 E4.927
G1 X151.395 Y133.646 E4.94369
G1 X150.673 Y133.966 E4.96996
G1 X149.948 Y134.204 E4.99534
G1 X149.471 Y134.335 E5.01179
G1 X148.7 Y134.505 E5.03805
G1 X147.937 Y134.595 E5.0636
G1 X147.44 Y134.629 E5.08017
G1 X146.651 Y134.643 E5.10642
G1 X145.89 Y134.58 E5.13182
G1 X145.396 Y134.515 E5.14839
G1 X144.62 Y134.373 E5.17463
G1 X143.882 Y134.16 E5.20018
G1 X143.41 Y133.998 E5.21677
G1 X142.677 Y133.704 E5.24304
G1 X141.996 Y133.348 E5.2686
G1 X141.568 Y133.097 E5.2851
G1 X140.908 Y132.664 E5.31136
G1 X140.321 Y132.189 E5.33647
G1 X139.95 Y131.858 E5.35301
G1 X139.388 Y131.303 E5.37928
G1 X138.931 Y130.75 E5.40314
G1 X136.042 Y130.75 E5.49923
G1 X136.009 Y130.793 E5.50103
G1 X135.499 Y131.396 E5.5273
G1 X134.889 Y131.982 E5.55543
G1 X134.504 Y132.313 E5.57232
G1 X133.88 Y132.796 E5.59856
G1 X133.224 Y133.207 E5.62431
G1 X132.782 Y133.454 E5.64115
G1 X132.074 Y133.804 E5.66742
G1 X131.324 Y134.084 E5.69405
G1 X130.839 Y134.237 E5.71096
G1 X130.074 Y134.436 E5.73725
G1 X129.288 Y134.557 E5.7637
G1 X128.781 Y134.609 E5.78066
G1 X127.992 Y134.65 E5.80693
G1 X127.188 Y134.609 E5.83371
G1 X126.682 Y134.557 E5.85063
G1 X125.901 Y134.437 E5.87691
G1 X125.137 Y134.238 E5.90317
G1 X124.651 Y134.085 E5.92011
G1 X123.911 Y133.81 E5.94637
G1 X123.188 Y133.454 E5.97317
G1 X122.746 Y133.207 E5.99001
G1 X122.077 Y132.787 E6.01629
G1 X121.458 Y132.306 E6.04236
G1 X121.074 Y131.975 E6.05922
G1 X120.503 Y131.43 E6.08548
G1 X119.979 Y130.815 E6.11235
G1 X119.669 Y130.411 E6.12929
G1 X119.22 Y129.761 E6.15556
G1 X118.829 Y129.047 E6.18264
G1 X118.608 Y128.588 E6.19958
G1 X118.307 Y127.872 E6.22541
G1 X116.952 Y124.15 E6.35716
G1 X111.54 Y124.15 E6.53716
G1 X110.319 Y127.506 E6.65594
G1 X110.157 Y127.916 E6.6706
G1 X109.808 Y128.729 E6.70003
G1 X109.46 Y129.438 E6.7263
G1 X108.833 Y130.395 E6.76435
G1 X108.519 Y130.805 E6.78153
G1 X108.007 Y131.406 E6.80779
G1 X107.443 Y131.949 E6.83383
G1 X107.068 Y132.275 E6.85035
G1 X106.447 Y132.762 E6.8766
G1 X105.812 Y133.165 E6.90162
G1 X105.382 Y133.41 E6.91808
G1 X104.677 Y133.766 E6.94434
G1 X103.955 Y134.044 E6.97008
G1 X103.48 Y134.2 E6.98671
G1 X102.718 Y134.408 E7.01298
G1 X101.971 Y134.534 E7.03817
G1 X101.477 Y134.593 E7.05472
G1 X100.689 Y134.647 E7.08099
G1 X99.925 Y134.623 E7.10641
G1 X99.429 Y134.583 E7.12296
G1 X98.646 Y134.48 E7.14923
G1 X97.903 Y134.305 E7.17462
G1 X97.426 Y134.168 E7.19113
G1 X96.679 Y133.912 E7.21739
G1 X95.972 Y133.587 E7.24327
G1 X95.531 Y133.357 E7.25981
G1 X94.85 Y132.957 E7.28608
G1 X94.229 Y132.503 E7.31167
G1 X93.84 Y132.188 E7.32832
G1 X93.253 Y131.66 E7.35458
G1 X92.753 Y131.115 E7.37918
G1 X92.436 Y130.734 E7.39566
G1 X91.962 Y130.102 E7.42194
G1 X91.558 Y129.432 E7.44796
G1 X91.322 Y128.992 E7.46456
G1 X90.985 Y128.278 E7.49082
G1 X90.727 Y127.554 E7.51639
G1 X90.584 Y127.079 E7.53289
G1 X90.395 Y126.312 E7.55916
G1 X90.268 Y125.312 E7.59269
G1 X90.227 Y124.65 E7.61475
G1 X89.587 Y124.65 E7.63603
G1 X89.237 Y124.642 E7.64768
G1 X88.68 Y124.617 E7.66622
G1 X87.996 Y124.556 E7.68906
G1 X87.413 Y124.478 E7.70863
G1 X87.036 Y124.418 E7.72132
G1 X86.487 Y124.317 E7.73989
G1 X86.214 Y124.262 E7.74915
G1 X85.635 Y124.134 E7.76888
G1 X85.436 Y124.087 E7.77568
G1 X84.841 Y123.939 E7.79607
G1 X84.669 Y123.895 E7.80197
G1 X84.116 Y123.744 E7.82104
G1 X83.949 Y123.696 E7.82682
G1 X83.202 Y123.474 E7.85274
G1 X83.019 Y123.417 E7.85911
G1 X82.334 Y123.195 E7.88306
G1 X82.149 Y123.132 E7.88956
G1 X81.527 Y122.913 E7.9115
G1 X81.394 Y122.865 E7.9162
G1 X80.578 Y122.561 E7.94516
G1 X80.371 Y122.481 E7.95254
G1 X79.537 Y122.143 E7.98247
G1 X79.251 Y122.02 E7.99283
G1 X77.773 Y121.351 E8.04679
G1 X77.389 Y121.165 E8.06098
G1 X75.934 Y120.408 E8.11553
G1 X75.538 Y120.187 E8.13061
G1 X74.145 Y119.356 E8.18456
G1 X73.752 Y119.105 E8.20007
G1 X72.293 Y118.112 E8.25877
G1 X71.907 Y117.832 E8.27463
G1 X70.623 Y116.838 E8.32864
G1 X70.303 Y116.576 E8.3424
G1 X69.13 Y115.564 E8.39392
G1 X68.867 Y115.326 E8.40572
G1 X67.789 Y114.307 E8.45506
G1 X67.524 Y114.045 E8.46745
G1 X66.55 Y113.032 E8.51419
G1 X66.332 Y112.795 E8.5249
G1 X65.456 Y111.805 E8.56887
G1 X65.283 Y111.603 E8.57772
G1 X64.88 Y111.115 E8.59877
G1 X64.779 Y110.99 E8.60411
G1 X64.406 Y110.519 E8.62409
G1 X63.948 Y109.876 E8.65035
G1 X63.557 Y109.19 E8.67661
G1 X63.237 Y108.468 E8.70288
G1 X62.993 Y107.717 E8.72914
G1 X62.825 Y106.946 E8.75539
G1 X62.736 Y106.161 E8.78167
G1 X62.727 Y105.371 E8.80794
G1 X62.798 Y104.585 E8.83419
G1 X62.948 Y103.81 E8.86045
G1 X63.175 Y103.053 E8.88673
G1 X63.478 Y102.324 E8.91299
G1 X63.853 Y101.629 E8.93926
G1 X64.297 Y100.976 E8.96552
G1 X64.804 Y100.371 E8.99177
G1 X65.37 Y99.82 E9.01805
G1 X65.989 Y99.329 E9.04432
G0 F3600 X66.485 Y99.474
G1 F1500 X67.151 Y99.089 E9.06991
G1 X67.853 Y98.775 E9.09549
G1 X68.584 Y98.535 E9.12108
G1 X69.336 Y98.373 E9.14666
G1 X70.1 Y98.289 E9.17223
G1 X70.869 Y98.285 E9.19781
G1 X71.635 Y98.361 E9.22341
G1 X72.25 Y98.482 E9.24425
G1 X73.124 Y98.692 E9.27415
G1 X73.187 Y98.707 E9.27631
G1 X74.934 Y99.143 E9.33619
G1 X74.934 Y99.144 E9.33623
G1 X94.322 Y103.975 E10.00079
G1 X104.091 Y89.09 E10.59297
G1 X104.546 Y88.47 E10.61855
G1 X105.063 Y87.9 E10.64414
G1 X105.636 Y87.387 E10.66972
G1 X106.259 Y86.936 E10.6953
G1 X106.926 Y86.553 E10.72088
G1 X107.629 Y86.24 E10.74648
G1 X108.36 Y86.003 E10.77204
G1 X109.113 Y85.842 E10.79765
G1 X109.877 Y85.761 E10.8232
G1 X110.278 Y85.75 E10.83654
G1 X149.485 Y85.75 E12.14057
G1 X150.253 Y85.79 E12.16615
G1 X151.013 Y85.909 E12.19174
G1 X151.756 Y86.107 E12.21731
G1 X152.475 Y86.381 E12.2429
G1 X153.161 Y86.728 E12.26847
G1 X153.808 Y87.144 E12.29406
G1 X154.408 Y87.625 E12.31963
G1 X154.955 Y88.166 E12.34522
G1 X155.443 Y88.761 E12.37082
G1 X155.866 Y89.403 E12.39639
G1 X156.221 Y90.086 E12.42199
G1 X156.502 Y90.801 E12.44754
G1 X156.708 Y91.543 E12.47315
G1 X156.836 Y92.301 E12.49872
G1 X156.885 Y93.15 E12.52701
G1 X156.885 Y124.07 E13.55541
G1 X156.87 Y124.536 E13.57092
G1 X156.821 Y125.312 E13.59678
G1 X156.733 Y126.076 E13.62236
G1 X156.487 Y127.09 E13.65706
G1 X156.332 Y127.577 E13.67406
G1 X156.061 Y128.297 E13.69965
G1 X155.764 Y128.9 E13.722
G1 X155.523 Y129.338 E13.73863
G1 X155.118 Y129.992 E13.76422
G1 X154.682 Y130.56 E13.78803
G1 X154.362 Y130.937 E13.80448
G1 X153.834 Y131.496 E13.83006
G1 X153.306 Y131.955 E13.85332
G1 X152.916 Y132.263 E13.86985
G1 X152.289 Y132.708 E13.89543
G1 X151.663 Y133.063 E13.91936
G1 X151.215 Y133.289 E13.93605
G1 X150.511 Y133.599 E13.96164
G1 X149.842 Y133.818 E13.98505
G1 X149.365 Y133.949 E14.0015
G1 X148.613 Y134.114 E14.02711
G1 X147.91 Y134.196 E14.05065
G1 X147.413 Y134.23 E14.06722
G1 X146.644 Y134.242 E14.0928
G1 X145.943 Y134.184 E14.11619
G1 X145.449 Y134.119 E14.13276
G1 X144.692 Y133.979 E14.15837
G1 X144.012 Y133.781 E14.18193
G1 X143.54 Y133.619 E14.19852
G1 X142.826 Y133.332 E14.22412
G1 X142.199 Y133.003 E14.24767
G1 X141.771 Y132.752 E14.26417
G1 X141.128 Y132.329 E14.28977
G1 X140.588 Y131.891 E14.3129
G1 X140.217 Y131.56 E14.32943
G1 X139.67 Y131.019 E14.35502
G1 X139.212 Y130.464 E14.37895
G1 X139.127 Y130.35 E14.38368
G1 X135.844 Y130.35 E14.49288
G1 X135.691 Y130.551 E14.50128
G1 X135.194 Y131.138 E14.52686
G1 X134.628 Y131.678 E14.55288
G1 X134.243 Y132.009 E14.56977
G1 X133.635 Y132.48 E14.59535
G1 X133.029 Y132.858 E14.6191
G1 X132.587 Y133.105 E14.63594
G1 X131.897 Y133.445 E14.66153
G1 X131.203 Y133.702 E14.68614
G1 X130.718 Y133.855 E14.70306
G1 X129.974 Y134.048 E14.72862
G1 X129.247 Y134.159 E14.75308
G1 X128.74 Y134.211 E14.77003
G1 X127.972 Y134.25 E14.79561
G1 X127.229 Y134.211 E14.82035
G1 X126.723 Y134.159 E14.83727
G1 X125.963 Y134.041 E14.86285
G1 X125.257 Y133.856 E14.88713
G1 X124.771 Y133.703 E14.90407
G1 X124.05 Y133.435 E14.92966
G1 X123.383 Y133.105 E14.95441
G1 X122.941 Y132.858 E14.97125
G1 X122.29 Y132.448 E14.99684
G1 X121.72 Y132.003 E15.02089
G1 X121.336 Y131.672 E15.03775
G1 X120.78 Y131.14 E15.06335
G1 X120.296 Y130.572 E15.08817
G1 X119.986 Y130.168 E15.1051
G1 X119.55 Y129.534 E15.1307
G1 X119.19 Y128.873 E15.15573
G1 X118.969 Y128.414 E15.17267
G1 X118.682 Y127.735 E15.19719
G1 X117.231 Y123.75 E15.33825
G1 X111.26 Y123.75 E15.53684
G1 X109.943 Y127.369 E15.66493
G1 X109.789 Y127.758 E15.67885
G1 X109.44 Y128.571 E15.70828
G1 X109.1 Y129.261 E15.73386
G1 X108.515 Y130.151 E15.76928
G1 X108.201 Y130.561 E15.78646
G1 X107.702 Y131.147 E15.81206
G1 X107.181 Y131.647 E15.83608
G1 X106.806 Y131.973 E15.8526
G1 X106.2 Y132.446 E15.87817
G1 X105.614 Y132.818 E15.90126
G1 X105.184 Y133.063 E15.91772
G1 X104.497 Y133.408 E15.94329
G1 X103.83 Y133.664 E15.96705
G1 X103.355 Y133.82 E15.98368
G1 X102.613 Y134.021 E16.00925
G1 X101.924 Y134.137 E16.03249
G1 X101.43 Y134.196 E16.04903
G1 X100.662 Y134.247 E16.07463
G1 X99.957 Y134.224 E16.09809
G1 X99.461 Y134.184 E16.11464
G1 X98.699 Y134.082 E16.14021
G1 X98.013 Y133.92 E16.16366
G1 X97.536 Y133.783 E16.18017
G1 X96.809 Y133.533 E16.20574
G1 X96.157 Y133.232 E16.22962
G1 X95.716 Y133.002 E16.24616
G1 X95.053 Y132.612 E16.27175
G1 X94.481 Y132.192 E16.29535
G1 X94.092 Y131.877 E16.312
G1 X93.52 Y131.362 E16.3376
G1 X93.06 Y130.859 E16.36027
G1 X92.743 Y130.478 E16.37675
G1 X92.283 Y129.862 E16.40232
G1 X91.911 Y129.243 E16.42634
G1 X91.675 Y128.803 E16.44295
G1 X91.347 Y128.107 E16.46854
G1 X91.11 Y127.438 E16.49215
G1 X90.967 Y126.963 E16.50865
G1 X90.784 Y126.216 E16.53423
G1 X90.667 Y125.287 E16.56537
G1 X90.62 Y124.528 E16.59066
G1 X90.611 Y124.25 E16.59991
G1 X89.587 Y124.25 E16.63397
G1 X89.255 Y124.243 E16.64502
G1 X88.698 Y124.218 E16.66356
G1 X88.049 Y124.16 E16.68523
G1 X87.466 Y124.082 E16.7048
G1 X87.108 Y124.025 E16.71685
G1 X86.559 Y123.924 E16.73542
G1 X86.301 Y123.872 E16.74417
G1 X85.722 Y123.744 E16.76389
G1 X85.533 Y123.699 E16.77036
G1 X84.938 Y123.551 E16.79075
G1 X84.775 Y123.509 E16.79635
G1 X84.222 Y123.358 E16.81541
G1 X84.063 Y123.312 E16.82092
G1 X83.316 Y123.09 E16.84684
G1 X83.143 Y123.037 E16.85286
G1 X82.458 Y122.815 E16.87681
G1 X82.281 Y122.755 E16.88302
G1 X81.659 Y122.536 E16.90496
G1 X81.534 Y122.49 E16.90939
G1 X80.718 Y122.186 E16.93835
G1 X80.522 Y122.11 E16.94534
G1 X79.688 Y121.772 E16.97527
G1 X79.416 Y121.656 E16.98511
G1 X77.938 Y120.987 E17.03907
G1 X77.574 Y120.81 E17.05253
G1 X76.119 Y120.053 E17.10708
G1 X75.743 Y119.843 E17.1214
G1 X74.35 Y119.012 E17.17535
G1 X73.977 Y118.775 E17.19005
G1 X72.518 Y117.782 E17.24875
G1 X72.152 Y117.515 E17.26382
G1 X70.868 Y116.521 E17.31783
G1 X70.564 Y116.273 E17.33087
G1 X69.391 Y115.261 E17.3824
G1 X69.142 Y115.036 E17.39356
G1 X68.064 Y114.017 E17.4429
G1 X67.813 Y113.768 E17.45466
G1 X66.839 Y112.755 E17.5014
G1 X66.631 Y112.53 E17.51159
G1 X65.755 Y111.54 E17.55556
G1 X65.591 Y111.348 E17.56396
G1 X65.188 Y110.86 E17.58501
G1 X65.093 Y110.742 E17.59005
G1 X64.72 Y110.271 E17.61003
G1 X64.274 Y109.644 E17.63562
G1 X63.896 Y108.974 E17.66121
G1 X63.59 Y108.269 E17.68677
G1 X63.358 Y107.535 E17.71237
G1 X63.204 Y106.782 E17.73794
G1 X63.129 Y106.016 E17.76354
G1 X63.133 Y105.247 E17.78911
G1 X63.218 Y104.483 E17.81468
G1 X63.381 Y103.731 E17.84027
G1 X63.622 Y103.001 E17.86584
G1 X63.937 Y102.299 E17.89143
G1 X64.323 Y101.634 E17.91701
G1 X64.776 Y101.012 E17.9426
G1 X65.292 Y100.441 E17.9682
G1 X65.863 Y99.927 E17.99375
G1 X66.485 Y99.474 E18.01934
G0 F3600 X66.358 Y100.049
G1 F1500 X66.983 Y99.637 E18.04424
G1 X67.647 Y99.294 E18.0691
G1 X68.345 Y99.024 E18.09399
G1 X69.067 Y98.83 E18.11886
G1 X69.806 Y98.714 E18.14374
G1 X70.554 Y98.677 E18.16864
G1 X71.3 Y98.721 E18.1935
G1 X72.156 Y98.871 E18.2224
G1 X73.03 Y99.081 E18.2523
G1 X73.09 Y99.095 E18.25435
G1 X74.837 Y99.531 E18.31424
G1 X94.502 Y104.432 E18.98831
G1 X104.426 Y89.309 E19.58993
G1 X104.869 Y88.707 E19.61479
G1 X105.374 Y88.155 E19.63967
G1 X105.935 Y87.66 E19.66456
G1 X106.546 Y87.228 E19.68944
G1 X107.199 Y86.864 E19.71431
G1 X107.887 Y86.571 E19.73918
G1 X108.603 Y86.353 E19.76407
G1 X109.338 Y86.213 E19.78896
G1 X110.278 Y86.15 E19.82029
G1 X149.485 Y86.15 E21.12433
G1 X150.232 Y86.19 E21.14921
G1 X150.97 Y86.309 E21.17407
G1 X151.692 Y86.507 E21.19897
G1 X152.388 Y86.78 E21.22384
G1 X153.051 Y87.127 E21.24872
G1 X153.674 Y87.542 E21.27362
G1 X154.248 Y88.021 E21.29849
G1 X154.769 Y88.558 E21.32337
G1 X155.228 Y89.148 E21.34824
G1 X155.623 Y89.784 E21.37314
G1 X155.947 Y90.458 E21.39801
G1 X156.197 Y91.163 E21.42289
G1 X156.371 Y91.891 E21.44778
G1 X156.466 Y92.633 E21.47266
G1 X156.485 Y93.15 E21.48987
G1 X156.485 Y124.07 E22.51828
G1 X156.471 Y124.511 E22.53295
G1 X156.422 Y125.287 E22.55881
G1 X156.335 Y126.03 E22.58369
G1 X156.106 Y126.969 E22.61584
G1 X155.951 Y127.456 E22.63284
G1 X155.687 Y128.156 E22.65772
G1 X155.414 Y128.708 E22.6782
G1 X155.173 Y129.146 E22.69483
G1 X154.778 Y129.781 E22.7197
G1 X154.377 Y130.301 E22.74154
G1 X154.057 Y130.678 E22.75799
G1 X153.543 Y131.221 E22.78286
G1 X153.058 Y131.641 E22.8042
G1 X152.668 Y131.949 E22.82073
G1 X152.057 Y132.381 E22.84562
G1 X151.483 Y132.706 E22.86755
G1 X151.035 Y132.932 E22.88424
G1 X150.35 Y133.233 E22.90913
G1 X149.736 Y133.432 E22.9306
G1 X149.259 Y133.563 E22.94705
G1 X148.528 Y133.722 E22.97193
G1 X147.883 Y133.797 E22.99353
G1 X147.386 Y133.831 E23.0101
G1 X146.638 Y133.842 E23.03498
G1 X145.995 Y133.787 E23.05644
G1 X145.501 Y133.722 E23.07302
G1 X144.765 Y133.585 E23.09792
G1 X144.142 Y133.403 E23.1195
G1 X143.67 Y133.241 E23.1361
G1 X142.976 Y132.961 E23.16099
G1 X142.401 Y132.658 E23.18261
G1 X141.973 Y132.407 E23.19911
G1 X141.349 Y131.995 E23.22398
G1 X140.854 Y131.592 E23.24521
G1 X140.483 Y131.261 E23.26175
G1 X139.952 Y130.734 E23.28663
G1 X139.533 Y130.224 E23.30858
G1 X139.329 Y129.95 E23.31994
G1 X135.646 Y129.95 E23.44244
G1 X135.373 Y130.308 E23.45742
G1 X134.888 Y130.879 E23.48233
G1 X134.367 Y131.375 E23.50626
G1 X133.982 Y131.706 E23.52315
G1 X133.39 Y132.163 E23.54802
G1 X132.834 Y132.509 E23.5698
G1 X132.392 Y132.756 E23.58664
G1 X131.72 Y133.085 E23.61153
G1 X131.083 Y133.321 E23.63412
G1 X130.598 Y133.474 E23.65104
